GH5 VLOG/[TTG] Sky Blue_rec709.cube
# Created by: Adobe Lightroom Export LUT Plugin
LUT_3D_SIZE 5
DOMAIN_MIN 0.000000 0.000000 0.000000
DOMAIN_MAX 0.903226 0.903226 0.903226
0.000000 0.000000 0.000000
0.260685 0.017975 0.000000
0.501030 0.074037 0.000000
0.731563 0.138582 0.000000
0.942077 0.186160 0.000000
0.107485 0.166384 0.081849
0.247532 0.226139 0.000000
0.514549 0.195315 0.000000
0.738125 0.224704 0.000000
0.948272 0.249638 0.000000
0.241550 0.349645 0.195102
0.282689 0.368902 0.163088
0.484535 0.446967 0.000000
0.749752 0.416022 0.000000
0.965240 0.372229 0.000000
0.378027 0.534081 0.311315
0.400488 0.546258 0.293034
0.484504 0.578668 0.227390
0.709255 0.656123 0.000000
0.962310 0.623987 0.000000
0.551324 0.751217 0.468879
0.564111 0.758694 0.455268
0.609491 0.777768 0.406561
0.715297 0.811734 0.297581
0.947112 0.876829 0.000000
0.000000 0.146090 0.247684
0.202152 0.095491 0.232914
0.480690 0.141634 0.185550
0.718746 0.179049 0.127840
0.934539 0.209781 0.000000
0.000000 0.243992 0.249973
0.236576 0.236576 0.236576
0.491981 0.237400 0.201755
0.726650 0.247379 0.134554
0.941039 0.263005 0.000000
0.203799 0.404181 0.261875
0.314549 0.384863 0.289097
0.481117 0.451423 0.211307
0.744961 0.406928 0.142672
0.961730 0.380957 0.000000
0.384466 0.558587 0.364050
0.423774 0.555535 0.372381
0.495064 0.587549 0.321935
0.707942 0.659327 0.194980
0.962951 0.621851 0.000000
0.563989 0.755245 0.513909
0.578973 0.760098 0.507530
0.620294 0.781888 0.467231
0.718776 0.815518 0.372534
0.946624 0.879240 0.139773
0.000000 0.298528 0.477729
0.000000 0.254948 0.479316
0.401770 0.223239 0.455482
0.671748 0.268894 0.422766
0.911101 0.317784 0.372045
0.000000 0.350256 0.480079
0.000000 0.334447 0.478248
0.419013 0.305333 0.458595
0.681178 0.334112 0.423194
0.916655 0.359228 0.376806
0.000000 0.473762 0.484810
0.000000 0.471412 0.480354
0.460883 0.460883 0.460883
0.704280 0.459754 0.433387
0.938170 0.447730 0.374029
0.000000 0.641505 0.459876
0.271580 0.639643 0.462837
0.532280 0.603571 0.508141
0.699794 0.666743 0.432776
0.962524 0.615961 0.362951
0.464240 0.806912 0.538994
0.533471 0.798337 0.558618
0.645411 0.783810 0.595331
0.724178 0.819913 0.529015
0.939239 0.881468 0.392462
0.000000 0.439063 0.689631
0.000000 0.417304 0.691127
0.000000 0.327184 0.692744
0.592401 0.356695 0.665095
0.844083 0.433204 0.645686
0.000000 0.473579 0.690547
0.000000 0.460395 0.690700
0.000000 0.400092 0.690486
0.601434 0.407019 0.665370
0.845731 0.476814 0.649042
0.000000 0.551720 0.693599
0.000000 0.547356 0.692500
0.000000 0.532280 0.688624
0.628260 0.523430 0.667872
0.871580 0.562097 0.652033
0.000000 0.684779 0.699916
0.000000 0.683925 0.698024
0.161563 0.681849 0.692134
0.673365 0.673518 0.673457
0.924224 0.667384 0.641901
0.000000 0.870848 0.677058
0.000000 0.869657 0.672999
0.397192 0.865019 0.670283
0.750179 0.826169 0.725216
0.924346 0.887327 0.638422
0.000000 0.578332 0.899290
0.000000 0.566400 0.899779
0.000000 0.536706 0.900237
0.281926 0.456336 0.900877
0.793332 0.549310 0.874388
0.000000 0.603204 0.899596
0.000000 0.592889 0.899992
0.000000 0.566064 0.900298
0.304479 0.492714 0.900816
0.799069 0.575769 0.875151
0.000000 0.654810 0.903807
0.000000 0.651179 0.903593
0.000000 0.640192 0.902647
0.396155 0.604059 0.900420
0.816220 0.642054 0.879271
0.000000 0.752560 0.910918
0.000000 0.749844 0.910704
0.000000 0.742061 0.910155
0.369024 0.738643 0.905974
0.848356 0.747433 0.888121
0.000000 0.898589 0.919371
0.000000 0.898833 0.918853
0.000000 0.899809 0.917082
0.437201 0.900755 0.911925
0.896452 0.896483 0.896483
