GH5 VLOG/[TTG] Sky Blue_rec709.cube
# Created by: Adobe Lightroom Export LUT Plugin
LUT_3D_SIZE 32
DOMAIN_MIN 0.0 0.0 0.0
DOMAIN_MAX 1.0 1.0 1.0
0.000000 0.000000 0.000000
0.041779 0.001160 0.000000
0.076753 0.001862 0.000000
0.112978 0.003571 0.000000
0.150729 0.006500 0.000000
0.187900 0.009705 0.000000
0.224582 0.013428 0.000000
0.260685 0.017975 0.000000
0.296269 0.023468 0.000000
0.330907 0.030640 0.000000
0.365393 0.039124 0.000000
0.399634 0.046815 0.000000
0.433631 0.055879 0.000000
0.467445 0.065400 0.000000
0.501030 0.074037 0.000000
0.534264 0.083742 0.000000
0.567315 0.093324 0.000000
0.600092 0.102602 0.000000
0.632837 0.111788 0.000000
0.665461 0.120943 0.000000
0.699672 0.130037 0.000000
0.731563 0.138582 0.000000
0.762264 0.146853 0.000000
0.792355 0.154055 0.000000
0.822293 0.161074 0.000000
0.852018 0.168093 0.000000
0.881956 0.174075 0.000000
0.911894 0.180331 0.000000
0.942077 0.186160 0.000000
0.972473 0.191470 0.000000
1.000000 0.196353 0.000000
1.000000 0.201083 0.000000
0.010986 0.021118 0.007355
0.041321 0.034180 0.000000
0.081209 0.029541 0.000000
0.119692 0.022705 0.000000
0.155825 0.025635 0.000000
0.191470 0.029389 0.000000
0.227359 0.033143 0.000000
0.262608 0.038117 0.000000
0.297765 0.043519 0.000000
0.332067 0.049805 0.000000
0.366155 0.056489 0.000000
0.400275 0.063478 0.000000
0.433967 0.071138 0.000000
0.467659 0.078645 0.000000
0.500908 0.086946 0.000000
0.534142 0.095308 0.000000
0.567102 0.103944 0.000000
0.599847 0.112367 0.000000
0.632624 0.120363 0.000000
0.665492 0.128817 0.000000
0.699214 0.137758 0.000000
0.730892 0.145602 0.000000
0.761349 0.152895 0.000000
0.791257 0.160006 0.000000
0.821042 0.166354 0.000000
0.850797 0.172885 0.000000
0.880644 0.178988 0.000000
0.910613 0.184878 0.000000
0.940795 0.190036 0.000000
0.971191 0.195438 0.000000
1.000000 0.200198 0.000000
1.000000 0.204868 0.000000
0.023529 0.045686 0.016571
0.039368 0.053315 0.009094
0.075624 0.066072 0.000000
0.117952 0.064759 0.000000
0.159335 0.054353 0.000000
0.195590 0.050660 0.000000
0.230411 0.053925 0.000000
0.264897 0.058350 0.000000
0.299382 0.062776 0.000000
0.333562 0.067689 0.000000
0.367376 0.072663 0.000000
0.401251 0.078767 0.000000
0.434852 0.085298 0.000000
0.468208 0.092073 0.000000
0.501518 0.099306 0.000000
0.534478 0.107118 0.000000
0.567346 0.114870 0.000000
0.600000 0.122133 0.000000
0.632715 0.130037 0.000000
0.665858 0.137484 0.000000
0.699245 0.145541 0.000000
0.730770 0.152865 0.000000
0.761135 0.159792 0.000000
0.790951 0.166262 0.000000
0.820584 0.172366 0.000000
0.850309 0.178592 0.000000
0.880125 0.184268 0.000000
0.910094 0.189853 0.000000
0.940307 0.194888 0.000000
0.970764 0.199863 0.000000
1.000000 0.204807 0.000000
1.000000 0.209079 0.000000
0.040131 0.068421 0.029084
0.051148 0.074525 0.020813
0.067659 0.080476 0.012329
0.108888 0.097810 0.000000
0.154696 0.099123 0.000000
0.195926 0.092256 0.000000
0.234867 0.080049 0.000000
0.268925 0.080293 0.000000
0.302647 0.083894 0.000000
0.336217 0.087922 0.000000
0.369451 0.092866 0.000000
0.402930 0.097536 0.000000
0.436164 0.102876 0.000000
0.469215 0.109194 0.000000
0.502251 0.115175 0.000000
0.535119 0.122011 0.000000
0.567742 0.128481 0.000000
0.600397 0.135103 0.000000
0.632868 0.142061 0.000000
0.666041 0.149081 0.000000
0.698909 0.156252 0.000000
0.730098 0.162661 0.000000
0.760372 0.168978 0.000000
0.790188 0.174960 0.000000
0.820066 0.180850 0.000000
0.849912 0.186496 0.000000
0.879881 0.192020 0.000000
0.910094 0.197208 0.000000
0.940429 0.202060 0.000000
0.970916 0.206638 0.000000
1.000000 0.211093 0.000000
1.000000 0.215152 0.000000
0.055604 0.091066 0.040955
0.064302 0.095979 0.034974
0.076356 0.101228 0.026795
0.095766 0.108186 0.016052
0.142916 0.129183 0.000000
0.189761 0.133059 0.000000
0.230472 0.128054 0.000000
0.270085 0.119478 0.000000
0.306188 0.107057 0.000000
0.339086 0.110231 0.000000
0.371923 0.113893 0.000000
0.404700 0.118593 0.000000
0.437781 0.123049 0.000000
0.470680 0.128054 0.000000
0.503288 0.133730 0.000000
0.536156 0.139193 0.000000
0.568811 0.144869 0.000000
0.601312 0.150912 0.000000
0.633722 0.156741 0.000000
0.666987 0.163302 0.000000
0.699611 0.169406 0.000000
0.730373 0.175418 0.000000
0.760647 0.180880 0.000000
0.790494 0.186343 0.000000
0.820310 0.191653 0.000000
0.850187 0.196658 0.000000
0.880278 0.201480 0.000000
0.910399 0.206455 0.000000
0.940673 0.211002 0.000000
0.971130 0.215274 0.000000
1.000000 0.219242 0.000000
1.000000 0.223178 0.000000
0.071260 0.114473 0.053071
0.078340 0.118715 0.047883
0.088258 0.123049 0.041596
0.103517 0.129305 0.031189
0.125246 0.137118 0.018891
0.176944 0.160830 0.000000
0.224826 0.166354 0.000000
0.265049 0.161807 0.000000
0.303929 0.155215 0.000000
0.340887 0.145235 0.000000
0.375708 0.136843 0.000000
0.407965 0.140444 0.000000
0.440558 0.144686 0.000000
0.473213 0.148959 0.000000
0.505730 0.153445 0.000000
0.538201 0.158206 0.000000
0.570703 0.163210 0.000000
0.603113 0.168276 0.000000
0.635798 0.173800 0.000000
0.669062 0.179385 0.000000
0.701137 0.184939 0.000000
0.731930 0.190127 0.000000
0.769772 0.197208 0.000000
0.799588 0.202029 0.000000
0.829343 0.206912 0.000000
0.859068 0.211368 0.000000
0.888731 0.215610 0.000000
0.918578 0.219791 0.000000
0.948486 0.223758 0.000000
0.978515 0.227726 0.000000
1.000000 0.231174 0.000000
1.000000 0.234562 0.000000
0.089357 0.140475 0.067597
0.095308 0.144106 0.062531
0.103365 0.148104 0.057649
0.115999 0.153506 0.049866
0.133577 0.160189 0.037507
0.157839 0.169284 0.021607
0.212528 0.194186 0.000000
0.261112 0.200198 0.000000
0.300633 0.196201 0.000000
0.339574 0.190066 0.000000
0.377691 0.181735 0.000000
0.413001 0.171817 0.000000
0.446662 0.166903 0.000000
0.478981 0.170596 0.000000
0.510857 0.174655 0.000000
0.543145 0.179019 0.000000
0.575158 0.183444 0.000000
0.607263 0.187991 0.000000
0.640833 0.193057 0.000000
0.674250 0.198032 0.000000
0.706477 0.203037 0.000000
0.737423 0.207492 0.000000
0.768002 0.212009 0.000000
0.798276 0.216403 0.000000
0.828489 0.220584 0.000000
0.858518 0.224765 0.000000
0.888365 0.228702 0.000000
0.918151 0.232425 0.000000
0.948058 0.235996 0.000000
0.977996 0.239414 0.000000
1.000000 0.242618 0.000000
1.000000 0.245640 0.000000
0.107485 0.166384 0.081849
0.112764 0.169467 0.078370
0.118959 0.172732 0.073854
0.129519 0.177432 0.067109
0.144350 0.183444 0.056916
0.163790 0.190494 0.043519
0.190951 0.201755 0.023438
0.247532 0.226139 0.000000
0.295262 0.232456 0.000000
0.334173 0.228550 0.000000
0.373114 0.223148 0.000000
0.411200 0.215640 0.000000
0.447211 0.206638 0.000000
0.482063 0.195651 0.000000
0.514549 0.195315 0.000000
0.546227 0.198947 0.000000
0.577905 0.202792 0.000000
0.610620 0.207340 0.000000
0.643336 0.212009 0.000000
0.675807 0.216800 0.000000
0.707485 0.220920 0.000000
0.738125 0.224704 0.000000
0.768429 0.228672 0.000000
0.798611 0.232364 0.000000
0.828641 0.236149 0.000000
0.858671 0.239658 0.000000
0.888487 0.243107 0.000000
0.918273 0.246616 0.000000
0.948272 0.249638 0.000000
0.978210 0.252781 0.000000
1.000000 0.255589 0.000000
1.000000 0.258335 0.000000
0.126101 0.192996 0.097566
0.130831 0.195590 0.093904
0.135927 0.198459 0.089967
0.144900 0.202426 0.084108
0.157534 0.207614 0.076081
0.173953 0.213962 0.064363
0.194858 0.221439 0.048829
0.224552 0.234928 0.024842
0.281682 0.258030 0.000000
0.329351 0.264378 0.000000
0.368353 0.260533 0.000000
0.406714 0.255344 0.000000
0.444709 0.248631 0.000000
0.481697 0.240330 0.000000
0.516320 0.230259 0.000000
0.550561 0.219486 0.000000
0.582696 0.223148 0.000000
0.614923 0.226902 0.000000
0.646967 0.231113 0.000000
0.678859 0.235447 0.000000
0.709712 0.239536 0.000000
0.739956 0.243046 0.000000
0.770047 0.246311 0.000000
0.800015 0.249668 0.000000
0.830014 0.252811 0.000000
0.859861 0.255924 0.000000
0.889616 0.259159 0.000000
0.919463 0.261936 0.000000
0.949248 0.264744 0.000000
0.979217 0.267338 0.000000
1.000000 0.269932 0.000000
1.000000 0.272282 0.000000
0.145052 0.219760 0.113100
0.149111 0.222019 0.110109
0.153719 0.224399 0.106508
0.161257 0.227909 0.101045
0.171817 0.232456 0.094148
0.185763 0.238041 0.084535
0.203647 0.244480 0.071138
0.225498 0.251896 0.053529
0.257328 0.267094 0.024475
0.315190 0.289311 0.000000
0.362768 0.295689 0.000000
0.401740 0.292515 0.000000
0.439948 0.287297 0.000000
0.477577 0.280827 0.000000
0.515007 0.273259 0.000000
0.551263 0.263981 0.000000
0.586084 0.254002 0.000000
0.619776 0.247318 0.000000
0.651514 0.250889 0.000000
0.682887 0.254490 0.000000
0.713008 0.257908 0.000000
0.742580 0.261295 0.000000
0.771969 0.264591 0.000000
0.801389 0.267552 0.000000
0.831083 0.270176 0.000000
0.860685 0.272953 0.000000
0.890257 0.275700 0.000000
0.920073 0.278202 0.000000
0.949950 0.280705 0.000000
0.979980 0.282994 0.000000
1.000000 0.285252 0.000000
1.000000 0.287358 0.000000
0.164004 0.245914 0.128878
0.167422 0.247868 0.126284
0.171633 0.249973 0.122774
0.177829 0.253117 0.118471
0.186923 0.257206 0.111727
0.198764 0.262181 0.103578
0.214755 0.267887 0.092226
0.233768 0.274510 0.077211
0.256107 0.281987 0.057710
0.289769 0.299077 0.023560
0.348333 0.320439 0.000000
0.396490 0.326635 0.000000
0.435279 0.323735 0.000000
0.473548 0.319036 0.000000
0.511559 0.313298 0.000000
0.549248 0.306035 0.000000
0.586236 0.297856 0.000000
0.620844 0.287877 0.000000
0.655055 0.277073 0.000000
0.686885 0.274144 0.000000
0.716396 0.276738 0.000000
0.745632 0.279637 0.000000
0.774685 0.282597 0.000000
0.803830 0.285740 0.000000
0.833127 0.288457 0.000000
0.862608 0.290959 0.000000
0.892210 0.293156 0.000000
0.921904 0.295445 0.000000
0.951720 0.297490 0.000000
0.981689 0.299626 0.000000
1.000000 0.301610 0.000000
1.000000 0.303380 0.000000
0.183230 0.271946 0.144961
0.186191 0.273594 0.142519
0.189731 0.275639 0.139712
0.195041 0.278416 0.135561
0.203006 0.281926 0.129915
0.213321 0.286381 0.122408
0.227115 0.291722 0.112612
0.243748 0.297704 0.100221
0.263554 0.304448 0.083467
0.286687 0.311772 0.061677
0.322362 0.330785 0.022553
0.382238 0.351781 0.000000
0.434028 0.361669 0.000000
0.473915 0.359289 0.000000
0.512383 0.354681 0.000000
0.550469 0.349065 0.000000
0.588220 0.342260 0.000000
0.625635 0.334081 0.000000
0.660883 0.324315 0.000000
0.693904 0.313115 0.000000
0.725917 0.300786 0.000000
0.754849 0.301305 0.000000
0.783474 0.303471 0.000000
0.812100 0.306035 0.000000
0.840879 0.308659 0.000000
0.869810 0.311315 0.000000
0.898924 0.313085 0.000000
0.928130 0.314977 0.000000
0.957488 0.316503 0.000000
0.987030 0.318090 0.000000
1.000000 0.319677 0.000000
1.000000 0.320989 0.000000
0.202945 0.298894 0.161807
0.205844 0.300359 0.159457
0.208743 0.302129 0.156710
0.213535 0.304570 0.153506
0.220371 0.307683 0.148257
0.229526 0.311559 0.141360
0.241154 0.316228 0.132448
0.255863 0.321691 0.121248
0.273594 0.327886 0.107607
0.294652 0.335302 0.090333
0.318639 0.343114 0.066194
0.356512 0.364477 0.022278
0.418372 0.385473 0.000000
0.467475 0.392676 0.000000
0.507317 0.390723 0.000000
0.545495 0.386175 0.000000
0.583215 0.380529 0.000000
0.620386 0.373816 0.000000
0.657130 0.365576 0.000000
0.691798 0.355932 0.000000
0.723659 0.344549 0.000000
0.755184 0.332616 0.000000
0.785946 0.322271 0.000000
0.814450 0.324376 0.000000
0.843076 0.326604 0.000000
0.871824 0.329168 0.000000
0.900664 0.331426 0.000000
0.929931 0.333013 0.000000
0.959289 0.334478 0.000000
0.988891 0.335851 0.000000
1.000000 0.337194 0.000000
1.000000 0.338354 0.000000
0.221927 0.324041 0.178042
0.224216 0.325322 0.176059
0.226993 0.326818 0.173617
0.231205 0.329046 0.170626
0.237278 0.331853 0.165652
0.245243 0.335576 0.159640
0.255650 0.340124 0.152041
0.268589 0.345251 0.142275
0.284459 0.351232 0.130861
0.303288 0.357824 0.115877
0.324926 0.364996 0.096864
0.349584 0.373144 0.071962
0.388739 0.396002 0.022522
0.451820 0.416480 0.000000
0.500633 0.423651 0.000000
0.540093 0.421637 0.000000
0.577874 0.417121 0.000000
0.615259 0.411444 0.000000
0.651667 0.404334 0.000000
0.686702 0.395697 0.000000
0.720882 0.386175 0.000000
0.753353 0.375280 0.000000
0.784787 0.363775 0.000000
0.816190 0.351843 0.000000
0.846342 0.345495 0.000000
0.874968 0.347539 0.000000
0.903746 0.349798 0.000000
0.932677 0.351934 0.000000
0.961913 0.353094 0.000000
0.991424 0.354284 0.000000
1.000000 0.355413 0.000000
1.000000 0.356451 0.000000
0.241550 0.349645 0.195102
0.243442 0.350988 0.193301
0.245945 0.352361 0.191318
0.249851 0.354376 0.188266
0.255070 0.357000 0.184054
0.262089 0.360235 0.178500
0.271092 0.364111 0.171633
0.282689 0.368902 0.163088
0.296788 0.374304 0.152560
0.313481 0.380377 0.139986
0.332830 0.387091 0.123659
0.354925 0.394415 0.103395
0.381323 0.404334 0.075898
0.420874 0.427192 0.023438
0.484535 0.446967 0.000000
0.533318 0.454322 0.000000
0.572930 0.452308 0.000000
0.610040 0.447791 0.000000
0.646326 0.441566 0.000000
0.681270 0.433967 0.000000
0.715908 0.425360 0.000000
0.749752 0.416022 0.000000
0.783291 0.405615 0.000000
0.814847 0.394507 0.000000
0.846372 0.382696 0.000000
0.877745 0.370642 0.000000
0.907225 0.368566 0.000000
0.936095 0.370611 0.000000
0.965240 0.372229 0.000000
0.994751 0.373327 0.000000
1.000000 0.374273 0.000000
1.000000 0.375219 0.000000
0.260594 0.374975 0.212100
0.262730 0.376226 0.210544
0.264988 0.377539 0.208499
0.268132 0.379217 0.205478
0.272984 0.381689 0.201846
0.279179 0.384741 0.196719
0.287419 0.388464 0.190768
0.297520 0.392859 0.183047
0.310094 0.397864 0.173587
0.325078 0.403571 0.162448
0.342504 0.409705 0.148623
0.362524 0.416541 0.131868
0.384802 0.423743 0.110719
0.413001 0.435279 0.080171
0.453101 0.457465 0.024109
0.516869 0.476783 0.000000
0.565179 0.484260 0.000000
0.604578 0.482307 0.000000
0.640497 0.476936 0.000000
0.675746 0.470466 0.000000
0.710475 0.463142 0.000000
0.744778 0.454841 0.000000
0.778958 0.445655 0.000000
0.812833 0.435889 0.000000
0.845396 0.424994 0.000000
0.877012 0.413947 0.000000
0.908659 0.402136 0.000000
0.940307 0.389715 0.000000
0.969207 0.391577 0.000000
0.998505 0.392706 0.000000
1.000000 0.393439 0.000000
1.000000 0.394079 0.000000
0.279332 0.399725 0.228092
0.281102 0.400824 0.226596
0.283116 0.401984 0.224826
0.286229 0.403662 0.222293
0.290318 0.405890 0.218936
0.296056 0.408637 0.214267
0.303502 0.412146 0.208743
0.312566 0.416083 0.201602
0.323827 0.420783 0.193515
0.337285 0.426032 0.183688
0.352850 0.431800 0.171328
0.371191 0.438148 0.156893
0.391211 0.444862 0.138827
0.413916 0.451972 0.116274
0.443946 0.465461 0.084108
0.485023 0.487037 0.025360
0.548241 0.506157 0.000000
0.596796 0.513695 0.000000
0.634760 0.511162 0.000000
0.670253 0.505730 0.000000
0.705196 0.499336 0.000000
0.739864 0.491981 0.000000
0.774258 0.484016 0.000000
0.808499 0.475319 0.000000
0.842466 0.465858 0.000000
0.876066 0.455787 0.000000
0.907988 0.444739 0.000000
0.939788 0.433204 0.000000
0.971679 0.420966 0.000000
1.000000 0.412360 0.000000
1.000000 0.413092 0.000000
1.000000 0.413642 0.000000
0.298039 0.424567 0.244205
0.299626 0.425544 0.242924
0.303685 0.429450 0.243137
0.306432 0.431006 0.241001
0.310307 0.432990 0.237675
0.315496 0.435645 0.233463
0.322148 0.438819 0.228519
0.330449 0.442481 0.221897
0.340581 0.446784 0.214359
0.352697 0.451789 0.205600
0.367163 0.457221 0.194522
0.383490 0.463172 0.181674
0.402075 0.469520 0.166171
0.422919 0.476204 0.147463
0.445777 0.483284 0.123262
0.477455 0.498482 0.088533
0.520317 0.519829 0.025666
0.582605 0.538170 0.000000
0.630060 0.544762 0.000000
0.666835 0.541375 0.000000
0.701778 0.535698 0.000000
0.736446 0.529290 0.000000
0.771023 0.522179 0.000000
0.805325 0.514427 0.000000
0.839567 0.505638 0.000000
0.873472 0.496284 0.000000
0.907195 0.486244 0.000000
0.939727 0.475257 0.000000
0.971527 0.464118 0.000000
1.000000 0.452277 0.000000
1.000000 0.436011 0.000000
1.000000 0.433478 0.000000
0.317693 0.451026 0.261234
0.319463 0.452155 0.260044
0.321294 0.453346 0.258579
0.324102 0.455055 0.256870
0.327794 0.457160 0.253880
0.332494 0.459602 0.250004
0.338628 0.462623 0.245304
0.346075 0.466072 0.239414
0.355322 0.470192 0.232761
0.366430 0.474800 0.224277
0.379492 0.479957 0.214481
0.394568 0.485634 0.202914
0.411719 0.491707 0.189212
0.430854 0.498146 0.172580
0.452003 0.504906 0.152865
0.475166 0.512108 0.127932
0.508843 0.529259 0.090394
0.552361 0.549554 0.024567
0.613336 0.566949 0.000000
0.660182 0.573144 0.000000
0.696162 0.569177 0.000000
0.731197 0.563928 0.000000
0.765896 0.557916 0.000000
0.800565 0.550988 0.000000
0.834989 0.543328 0.000000
0.869261 0.534844 0.000000
0.903288 0.525658 0.000000
0.937133 0.515831 0.000000
0.970703 0.505303 0.000000
1.000000 0.494331 0.000000
1.000000 0.482033 0.000000
1.000000 0.463905 0.000000
0.336584 0.476661 0.276921
0.338201 0.477790 0.276127
0.340032 0.479011 0.274815
0.342565 0.480629 0.273014
0.345892 0.482673 0.270298
0.350469 0.485054 0.266911
0.356115 0.487892 0.262333
0.362860 0.491218 0.256870
0.371435 0.495064 0.250492
0.381720 0.499489 0.242863
0.393652 0.504387 0.233738
0.407630 0.509789 0.223209
0.423468 0.515648 0.210788
0.441382 0.521813 0.196170
0.461189 0.528466 0.178805
0.482734 0.535271 0.157595
0.506065 0.542260 0.131411
0.540764 0.560510 0.091951
0.584833 0.579644 0.022461
0.644587 0.595911 0.000000
0.690883 0.601770 0.000000
0.725978 0.597498 0.000000
0.760891 0.592462 0.000000
0.795804 0.586542 0.000000
0.830350 0.579919 0.000000
0.864805 0.572381 0.000000
0.899168 0.564111 0.000000
0.933318 0.555108 0.000000
0.967437 0.545403 0.000000
1.000000 0.535210 0.000000
1.000000 0.524376 0.000000
1.000000 0.509178 0.000000
0.356298 0.503899 0.293584
0.357763 0.504936 0.292638
0.359503 0.506126 0.291447
0.361883 0.507652 0.289586
0.365057 0.509606 0.287236
0.369238 0.511864 0.283879
0.374548 0.514580 0.279667
0.380926 0.517662 0.274601
0.388769 0.521386 0.268528
0.398322 0.525597 0.261418
0.409308 0.530236 0.253056
0.422217 0.535393 0.243351
0.436988 0.540856 0.231937
0.453468 0.546624 0.218631
0.471748 0.552819 0.203433
0.491920 0.559197 0.185092
0.513725 0.565881 0.162875
0.537163 0.572778 0.135042
0.572900 0.592004 0.094026
0.617639 0.610224 0.021820
0.677058 0.626062 0.000000
0.723049 0.631952 0.000000
0.757687 0.627283 0.000000
0.792599 0.622278 0.000000
0.827604 0.616693 0.000000
0.862455 0.610163 0.000000
0.897032 0.602899 0.000000
0.931609 0.594720 0.000000
0.966033 0.585901 0.000000
1.000000 0.576410 0.000000
1.000000 0.566094 0.000000
1.000000 0.553491 0.000000
0.378027 0.534081 0.311315
0.379339 0.534936 0.310460
0.380743 0.535943 0.309270
0.382910 0.537224 0.307561
0.385840 0.538842 0.305180
0.389685 0.540856 0.302037
0.394507 0.543328 0.297795
0.400488 0.546258 0.293034
0.407813 0.549645 0.287358
0.416541 0.553521 0.280735
0.426856 0.557824 0.273075
0.438727 0.562554 0.263890
0.452247 0.567590 0.253483
0.467597 0.572961 0.241276
0.484504 0.578668 0.227390
0.503166 0.584558 0.210727
0.523491 0.590753 0.191867
0.545464 0.597162 0.168307
0.570062 0.605035 0.138979
0.605280 0.623804 0.095979
0.651240 0.641077 0.020600
0.709255 0.656123 0.000000
0.754971 0.661677 0.000000
0.788540 0.656275 0.000000
0.822934 0.651057 0.000000
0.857908 0.645472 0.000000
0.892760 0.639094 0.000000
0.927581 0.631952 0.000000
0.962310 0.623987 0.000000
0.996979 0.615290 0.000000
1.000000 0.605890 0.000000
1.000000 0.595392 0.000000
0.398993 0.563134 0.329168
0.400183 0.563897 0.328038
0.401678 0.564752 0.327001
0.403693 0.565942 0.325322
0.406531 0.567498 0.323156
0.410010 0.569299 0.320012
0.414466 0.571588 0.316258
0.420050 0.574243 0.311986
0.426917 0.577417 0.306401
0.434882 0.580987 0.300206
0.444465 0.584894 0.292851
0.455360 0.589227 0.284367
0.467872 0.593927 0.274723
0.482063 0.598962 0.263462
0.497932 0.604273 0.250858
0.515160 0.609857 0.235752
0.534112 0.615686 0.218509
0.554772 0.621790 0.198215
0.576989 0.628138 0.173709
0.603082 0.637537 0.142153
0.637964 0.655726 0.097322
0.684382 0.672175 0.016175
0.742123 0.686641 0.000000
0.787472 0.691951 0.000000
0.819333 0.685359 0.000000
0.853269 0.679652 0.000000
0.888304 0.674250 0.000000
0.923247 0.668025 0.000000
0.958251 0.660975 0.000000
0.993225 0.653193 0.000000
1.000000 0.644617 0.000000
1.000000 0.635279 0.000000
0.421698 0.593408 0.348669
0.422919 0.594232 0.347906
0.424292 0.595026 0.346563
0.426062 0.596002 0.344945
0.428534 0.597253 0.342687
0.431769 0.598871 0.339879
0.435828 0.600763 0.336278
0.440803 0.603113 0.331792
0.446967 0.605829 0.326757
0.454322 0.608972 0.320806
0.462959 0.612451 0.313573
0.472877 0.616358 0.305669
0.484443 0.620630 0.296452
0.497444 0.625208 0.285801
0.511955 0.630060 0.273716
0.528038 0.635279 0.260014
0.545678 0.640742 0.244266
0.564965 0.646509 0.225772
0.585779 0.652522 0.204196
0.608179 0.658869 0.177859
0.635767 0.669642 0.144533
0.670100 0.687282 0.096071
0.717830 0.702907 0.008759
0.774197 0.716487 0.000000
0.819150 0.721462 0.000000
0.850889 0.714778 0.000000
0.883970 0.708492 0.000000
0.918975 0.703090 0.000000
0.954040 0.696895 0.000000
0.989136 0.690028 0.000000
1.000000 0.682277 0.000000
1.000000 0.673610 0.000000
0.443824 0.622217 0.368109
0.444953 0.622950 0.367315
0.446174 0.623682 0.366339
0.447913 0.624689 0.364782
0.450263 0.625910 0.362646
0.453285 0.627466 0.359960
0.457221 0.629419 0.356634
0.461921 0.631708 0.352422
0.467720 0.634394 0.347662
0.474678 0.637415 0.341924
0.482673 0.640864 0.335485
0.491981 0.644648 0.327825
0.502678 0.648707 0.319188
0.514763 0.653132 0.309178
0.528283 0.657740 0.297826
0.543267 0.662684 0.285191
0.559777 0.667872 0.270298
0.577905 0.673365 0.253391
0.597498 0.679072 0.233738
0.618555 0.685084 0.210636
0.641016 0.691310 0.182620
0.670008 0.703243 0.146975
0.703609 0.720241 0.096101
0.752010 0.734859 0.000427
0.807950 0.747829 0.000000
0.852689 0.752438 0.000000
0.883604 0.745083 0.000000
0.915770 0.738155 0.000000
0.950927 0.732937 0.000000
0.986236 0.726833 0.000000
1.000000 0.719905 0.000000
1.000000 0.712093 0.000000
0.467842 0.652674 0.389654
0.468910 0.653315 0.388861
0.469947 0.654017 0.388006
0.471656 0.654841 0.386389
0.473701 0.656031 0.384344
0.476509 0.657496 0.381720
0.480049 0.659266 0.378515
0.484443 0.661372 0.374548
0.489815 0.663905 0.369848
0.496071 0.666743 0.364446
0.503471 0.669947 0.358038
0.512139 0.673548 0.351049
0.522118 0.677394 0.342748
0.533227 0.681575 0.333227
0.545800 0.685969 0.322637
0.559838 0.690639 0.310246
0.575189 0.695613 0.296391
0.592126 0.700801 0.280491
0.610559 0.706294 0.262547
0.630365 0.712032 0.241947
0.651698 0.717983 0.217136
0.674434 0.724117 0.186984
0.704280 0.737057 0.148409
0.737362 0.753323 0.093568
0.786648 0.766964 0.000000
0.841794 0.779141 0.000000
0.886046 0.783413 0.000000
0.916106 0.775235 0.000000
0.947234 0.767422 0.000000
0.982574 0.762295 0.000000
1.000000 0.756252 0.000000
1.000000 0.749325 0.000000
0.492988 0.683680 0.412848
0.493843 0.684260 0.411963
0.494881 0.684901 0.411048
0.496437 0.685756 0.409644
0.498482 0.686915 0.407721
0.501183 0.688411 0.405249
0.504631 0.690333 0.402441
0.508934 0.692561 0.398749
0.514000 0.695247 0.394537
0.520134 0.698268 0.389593
0.527337 0.701625 0.383795
0.535607 0.705318 0.377295
0.545006 0.709316 0.369696
0.555535 0.713497 0.360723
0.567285 0.717861 0.350774
0.580346 0.722408 0.339208
0.594781 0.727169 0.325963
0.610590 0.732143 0.311376
0.627832 0.737362 0.294469
0.646601 0.742855 0.275120
0.666743 0.748562 0.252842
0.688228 0.754421 0.226535
0.710903 0.760311 0.193576
0.741665 0.773983 0.153017
0.773892 0.789334 0.094514
0.823972 0.801877 0.000000
0.878294 0.813138 0.000000
0.922271 0.816953 0.000000
0.951476 0.807950 0.000000
0.981262 0.798917 0.000000
1.000000 0.793668 0.000000
1.000000 0.787442 0.000000
0.521965 0.717922 0.440284
0.522820 0.718410 0.439643
0.523705 0.718959 0.438605
0.525017 0.719692 0.437171
0.526757 0.720729 0.435126
0.529168 0.722042 0.432776
0.532097 0.723659 0.429664
0.535912 0.725643 0.426184
0.540398 0.727932 0.421790
0.545892 0.730526 0.416846
0.552178 0.733516 0.411048
0.559625 0.736812 0.404486
0.568048 0.740414 0.396979
0.577661 0.744228 0.388434
0.588373 0.748318 0.378576
0.600366 0.752590 0.367651
0.613764 0.757137 0.355169
0.628504 0.761929 0.341039
0.644617 0.766934 0.325170
0.662226 0.772183 0.307225
