GH5 VLOG/[TTG] Sky Blue_V-LOG.cube
# Created by: Adobe Lightroom Export LUT Plugin
LUT_3D_SIZE 8
DOMAIN_MIN 0.000000 0.000000 0.000000
DOMAIN_MAX 0.903226 0.903226 0.903226
0.000000 0.000000 0.000000
0.088502 0.000000 0.000000
0.221012 0.000000 0.000000
0.370916 0.000000 0.000000
0.547051 0.000000 0.000000
0.748775 0.000000 0.000000
0.934325 0.000000 0.000000
1.000000 0.000000 0.000000
0.012879 0.034882 0.007294
0.078645 0.064240 0.000000
0.223056 0.050843 0.000000
0.370367 0.058991 0.000000
0.545159 0.067109 0.000000
0.745785 0.072236 0.000000
0.929717 0.060822 0.000000
1.000000 0.006561 0.000000
0.046143 0.110018 0.015625
0.077363 0.121126 0.000000
0.194125 0.171633 0.000000
0.376654 0.171878 0.000000
0.555200 0.172366 0.000000
0.754818 0.190646 0.000000
0.938079 0.192874 0.000000
1.000000 0.173220 0.000000
0.098085 0.205325 0.027985
0.120577 0.213382 0.004639
0.179629 0.231479 0.000000
0.340581 0.305577 0.000000
0.561700 0.327916 0.000000
0.774502 0.298009 0.000000
0.947295 0.303868 0.000000
1.000000 0.289097 0.000000
0.157504 0.313298 0.046815
0.175143 0.319921 0.016846
0.223178 0.335790 0.000000
0.306523 0.363653 0.000000
0.515007 0.463050 0.000000
0.753964 0.488441 0.000000
0.952758 0.431495 0.000000
1.000000 0.394415 0.000000
0.227420 0.444465 0.060426
0.243931 0.451728 0.025055
0.285924 0.466529 0.000000
0.360540 0.492592 0.000000
0.469947 0.531975 0.000000
0.723140 0.648493 0.000000
0.928405 0.633295 0.000000
1.000000 0.551873 0.000000
0.318883 0.623407 0.044892
0.334386 0.628870 0.000000
0.372900 0.641901 0.000000
0.440681 0.664393 0.000000
0.537835 0.693263 0.000000
0.661585 0.726619 0.000000
0.907195 0.807675 0.000000
1.000000 0.742245 0.000000
0.433539 0.810147 0.220401
0.444587 0.813260 0.208286
0.473426 0.821134 0.173648
0.525750 0.834318 0.084565
0.600916 0.848356 0.000000
0.703548 0.867796 0.000000
0.827176 0.887633 0.000000
1.000000 0.920073 0.000000
0.000000 0.044526 0.096773
0.063783 0.009644 0.080018
0.213504 0.000000 0.029938
0.359533 0.009583 0.000000
0.527459 0.062989 0.000000
0.729793 0.071077 0.000000
0.918944 0.056489 0.000000
1.000000 0.000000 0.000000
0.000000 0.080842 0.083803
0.069245 0.069245 0.069245
0.213077 0.061738 0.033143
0.363531 0.073487 0.000000
0.531151 0.109987 0.000000
0.731502 0.124758 0.000000
0.918273 0.121675 0.000000
1.000000 0.085969 0.000000
0.000000 0.159884 0.049409
0.090761 0.138674 0.070832
0.197177 0.179538 0.000000
0.374517 0.175174 0.000000
0.544762 0.184726 0.000000
0.740902 0.207980 0.000000
0.925322 0.213107 0.000000
1.000000 0.194095 0.000000
0.077699 0.233829 0.065400
0.127230 0.225406 0.075868
0.185641 0.246067 0.008179
0.338445 0.308476 0.000000
0.544762 0.332464 0.000000
0.758938 0.301671 0.000000
0.935576 0.311040 0.000000
1.000000 0.297368 0.000000
0.155123 0.329808 0.095308
0.180056 0.329534 0.090944
0.225895 0.346166 0.020691
0.310491 0.372839 0.000000
0.502739 0.459663 0.000000
0.741756 0.492744 0.000000
0.944732 0.443305 0.000000
1.000000 0.398535 0.000000
0.230411 0.451301 0.122591
0.245243 0.457618 0.102174
0.285710 0.473213 0.023957
0.361395 0.499489 0.000000
0.468696 0.533623 0.000000
0.712184 0.646235 0.000000
0.922911 0.637934 0.000000
1.000000 0.558099 0.000000
0.317906 0.626795 0.123964
0.332036 0.631495 0.097810
0.369848 0.643732 0.000000
0.437995 0.664088 0.000000
0.535241 0.692683 0.000000
0.658228 0.726040 0.000000
0.899107 0.805753 0.000000
1.000000 0.744228 0.000000
0.430274 0.808957 0.223056
0.441566 0.812345 0.211460
0.470253 0.820218 0.177401
0.522454 0.833463 0.092317
0.600031 0.850370 0.000000
0.701839 0.868894 0.000000
0.824430 0.887327 0.000000
1.000000 0.922118 0.000000
0.000000 0.137575 0.238834
0.000000 0.093874 0.237827
0.171237 0.014740 0.206485
0.340307 0.000000 0.176669
0.542535 0.000000 0.081086
0.741054 0.000000 0.000000
0.920012 0.086152 0.000000
1.000000 0.112428 0.000000
0.000000 0.158480 0.229313
0.000000 0.137636 0.224826
0.172915 0.077974 0.200595
0.350896 0.050385 0.161807
0.543023 0.019104 0.077089
0.740993 0.069429 0.000000
0.919890 0.139284 0.000000
1.000000 0.154086 0.000000
0.000000 0.208774 0.215335
0.000000 0.202579 0.208469
0.181979 0.181979 0.181979
0.366491 0.167971 0.139559
0.555322 0.164279 0.051881
0.750759 0.187015 0.000000
0.926360 0.223728 0.000000
1.000000 0.228519 0.000000
0.000000 0.309453 0.170047
0.000000 0.310277 0.149660
0.199466 0.267369 0.173251
0.348974 0.323064 0.065858
0.571374 0.311467 0.000000
0.769192 0.296208 0.000000
0.937713 0.319829 0.000000
1.000000 0.316808 0.000000
0.000000 0.409796 0.122286
0.081880 0.393957 0.145785
0.237766 0.367468 0.177462
0.321477 0.398627 0.090455
0.520714 0.478309 0.000000
0.754818 0.492836 0.000000
0.943084 0.459663 0.000000
1.000000 0.409827 0.000000
0.132418 0.518120 0.145663
0.210056 0.506035 0.167788
0.293187 0.493233 0.183688
0.365576 0.521172 0.090822
0.480385 0.557092 0.000000
0.712001 0.653346 0.000000
0.916869 0.650385 0.000000
1.000000 0.573297 0.000000
0.267124 0.669825 0.170382
0.313176 0.660609 0.193362
0.370397 0.658442 0.187472
0.435737 0.678859 0.069490
0.534417 0.704646 0.000000
0.657618 0.732845 0.000000
0.886381 0.807553 0.000000
1.000000 0.753750 0.000000
0.403662 0.823239 0.253391
0.436866 0.817716 0.274693
0.468055 0.822660 0.242039
0.517144 0.835569 0.138796
0.594141 0.852171 0.000000
0.696620 0.871092 0.000000
0.820157 0.889586 0.000000
1.000000 0.927916 0.000000
0.000000 0.249424 0.409644
0.000000 0.223941 0.409552
0.000000 0.093111 0.403143
0.301396 0.019440 0.358831
0.490089 0.000000 0.329107
0.731380 0.000000 0.261631
0.932494 0.000000 0.127535
1.000000 0.000000 0.000000
0.000000 0.265904 0.403113
0.000000 0.247898 0.401678
0.000000 0.155001 0.396094
0.303044 0.085512 0.356481
0.496773 0.068727 0.325017
0.739681 0.000000 0.238651
0.932769 0.000000 0.122499
1.000000 0.000000 0.000000
0.000000 0.300420 0.393011
0.000000 0.289891 0.389746
0.000000 0.252445 0.380011
0.308110 0.183200 0.347112
0.521660 0.178470 0.307103
0.749050 0.144320 0.223423
0.939666 0.133852 0.106142
1.000000 0.151919 0.000000
0.000000 0.367285 0.378363
0.000000 0.363195 0.373816
0.000000 0.350652 0.359533
0.321233 0.321233 0.321233
0.548028 0.305089 0.275273
0.762570 0.291051 0.197696
0.946960 0.282444 0.024506
1.000000 0.281743 0.000000
0.000000 0.478737 0.337743
0.000000 0.479896 0.324498
0.000000 0.479744 0.288518
0.339940 0.423804 0.309239
0.527459 0.493050 0.193179
0.777829 0.464088 0.096956
0.962829 0.405341 0.000000
1.000000 0.396521 0.000000
0.000000 0.636500 0.236179
0.000000 0.627100 0.223270
0.022400 0.592859 0.253788
0.379248 0.548302 0.305364
0.490333 0.588434 0.197971
0.724331 0.668360 0.000000
0.937194 0.636316 0.000000
1.000000 0.566552 0.000000
0.000000 0.749966 0.196933
0.000000 0.741512 0.219944
0.274113 0.719234 0.271702
0.439734 0.696956 0.308812
0.530785 0.724361 0.190188
0.661372 0.752651 0.000000
0.885710 0.814328 0.000000
1.000000 0.765896 0.000000
0.191257 0.868589 0.263096
0.283513 0.863188 0.285893
0.421759 0.849210 0.338689
0.523369 0.841306 0.355474
0.586175 0.858244 0.229709
0.685786 0.875792 0.000000
0.811612 0.893065 0.000000
1.000000 0.930846 0.000000
0.000000 0.379889 0.608759
0.000000 0.361089 0.608820
0.000000 0.296452 0.606714
0.000000 0.079744 0.595483
0.458289 0.018524 0.541711
0.668940 0.000000 0.504784
0.896330 0.000000 0.456947
1.000000 0.000000 0.309026
0.000000 0.394690 0.603571
0.000000 0.378485 0.603693
0.000000 0.321538 0.601465
0.000000 0.121035 0.592676
0.459174 0.093080 0.540063
0.674464 0.032685 0.502464
0.902281 0.000000 0.447547
1.000000 0.000000 0.298802
0.000000 0.421424 0.595361
0.000000 0.411780 0.594141
0.000000 0.378058 0.590204
0.000000 0.242069 0.581933
0.461799 0.193393 0.533043
0.684077 0.190311 0.492500
0.914916 0.064515 0.419318
1.000000 0.086702 0.306249
0.000000 0.472450 0.585260
0.000000 0.465583 0.582971
0.000000 0.445258 0.575891
0.000000 0.394903 0.561212
0.470558 0.321080 0.520195
0.711147 0.327184 0.472236
0.927947 0.310338 0.388281
1.000000 0.250217 0.265904
0.000000 0.551019 0.567071
0.000000 0.548211 0.563775
0.000000 0.539574 0.554162
0.000000 0.521935 0.533410
0.485908 0.485908 0.485908
0.745602 0.462898 0.431098
0.948333 0.423438 0.337377
1.000000 0.371984 0.180087
0.000000 0.667933 0.526513
0.000000 0.669734 0.519402
0.000000 0.672084 0.494301
0.000000 0.669764 0.440986
0.502525 0.605097 0.465980
0.718349 0.675227 0.325505
0.953155 0.600824 0.233524
1.000000 0.493172 0.000000
0.000000 0.822477 0.426429
0.000000 0.822354 0.409857
0.000000 0.821134 0.367956
0.080781 0.783841 0.388708
0.542809 0.735317 0.464027
0.655055 0.768521 0.322820
0.886320 0.820890 0.000000
1.000000 0.743771 0.000000
0.000000 0.930785 0.261448
0.000000 0.924926 0.284916
0.000000 0.909758 0.343481
0.401007 0.884001 0.433997
0.605768 0.859800 0.494728
0.675990 0.881926 0.343572
0.800565 0.900206 0.000000
1.000000 0.932799 0.000000
0.000000 0.491768 0.779446
0.000000 0.477760 0.779904
0.000000 0.435401 0.780209
0.000000 0.325048 0.780423
0.000000 0.103456 0.771481
0.617670 0.062165 0.726925
0.848600 0.000000 0.690822
1.000000 0.000000 0.632837
0.000000 0.503441 0.775448
0.000000 0.490486 0.775845
0.000000 0.451118 0.776303
0.000000 0.353094 0.775937
0.000000 0.142916 0.768063
0.617823 0.123445 0.724392
0.850645 0.047578 0.687709
1.000000 0.108583 0.628046
0.000000 0.529046 0.773098
0.000000 0.521263 0.772824
0.000000 0.493263 0.772244
0.000000 0.413550 0.770169
0.000000 0.219425 0.764584
0.622370 0.220523 0.722042
0.858762 0.210666 0.681971
1.000000 0.234012 0.617548
0.000000 0.571008 0.768399
0.000000 0.564660 0.767514
0.000000 0.547295 0.765530
0.000000 0.505486 0.762814
0.000000 0.358679 0.758419
0.633783 0.344396 0.718410
0.869108 0.366552 0.671595
1.000000 0.369024 0.600092
0.000000 0.633600 0.758785
0.000000 0.629541 0.757778
0.000000 0.618402 0.755276
0.000000 0.594659 0.749905
0.000000 0.544274 0.739071
0.648463 0.492836 0.703639
0.878355 0.518456 0.650172
1.000000 0.524132 0.583429
0.000000 0.724575 0.745174
0.000000 0.723812 0.744137
0.000000 0.720394 0.740108
0.000000 0.713710 0.731899
0.000000 0.700282 0.714137
0.671626 0.671626 0.671626
0.903227 0.643030 0.616876
1.000000 0.567834 0.498085
0.000000 0.845121 0.706661
0.000000 0.846311 0.702113
0.000000 0.848417 0.688014
0.000000 0.850431 0.654536
0.000000 0.839902 0.605585
0.689601 0.778958 0.659541
0.871305 0.827970 0.510369
1.000000 0.715755 0.367468
0.000000 0.964050 0.591241
0.000000 0.963867 0.580285
0.000000 0.963012 0.552056
0.000000 0.958923 0.514275
0.390539 0.924315 0.577783
0.720272 0.880980 0.661494
0.797177 0.906889 0.502403
1.000000 0.936461 0.143618
0.000000 0.573083 0.903868
0.000000 0.562768 0.904448
0.000000 0.533165 0.905272
0.000000 0.470008 0.906889
0.000000 0.313634 0.908263
0.304662 0.166567 0.901366
0.746304 0.205905 0.869902
0.983978 0.164004 0.847745
0.000000 0.583032 0.902007
0.000000 0.573175 0.902617
0.000000 0.544915 0.903471
0.000000 0.485267 0.904814
0.000000 0.342687 0.906249
0.295750 0.197604 0.899840
0.747127 0.236973 0.868193
0.983795 0.211215 0.844419
0.000000 0.605280 0.900664
0.000000 0.599298 0.900816
0.000000 0.575982 0.901305
0.000000 0.523278 0.902312
0.000000 0.410956 0.903258
0.272587 0.265782 0.898466
0.752773 0.309483 0.867338
0.986755 0.311803 0.840177
0.000000 0.638697 0.899138
0.000000 0.633570 0.898985
0.000000 0.619654 0.898802
0.000000 0.586023 0.898833
0.000000 0.506310 0.898894
0.225376 0.363470 0.896452
0.763668 0.415076 0.865171
0.987884 0.440345 0.831052
0.000000 0.688777 0.895415
0.000000 0.684840 0.895171
0.000000 0.674281 0.894865
0.000000 0.653193 0.894682
0.000000 0.612238 0.892790
0.195926 0.503136 0.889952
0.779416 0.541314 0.858976
0.983825 0.583093 0.818662
0.000000 0.759945 0.890135
0.000000 0.757687 0.889982
0.000000 0.751400 0.889525
0.000000 0.738827 0.888457
0.000000 0.717006 0.885710
0.179232 0.691493 0.876951
0.803799 0.687892 0.848508
0.982177 0.714321 0.808011
0.000000 0.857633 0.881926
0.000000 0.857389 0.881529
0.000000 0.856413 0.880125
0.000000 0.854520 0.877195
0.000000 0.850858 0.870817
0.193606 0.844297 0.856870
0.825437 0.825559 0.825528
1.000000 0.798184 0.779324
0.000000 0.977966 0.848905
0.000000 0.978515 0.845609
0.000000 0.979828 0.836484
0.000000 0.980713 0.816892
0.000000 0.978790 0.780819
0.355566 0.956512 0.761624
0.840421 0.907286 0.818814
0.976562 0.939391 0.693050
0.000000 0.631556 0.993317
0.000000 0.623774 0.993774
0.000000 0.602350 0.994598
0.000000 0.561517 0.996216
0.000000 0.494972 0.997894
0.000000 0.316564 1.000000
0.485786 0.297704 0.995239
0.851987 0.418982 0.972045
0.000000 0.639612 0.992584
0.000000 0.632074 0.993011
0.000000 0.611444 0.993927
0.000000 0.571984 0.995453
0.000000 0.508293 0.997101
0.000000 0.346166 1.000000
0.485878 0.320012 0.994537
0.853605 0.438056 0.971160
0.000000 0.659113 0.991669
0.000000 0.653651 0.991913
0.000000 0.634638 0.992767
0.000000 0.598444 0.994354
0.000000 0.540795 0.995789
0.000000 0.413184 0.998505
0.488655 0.373877 0.993256
0.859007 0.485725 0.969635
0.000000 0.684901 0.991119
0.000000 0.680720 0.991302
0.000000 0.669886 0.991638
0.000000 0.643030 0.992676
0.000000 0.592706 0.994079
0.000000 0.513359 0.994965
0.497414 0.457984 0.991272
0.868986 0.559564 0.967376
0.000000 0.723995 0.990021
0.000000 0.720485 0.990295
0.000000 0.710933 0.990845
0.000000 0.693538 0.991516
0.000000 0.662440 0.991852
0.000000 0.621881 0.990326
0.512840 0.562097 0.987762
0.882750 0.646601 0.964141
0.000000 0.778897 0.987762
0.000000 0.776211 0.987854
0.000000 0.769100 0.988190
0.000000 0.755642 0.988891
0.000000 0.733791 0.989807
0.000000 0.713954 0.987701
0.561913 0.694759 0.981415
0.901518 0.745907 0.959838
0.000000 0.852842 0.984192
0.000000 0.851316 0.984222
0.000000 0.847288 0.984283
0.000000 0.839872 0.984405
0.000000 0.828153 0.984161
0.000000 0.817105 0.981994
0.577264 0.832853 0.971832
0.921782 0.846464 0.952575
0.000000 0.950317 0.977569
0.000000 0.950256 0.977417
0.000000 0.950134 0.976928
0.000000 0.949889 0.976013
0.000000 0.949645 0.973907
0.000000 0.949676 0.968750
0.599145 0.949065 0.958587
0.939940 0.939971 0.939940
