GH5 VLOG/[TTG] Sky Blue_V-LOG.cube
# Created by: Adobe Lightroom Export LUT Plugin
LUT_3D_SIZE 32
DOMAIN_MIN 0.0 0.0 0.0
DOMAIN_MAX 1.0 1.0 1.0
0.000000 0.000000 0.000000
0.014466 0.000000 0.000000
0.030823 0.000000 0.000000
0.057801 0.000000 0.000000
0.088502 0.000000 0.000000
0.120363 0.000000 0.000000
0.152804 0.000000 0.000000
0.186679 0.000000 0.000000
0.221012 0.000000 0.000000
0.256077 0.000000 0.000000
0.292821 0.000000 0.000000
0.331090 0.000000 0.000000
0.370916 0.000000 0.000000
0.412482 0.000000 0.000000
0.455695 0.000000 0.000000
0.500603 0.000000 0.000000
0.547051 0.000000 0.000000
0.595453 0.000000 0.000000
0.645747 0.000000 0.000000
0.696010 0.000000 0.000000
0.748775 0.000000 0.000000
0.799619 0.000000 0.000000
0.847410 0.000000 0.000000
0.892210 0.000000 0.000000
0.934325 0.000000 0.000000
0.973877 0.000000 0.000000
1.000000 0.000000 0.000000
1.000000 0.000000 0.000000
1.000000 0.000000 0.000000
1.000000 0.000000 0.000000
1.000000 0.000000 0.000000
1.000000 0.000000 0.000000
0.001770 0.006012 0.001404
0.013519 0.009827 0.000000
0.033783 0.006134 0.000000
0.060700 0.005432 0.000000
0.090242 0.005188 0.000000
0.121431 0.005005 0.000000
0.153567 0.004273 0.000000
0.186923 0.003357 0.000000
0.221042 0.001648 0.000000
0.255833 0.000580 0.000000
0.292332 0.000000 0.000000
0.330663 0.000000 0.000000
0.370459 0.000000 0.000000
0.411902 0.000000 0.000000
0.454994 0.000000 0.000000
0.499611 0.000000 0.000000
0.546258 0.000000 0.000000
0.594629 0.000000 0.000000
0.644800 0.000000 0.000000
0.695491 0.000000 0.000000
0.747585 0.000000 0.000000
0.798032 0.000000 0.000000
0.845670 0.000000 0.000000
0.890257 0.000000 0.000000
0.932311 0.000000 0.000000
0.971984 0.000000 0.000000
1.000000 0.000000 0.000000
1.000000 0.000000 0.000000
1.000000 0.000000 0.000000
1.000000 0.000000 0.000000
1.000000 0.000000 0.000000
1.000000 0.000000 0.000000
0.004974 0.013428 0.003082
0.010773 0.015991 0.000824
0.029114 0.022065 0.000000
0.060975 0.018616 0.000000
0.092348 0.013947 0.000000
0.122896 0.014252 0.000000
0.154665 0.013977 0.000000
0.187442 0.014130 0.000000
0.221317 0.013367 0.000000
0.256168 0.012726 0.000000
0.292485 0.012299 0.000000
0.330510 0.011322 0.000000
0.370245 0.010407 0.000000
0.411444 0.009949 0.000000
0.454566 0.008637 0.000000
0.499275 0.008606 0.000000
0.545739 0.007752 0.000000
0.594141 0.005646 0.000000
0.644160 0.005219 0.000000
0.695460 0.002441 0.000000
0.747066 0.000153 0.000000
0.797330 0.000000 0.000000
0.844846 0.000000 0.000000
0.889342 0.000000 0.000000
0.931365 0.000000 0.000000
0.971008 0.000000 0.000000
1.000000 0.000000 0.000000
1.000000 0.000000 0.000000
1.000000 0.000000 0.000000
1.000000 0.000000 0.000000
1.000000 0.000000 0.000000
1.000000 0.000000 0.000000
0.008972 0.022736 0.005341
0.013153 0.025483 0.003082
0.021515 0.028687 0.000244
0.052979 0.040894 0.000000
0.089448 0.038941 0.000000
0.124819 0.029023 0.000000
0.156558 0.028168 0.000000
0.188815 0.029297 0.000000
0.222293 0.029969 0.000000
0.256992 0.030671 0.000000
0.293095 0.031220 0.000000
0.330907 0.031739 0.000000
0.370367 0.032410 0.000000
0.411383 0.033509 0.000000
0.454353 0.033783 0.000000
0.498909 0.035431 0.000000
0.545159 0.035859 0.000000
0.593408 0.036408 0.000000
0.643427 0.037018 0.000000
0.694636 0.036347 0.000000
0.745724 0.034485 0.000000
0.795590 0.032136 0.000000
0.843015 0.028077 0.000000
0.887694 0.023133 0.000000
0.930022 0.015442 0.000000
0.970001 0.005188 0.000000
1.000000 0.000000 0.000000
1.000000 0.000000 0.000000
1.000000 0.000000 0.000000
1.000000 0.000000 0.000000
1.000000 0.000000 0.000000
1.000000 0.000000 0.000000
0.012879 0.034882 0.007294
0.017334 0.038117 0.005371
0.023835 0.041840 0.002472
0.037171 0.046845 0.000000
0.078645 0.064240 0.000000
0.118074 0.064820 0.000000
0.155764 0.057649 0.000000
0.189975 0.048981 0.000000
0.223056 0.050843 0.000000
0.257481 0.052613 0.000000
0.293339 0.054688 0.000000
0.330938 0.057008 0.000000
0.370367 0.058991 0.000000
0.411261 0.061280 0.000000
0.454078 0.063264 0.000000
0.498726 0.065339 0.000000
0.545159 0.067109 0.000000
0.593500 0.069276 0.000000
0.643427 0.070375 0.000000
0.694972 0.072175 0.000000
0.745785 0.072236 0.000000
0.795132 0.072145 0.000000
0.842496 0.069947 0.000000
0.887358 0.065797 0.000000
0.929717 0.060822 0.000000
0.969635 0.052583 0.000000
1.000000 0.040070 0.000000
1.000000 0.025086 0.000000
1.000000 0.006561 0.000000
1.000000 0.000000 0.000000
1.000000 0.000000 0.000000
1.000000 0.000000 0.000000
0.017823 0.050477 0.008606
0.022766 0.053437 0.006622
0.029053 0.056550 0.004608
0.041108 0.061189 0.001312
0.058412 0.067170 0.000000
0.105348 0.088838 0.000000
0.146792 0.092226 0.000000
0.186130 0.087434 0.000000
0.223697 0.077333 0.000000
0.258885 0.074678 0.000000
0.294560 0.077638 0.000000
0.332067 0.080537 0.000000
0.371313 0.083650 0.000000
0.412360 0.086824 0.000000
0.455085 0.089570 0.000000
0.499702 0.092805 0.000000
0.546319 0.095308 0.000000
0.594537 0.098054 0.000000
0.645197 0.100832 0.000000
0.696712 0.102693 0.000000
0.746883 0.104555 0.000000
0.796323 0.104921 0.000000
0.855406 0.106081 0.000000
0.899474 0.104036 0.000000
0.941070 0.100130 0.000000
0.980163 0.094514 0.000000
1.000000 0.086488 0.000000
1.000000 0.076387 0.000000
1.000000 0.062623 0.000000
1.000000 0.044434 0.000000
1.000000 0.018585 0.000000
1.000000 0.000000 0.000000
0.025238 0.069062 0.010193
0.030152 0.071748 0.007202
0.037079 0.074495 0.005097
0.047822 0.078828 0.002136
0.062470 0.083894 0.000000
0.082612 0.091218 0.000000
0.133761 0.115908 0.000000
0.177920 0.121126 0.000000
0.218479 0.118898 0.000000
0.259678 0.111940 0.000000
0.298985 0.100038 0.000000
0.336339 0.103914 0.000000
0.375586 0.107698 0.000000
0.416754 0.111391 0.000000
0.459388 0.115145 0.000000
0.504143 0.118898 0.000000
0.550500 0.122438 0.000000
0.598901 0.126101 0.000000
0.650965 0.129976 0.000000
0.702632 0.133150 0.000000
0.753536 0.135592 0.000000
0.803586 0.136690 0.000000
0.851408 0.136904 0.000000
0.896483 0.135561 0.000000
0.938842 0.132692 0.000000
0.978485 0.128573 0.000000
1.000000 0.122652 0.000000
1.000000 0.115084 0.000000
1.000000 0.105257 0.000000
1.000000 0.093050 0.000000
1.000000 0.077211 0.000000
1.000000 0.055573 0.000000
0.034974 0.088746 0.012970
0.039918 0.090974 0.009979
0.046296 0.093507 0.006867
0.055482 0.096712 0.002197
0.069154 0.101411 0.000000
0.085603 0.107210 0.000000
0.109377 0.117525 0.000000
0.163455 0.143038 0.000000
0.208804 0.150118 0.000000
0.250706 0.149264 0.000000
0.294133 0.145144 0.000000
0.336706 0.135164 0.000000
0.377722 0.129763 0.000000
0.418463 0.134279 0.000000
0.460975 0.138918 0.000000
0.505455 0.143252 0.000000
0.551629 0.147494 0.000000
0.601221 0.152316 0.000000
0.652491 0.156649 0.000000
0.703212 0.160494 0.000000
0.753414 0.163302 0.000000
0.803098 0.165438 0.000000
0.850675 0.166018 0.000000
0.895567 0.165530 0.000000
0.937804 0.163516 0.000000
0.977447 0.160098 0.000000
1.000000 0.155245 0.000000
1.000000 0.148959 0.000000
1.000000 0.140719 0.000000
1.000000 0.131106 0.000000
1.000000 0.119173 0.000000
1.000000 0.104311 0.000000
0.046143 0.110018 0.015625
0.050965 0.112032 0.012634
0.057008 0.114321 0.008972
0.065492 0.117159 0.004181
0.077363 0.121126 0.000000
0.092195 0.125948 0.000000
0.110658 0.132540 0.000000
0.137881 0.145846 0.000000
0.194125 0.171633 0.000000
0.241733 0.180423 0.000000
0.285283 0.181125 0.000000
0.330632 0.178500 0.000000
0.376654 0.171878 0.000000
0.421027 0.159518 0.000000
0.463935 0.162112 0.000000
0.508019 0.166903 0.000000
0.555200 0.172366 0.000000
0.604486 0.177768 0.000000
0.655055 0.182742 0.000000
0.705165 0.187137 0.000000
0.754818 0.190646 0.000000
0.804074 0.193423 0.000000
0.851377 0.194491 0.000000
0.896025 0.194461 0.000000
0.938079 0.192874 0.000000
0.977600 0.189883 0.000000
1.000000 0.185580 0.000000
1.000000 0.180209 0.000000
1.000000 0.173220 0.000000
1.000000 0.164706 0.000000
1.000000 0.154910 0.000000
1.000000 0.142702 0.000000
0.058595 0.132387 0.018463
0.062562 0.134279 0.014984
0.068452 0.136141 0.011414
0.076051 0.138888 0.005951
0.086946 0.142611 0.000153
0.100496 0.146914 0.000000
0.117159 0.152010 0.000000
0.136812 0.158816 0.000000
0.167605 0.175387 0.000000
0.226780 0.201663 0.000000
0.275975 0.211612 0.000000
0.321508 0.213657 0.000000
0.368750 0.212467 0.000000
0.417639 0.208042 0.000000
0.464851 0.198184 0.000000
0.512718 0.190768 0.000000
0.559625 0.197055 0.000000
0.608576 0.202914 0.000000
0.658534 0.208621 0.000000
0.708064 0.213504 0.000000
0.757168 0.217258 0.000000
0.805905 0.220432 0.000000
0.852201 0.221958 0.000000
0.896208 0.222110 0.000000
0.937865 0.220829 0.000000
0.977111 0.218357 0.000000
1.000000 0.214847 0.000000
1.000000 0.209812 0.000000
1.000000 0.203494 0.000000
1.000000 0.195865 0.000000
1.000000 0.187167 0.000000
1.000000 0.176577 0.000000
0.070924 0.155489 0.021027
0.074861 0.157046 0.017548
0.079774 0.158816 0.013947
0.087221 0.161410 0.008392
0.097322 0.164889 0.001038
0.109834 0.168856 0.000000
0.125032 0.173739 0.000000
0.143160 0.179232 0.000000
0.164187 0.186252 0.000000
0.198764 0.206149 0.000000
0.260929 0.233188 0.000000
0.312474 0.244144 0.000000
0.360113 0.247532 0.000000
0.409583 0.247990 0.000000
0.461219 0.245335 0.000000
0.512932 0.238010 0.000000
0.563836 0.225620 0.000000
0.613306 0.227695 0.000000
0.662348 0.233799 0.000000
0.711208 0.238956 0.000000
0.759701 0.243320 0.000000
0.808011 0.246677 0.000000
0.853880 0.248753 0.000000
0.897520 0.249332 0.000000
0.938781 0.248508 0.000000
0.977874 0.246311 0.000000
1.000000 0.242924 0.000000
1.000000 0.238376 0.000000
1.000000 0.232639 0.000000
1.000000 0.225559 0.000000
1.000000 0.217594 0.000000
1.000000 0.207797 0.000000
0.083711 0.179568 0.024292
0.087739 0.180880 0.020325
0.092317 0.182650 0.016144
0.099336 0.184909 0.010193
0.108095 0.188174 0.003113
0.119997 0.191928 0.000000
0.134737 0.196506 0.000000
0.151247 0.201694 0.000000
0.170718 0.207767 0.000000
0.193149 0.215183 0.000000
0.231907 0.238834 0.000000
0.298405 0.267094 0.000000
0.356451 0.282811 0.000000
0.408057 0.287938 0.000000
0.460304 0.289586 0.000000
0.514611 0.288334 0.000000
0.570886 0.283696 0.000000
0.624201 0.272404 0.000000
0.675990 0.262791 0.000000
0.724392 0.268345 0.000000
0.772549 0.272923 0.000000
0.819516 0.276402 0.000000
0.864286 0.278111 0.000000
0.906615 0.278599 0.000000
0.946868 0.277714 0.000000
0.984924 0.275517 0.000000
1.000000 0.272038 0.000000
1.000000 0.267552 0.000000
1.000000 0.261784 0.000000
1.000000 0.254917 0.000000
1.000000 0.247135 0.000000
1.000000 0.237949 0.000000
0.098085 0.205325 0.027985
0.101717 0.206699 0.023468
0.105715 0.208225 0.019287
0.111849 0.210361 0.012848
0.120577 0.213382 0.004639
0.131746 0.216770 0.000000
0.145174 0.221012 0.000000
0.161349 0.225925 0.000000
0.179629 0.231479 0.000000
0.201022 0.238743 0.000000
0.225071 0.247227 0.000000
0.269078 0.275486 0.000000
0.340581 0.305577 0.000000
0.397742 0.319188 0.000000
0.451606 0.325475 0.000000
0.505730 0.328130 0.000000
0.561700 0.327916 0.000000
0.619379 0.324193 0.000000
0.673640 0.314153 0.000000
0.725917 0.298405 0.000000
0.774502 0.298009 0.000000
0.820951 0.301762 0.000000
0.865110 0.303807 0.000000
0.907195 0.304631 0.000000
0.947295 0.303868 0.000000
0.985138 0.302007 0.000000
1.000000 0.298711 0.000000
1.000000 0.294408 0.000000
1.000000 0.289097 0.000000
1.000000 0.282658 0.000000
1.000000 0.274968 0.000000
1.000000 0.266300 0.000000
0.111971 0.230533 0.031800
0.115114 0.231846 0.027222
0.119295 0.233249 0.022522
0.124941 0.235233 0.015991
0.132876 0.237980 0.006836
0.143435 0.241428 0.000000
0.156252 0.245609 0.000000
0.171389 0.250523 0.000000
0.189212 0.256107 0.000000
0.209171 0.262425 0.000000
0.231968 0.270420 0.000000
0.257816 0.279820 0.000000
0.306035 0.311955 0.000000
0.381872 0.342962 0.000000
0.440955 0.357305 0.000000
0.496803 0.364416 0.000000
0.552728 0.367773 0.000000
0.610010 0.368109 0.000000
0.667140 0.363958 0.000000
0.722286 0.354894 0.000000
0.774502 0.340093 0.000000
0.823758 0.327245 0.000000
0.867552 0.329625 0.000000
0.909300 0.330480 0.000000
0.948943 0.329961 0.000000
0.986572 0.328252 0.000000
1.000000 0.325261 0.000000
1.000000 0.321233 0.000000
1.000000 0.315923 0.000000
1.000000 0.309728 0.000000
1.000000 0.302342 0.000000
1.000000 0.294041 0.000000
0.126558 0.257389 0.036591
0.129915 0.258762 0.032136
0.133608 0.260075 0.026886
0.139040 0.262058 0.019287
0.146609 0.264652 0.009644
0.156344 0.267857 0.000000
0.168368 0.271641 0.000000
0.182895 0.276310 0.000000
0.199741 0.281682 0.000000
0.218753 0.287633 0.000000
0.240238 0.294804 0.000000
0.264530 0.303410 0.000000
0.294285 0.316320 0.000000
0.346319 0.349798 0.000000
0.424842 0.381781 0.000000
0.486000 0.396765 0.000000
0.544274 0.404944 0.000000
0.601007 0.408545 0.000000
0.657893 0.408087 0.000000
0.714412 0.403876 0.000000
0.771389 0.395697 0.000000
0.821836 0.380011 0.000000
0.870085 0.358709 0.000000
0.911894 0.356329 0.000000
0.951141 0.355871 0.000000
0.988464 0.354284 0.000000
1.000000 0.351446 0.000000
1.000000 0.347509 0.000000
1.000000 0.342382 0.000000
1.000000 0.336431 0.000000
1.000000 0.329229 0.000000
1.000000 0.321080 0.000000
0.141726 0.285130 0.041993
0.144991 0.286412 0.036805
0.148623 0.287724 0.031312
0.153689 0.289555 0.023621
0.160952 0.291997 0.013031
0.170260 0.295109 0.000580
0.181369 0.298924 0.000000
0.195438 0.303410 0.000000
0.211246 0.308690 0.000000
0.229618 0.314427 0.000000
0.249882 0.320806 0.000000
0.273106 0.329015 0.000000
0.298528 0.337957 0.000000
0.332250 0.354192 0.000000
0.388037 0.388678 0.000000
0.469368 0.421698 0.000000
0.532097 0.437293 0.000000
0.591699 0.445808 0.000000
0.648371 0.448463 0.000000
0.705470 0.447974 0.000000
0.762600 0.443915 0.000000
0.817197 0.434241 0.000000
0.866606 0.417975 0.000000
0.912535 0.396338 0.000000
0.954314 0.381628 0.000000
0.991150 0.380224 0.000000
1.000000 0.377539 0.000000
1.000000 0.373632 0.000000
1.000000 0.368536 0.000000
1.000000 0.362585 0.000000
1.000000 0.355444 0.000000
1.000000 0.347417 0.000000
0.157504 0.313298 0.046815
0.160525 0.314366 0.041932
0.163699 0.315709 0.036072
0.168521 0.317540 0.028077
0.175143 0.319921 0.016846
0.184024 0.322850 0.003357
0.194858 0.326543 0.000000
0.207980 0.330785 0.000000
0.223178 0.335790 0.000000
0.240757 0.341436 0.000000
0.260410 0.347509 0.000000
0.282261 0.355047 0.000000
0.306523 0.363653 0.000000
0.333227 0.372900 0.000000
0.371496 0.393164 0.000000
0.431281 0.428779 0.000000
0.515007 0.463050 0.000000
0.579431 0.478859 0.000000
0.639155 0.486824 0.000000
0.696712 0.489418 0.000000
0.753964 0.488441 0.000000
0.808774 0.482124 0.000000
0.860716 0.470924 0.000000
0.909026 0.453925 0.000000
0.952758 0.431495 0.000000
0.994263 0.406073 0.000000
1.000000 0.403326 0.000000
1.000000 0.399390 0.000000
1.000000 0.394415 0.000000
1.000000 0.388373 0.000000
1.000000 0.381415 0.000000
1.000000 0.373541 0.000000
0.173648 0.342657 0.051759
0.176242 0.343847 0.047364
0.181552 0.348363 0.041901
0.186374 0.350134 0.033387
0.192691 0.352331 0.020600
0.200992 0.355413 0.006165
0.211307 0.358862 0.000000
0.224033 0.362921 0.000000
0.238743 0.367895 0.000000
0.255589 0.373388 0.000000
0.274693 0.379492 0.000000
0.295842 0.386267 0.000000
0.319402 0.394659 0.000000
0.345281 0.403754 0.000000
0.373266 0.413550 0.000000
0.416663 0.438239 0.000000
0.481331 0.475349 0.000000
0.567498 0.510185 0.000000
0.631739 0.524559 0.000000
0.691768 0.531518 0.000000
0.748592 0.532616 0.000000
0.802945 0.528801 0.000000
0.854795 0.520134 0.000000
0.903990 0.507012 0.000000
0.950469 0.488930 0.000000
0.991791 0.465248 0.000000
1.000000 0.436957 0.000000
1.000000 0.425177 0.000000
1.000000 0.420233 0.000000
1.000000 0.414099 0.000000
1.000000 0.407019 0.000000
1.000000 0.399084 0.000000
0.191043 0.375280 0.056214
0.193912 0.376623 0.051453
0.197147 0.378088 0.045777
0.202029 0.380041 0.036713
0.208316 0.382483 0.024170
0.216434 0.385382 0.008240
0.226322 0.388830 0.000000
0.238468 0.392950 0.000000
0.252506 0.397711 0.000000
0.268742 0.402930 0.000000
0.287266 0.409064 0.000000
0.307713 0.415625 0.000000
0.330510 0.423743 0.000000
0.355627 0.432715 0.000000
0.382788 0.442512 0.000000
0.412329 0.452918 0.000000
0.461341 0.482582 0.000000
0.529534 0.519951 0.000000
0.617182 0.554681 0.000000
0.681666 0.568078 0.000000
0.739834 0.572473 0.000000
0.794339 0.571069 0.000000
0.846189 0.565057 0.000000
0.895628 0.554498 0.000000
0.942412 0.539635 0.000000
0.986755 0.520378 0.000000
1.000000 0.495827 0.000000
1.000000 0.466896 0.000000
1.000000 0.445289 0.000000
1.000000 0.439277 0.000000
1.000000 0.432197 0.000000
1.000000 0.424170 0.000000
0.208682 0.408240 0.059174
0.211398 0.409613 0.054353
0.214694 0.411048 0.048341
0.219242 0.413062 0.039216
0.225345 0.415412 0.026062
0.233188 0.418402 0.008728
0.242893 0.421790 0.000000
0.254459 0.425818 0.000000
0.268284 0.430426 0.000000
0.284154 0.435828 0.000000
0.302007 0.441749 0.000000
0.322210 0.448341 0.000000
0.344335 0.456489 0.000000
0.369055 0.465492 0.000000
0.395880 0.475257 0.000000
0.424872 0.485603 0.000000
0.455879 0.496620 0.000000
0.509697 0.530541 0.000000
0.581323 0.567376 0.000000
0.669825 0.601495 0.000000
0.731563 0.611231 0.000000
0.785855 0.611780 0.000000
0.837797 0.607721 0.000000
0.887327 0.599512 0.000000
0.934264 0.586999 0.000000
0.978790 0.570336 0.000000
1.000000 0.549615 0.000000
1.000000 0.524407 0.000000
1.000000 0.494759 0.000000
1.000000 0.464179 0.000000
1.000000 0.456977 0.000000
1.000000 0.448920 0.000000
0.227420 0.444465 0.060426
0.230259 0.445747 0.055177
0.233371 0.447303 0.049744
0.238071 0.449317 0.039551
0.243931 0.451728 0.025055
0.251682 0.454597 0.006439
0.261021 0.457954 0.000000
0.272435 0.461921 0.000000
0.285924 0.466529 0.000000
0.301427 0.471839 0.000000
0.318944 0.477729 0.000000
0.338659 0.484443 0.000000
0.360540 0.492592 0.000000
0.384619 0.501518 0.000000
0.410895 0.511040 0.000000
0.439368 0.521202 0.000000
0.469947 0.531975 0.000000
0.502525 0.543420 0.000000
0.560937 0.581323 0.000000
0.635981 0.617395 0.000000
0.723140 0.648493 0.000000
0.780789 0.653742 0.000000
0.831693 0.650599 0.000000
0.881102 0.643885 0.000000
0.928405 0.633295 0.000000
0.973083 0.618799 0.000000
1.000000 0.600458 0.000000
1.000000 0.578302 0.000000
1.000000 0.551873 0.000000
1.000000 0.521477 0.000000
1.000000 0.486488 0.000000
1.000000 0.474067 0.000000
0.249149 0.486580 0.059022
0.251652 0.487800 0.054017
0.254734 0.489082 0.046967
0.259129 0.490791 0.036164
0.265110 0.492958 0.020630
0.272404 0.495705 0.000855
0.281804 0.498939 0.000000
0.293004 0.502831 0.000000
0.306157 0.507347 0.000000
0.321447 0.512535 0.000000
0.338781 0.518425 0.000000
0.358068 0.525261 0.000000
0.379492 0.533196 0.000000
0.403174 0.541711 0.000000
0.428901 0.550988 0.000000
0.456764 0.560632 0.000000
0.486519 0.570947 0.000000
0.518486 0.581903 0.000000
0.554742 0.596124 0.000000
0.613764 0.633539 0.000000
0.689265 0.665339 0.000000
0.772946 0.692287 0.000000
0.826413 0.692714 0.000000
0.873503 0.685878 0.000000
0.919921 0.676295 0.000000
0.964630 0.663661 0.000000
1.000000 0.647181 0.000000
1.000000 0.627222 0.000000
1.000000 0.603693 0.000000
1.000000 0.576349 0.000000
1.000000 0.544854 0.000000
1.000000 0.509239 0.000000
0.270909 0.529595 0.055543
0.273503 0.530663 0.049622
0.276493 0.531884 0.041505
0.280827 0.533532 0.029450
0.286473 0.535698 0.012787
0.294011 0.538170 0.000000
0.303166 0.541344 0.000000
0.314214 0.545068 0.000000
0.327214 0.549493 0.000000
0.342168 0.554467 0.000000
0.359045 0.560235 0.000000
0.377874 0.567346 0.000000
0.398962 0.574945 0.000000
0.422126 0.583215 0.000000
0.447395 0.592126 0.000000
0.474678 0.601587 0.000000
0.504082 0.611688 0.000000
0.535149 0.622095 0.000000
0.568048 0.632654 0.000000
0.607813 0.649256 0.000000
0.663813 0.682582 0.000000
0.739254 0.710140 0.000000
0.820554 0.733669 0.000000
0.869688 0.729519 0.000000
0.912596 0.718654 0.000000
0.956023 0.706416 0.000000
0.998657 0.691646 0.000000
1.000000 0.673457 0.000000
1.000000 0.651850 0.000000
1.000000 0.626947 0.000000
1.000000 0.598474 0.000000
1.000000 0.565942 0.000000
0.294987 0.576654 0.051026
0.297612 0.577874 0.044190
0.300603 0.579034 0.034455
0.304845 0.580438 0.021149
0.310430 0.582238 0.003143
0.317632 0.584527 0.000000
0.326390 0.587304 0.000000
0.337072 0.590631 0.000000
0.349645 0.594537 0.000000
0.364141 0.599542 0.000000
0.380529 0.605402 0.000000
0.399054 0.611841 0.000000
0.419562 0.618982 0.000000
0.442023 0.626642 0.000000
0.466316 0.634607 0.000000
0.492653 0.643091 0.000000
0.520500 0.651850 0.000000
0.550469 0.660975 0.000000
0.581933 0.670405 0.000000
0.615106 0.680049 0.000000
0.657130 0.697993 0.000000
0.710170 0.727657 0.000000
0.786343 0.751278 0.000000
0.864225 0.771267 0.000000
0.909178 0.762570 0.000000
0.949828 0.749355 0.000000
0.990082 0.734340 0.000000
1.000000 0.717556 0.000000
1.000000 0.697536 0.000000
1.000000 0.674525 0.000000
1.000000 0.648066 0.000000
1.000000 0.618250 0.000000
0.318883 0.623407 0.044892
0.321599 0.624506 0.035676
0.324559 0.625605 0.026032
0.328740 0.627070 0.011902
0.334386 0.628870 0.000000
0.341375 0.631159 0.000000
0.350103 0.633967 0.000000
0.360662 0.637629 0.000000
0.372900 0.641901 0.000000
0.386938 0.646815 0.000000
0.402899 0.652155 0.000000
0.420783 0.658045 0.000000
0.440681 0.664393 0.000000
0.462257 0.671168 0.000000
0.485664 0.678157 0.000000
0.510857 0.685573 0.000000
0.537835 0.693263 0.000000
0.566369 0.701289 0.000000
0.596674 0.709560 0.000000
0.628443 0.717983 0.000000
0.661585 0.726619 0.000000
0.705043 0.745144 0.000000
0.755062 0.771115 0.000000
0.831662 0.790799 0.000000
0.907195 0.807675 0.000000
0.947723 0.794522 0.000000
0.985382 0.778500 0.000000
1.000000 0.760861 0.000000
1.000000 0.742245 0.000000
1.000000 0.720363 0.000000
1.000000 0.695521 0.000000
1.000000 0.667567 0.000000
0.344701 0.671901 0.051484
0.347143 0.672816 0.045624
0.349859 0.673884 0.038972
0.353857 0.675196 0.027863
0.359228 0.676875 0.013642
0.365942 0.679042 0.000000
0.374121 0.681727 0.000000
0.384039 0.684779 0.000000
0.395850 0.688472 0.000000
0.409339 0.692653 0.000000
0.424628 0.697292 0.000000
0.441627 0.702510 0.000000
0.460578 0.708003 0.000000
0.481331 0.713924 0.000000
0.503807 0.720089 0.000000
0.527886 0.726558 0.000000
0.553704 0.733303 0.000000
0.581109 0.740322 0.000000
0.610224 0.747585 0.000000
0.640558 0.755062 0.000000
0.672541 0.762631 0.000000
0.705715 0.770230 0.000000
0.749752 0.788754 0.000000
0.797024 0.811307 0.000000
0.874449 0.827268 0.000000
0.945617 0.839658 0.000000
0.983185 0.823514 0.000000
1.000000 0.804807 0.000000
1.000000 0.784695 0.000000
1.000000 0.764096 0.000000
1.000000 0.740566 0.000000
1.000000 0.714076 0.000000
0.370703 0.718929 0.100069
0.372992 0.719692 0.096620
0.375616 0.720607 0.092287
0.379400 0.721798 0.086213
0.384314 0.723354 0.076722
0.390936 0.725399 0.063172
0.398932 0.728023 0.043610
0.408545 0.731136 0.014832
0.419928 0.734737 0.000000
0.433021 0.738827 0.000000
0.447822 0.743343 0.000000
0.464363 0.748226 0.000000
0.482521 0.753414 0.000000
0.502434 0.758846 0.000000
0.523919 0.764431 0.000000
0.547204 0.770169 0.000000
0.571801 0.776059 0.000000
0.598047 0.782132 0.000000
0.625940 0.788388 0.000000
0.655238 0.794888 0.000000
0.685817 0.801419 0.000000
0.717678 0.807980 0.000000
0.750607 0.814420 0.000000
0.794614 0.832212 0.000000
0.840116 0.850919 0.000000
0.917144 0.863310 0.000000
0.983703 0.871000 0.000000
1.000000 0.851896 0.000000
1.000000 0.830533 0.000000
1.000000 0.807706 0.000000
1.000000 0.785092 0.000000
1.000000 0.759548 0.000000
0.401221 0.767025 0.157778
0.403235 0.767666 0.155337
0.405554 0.768338 0.152132
0.408850 0.769284 0.147829
0.413489 0.770565 0.141482
0.419318 0.772183 0.133547
0.426612 0.774228 0.122560
0.435279 0.776699 0.108461
0.445563 0.779507 0.089845
0.457496 0.782712 0.062715
0.471015 0.786374 0.018860
0.486275 0.790341 0.000000
0.503166 0.794614 0.000000
0.521691 0.799130 0.000000
0.541894 0.803891 0.000000
0.563531 0.808835 0.000000
0.586969 0.813931 0.000000
0.611841 0.819272 0.000000
0.638331 0.824735 0.000000
0.666255 0.830320 0.000000
