GH5 VLOG/[TTG] Sky Blue_V-LOG.cube
# Created by: Adobe Lightroom Export LUT Plugin
LUT_3D_SIZE 5
DOMAIN_MIN 0.000000 0.000000 0.000000
DOMAIN_MAX 0.903226 0.903226 0.903226
0.000000 0.000000 0.000000
0.186679 0.000000 0.000000
0.455695 0.000000 0.000000
0.799619 0.000000 0.000000
1.000000 0.000000 0.000000
0.034974 0.088746 0.012970
0.163455 0.143038 0.000000
0.460975 0.138918 0.000000
0.803098 0.165438 0.000000
1.000000 0.140719 0.000000
0.126558 0.257389 0.036591
0.182895 0.276310 0.000000
0.424842 0.381781 0.000000
0.821836 0.380011 0.000000
1.000000 0.342382 0.000000
0.249149 0.486580 0.059022
0.293004 0.502831 0.000000
0.428901 0.550988 0.000000
0.772946 0.692287 0.000000
1.000000 0.603693 0.000000
0.433539 0.810147 0.220401
0.464179 0.818662 0.185245
0.558740 0.839414 0.000000
0.732692 0.872770 0.000000
1.000000 0.920073 0.000000
0.000000 0.112734 0.200595
0.142397 0.013642 0.172641
0.448951 0.000000 0.069306
0.781094 0.062409 0.000000
1.000000 0.089082 0.000000
0.000000 0.173922 0.179446
0.151400 0.151400 0.151400
0.457740 0.134218 0.048890
0.789975 0.187076 0.000000
1.000000 0.197513 0.000000
0.000000 0.339635 0.099702
0.195926 0.302983 0.146944
0.428656 0.393103 0.000000
0.811704 0.394568 0.000000
1.000000 0.359319 0.000000
0.212955 0.536004 0.146578
0.298131 0.525231 0.161807
0.434699 0.572412 0.000000
0.755947 0.693355 0.000000
1.000000 0.618128 0.000000
0.423377 0.816617 0.253391
0.460334 0.820798 0.221500
0.554955 0.843717 0.004028
0.728176 0.876005 0.000000
1.000000 0.926940 0.000000
0.000000 0.314397 0.508659
0.000000 0.241276 0.506462
0.376318 0.021485 0.446296
0.755764 0.000000 0.384558
1.000000 0.000000 0.156069
0.000000 0.349950 0.495827
0.000000 0.311772 0.490028
0.380804 0.160891 0.440192
0.777981 0.021118 0.351934
1.000000 0.000000 0.132906
0.000000 0.457404 0.470832
0.000000 0.446632 0.458808
0.399969 0.399969 0.399969
0.810697 0.364752 0.293492
1.000000 0.317296 0.000000
0.000000 0.698360 0.369268
0.000000 0.698482 0.319890
0.446906 0.611658 0.378729
0.769070 0.712612 0.010315
1.000000 0.593896 0.000000
0.000000 0.896056 0.259648
0.198489 0.880980 0.322881
0.559442 0.849699 0.419684
0.707698 0.883207 0.000000
1.000000 0.931212 0.000000
0.000000 0.513634 0.813046
0.000000 0.475441 0.814267
0.000000 0.260441 0.814237
0.651759 0.091493 0.765621
1.000000 0.109987 0.688502
0.000000 0.542626 0.808469
0.000000 0.514580 0.808438
0.000000 0.351598 0.807858
0.655268 0.209049 0.761898
1.000000 0.256474 0.681453
0.000000 0.615229 0.799435
0.000000 0.600641 0.797665
0.000000 0.538293 0.791653
0.672389 0.420630 0.751400
1.000000 0.461402 0.655573
0.000000 0.762539 0.784176
0.000000 0.759609 0.780606
0.000000 0.749660 0.767575
0.713588 0.713802 0.713741
1.000000 0.631098 0.579431
0.000000 0.968170 0.665888
0.000000 0.968322 0.640101
0.000000 0.960937 0.577966
0.751247 0.887388 0.703212
1.000000 0.937194 0.329686
0.000000 0.631556 0.993317
0.000000 0.609339 0.994324
0.000000 0.531579 0.997131
0.000000 0.303227 1.000000
0.851987 0.418982 0.972045
0.000000 0.654108 0.991913
0.000000 0.633753 0.992889
0.000000 0.563134 0.995544
0.000000 0.354681 0.999420
0.857511 0.471778 0.970275
0.000000 0.702541 0.990784
0.000000 0.691676 0.991150
0.000000 0.650599 0.992187
0.000000 0.537835 0.992950
0.875181 0.600977 0.965820
0.000000 0.795651 0.987304
0.000000 0.788937 0.987610
0.000000 0.766049 0.988586
0.000000 0.737942 0.985107
0.906310 0.770871 0.958251
0.000000 0.950317 0.977569
0.000000 0.950164 0.977081
0.000000 0.949798 0.975158
0.000000 0.949767 0.966674
0.939940 0.939971 0.939940
