GH5 VLOG/[TTG] Sky Blue_rec709.cube
# Created by: Adobe Lightroom Export LUT Plugin
LUT_3D_SIZE 8
DOMAIN_MIN 0.000000 0.000000 0.000000
DOMAIN_MAX 0.903226 0.903226 0.903226
0.000000 0.000000 0.000000
0.150729 0.006500 0.000000
0.296269 0.023468 0.000000
0.433631 0.055879 0.000000
0.567315 0.093324 0.000000
0.699672 0.130037 0.000000
0.822293 0.161074 0.000000
0.942077 0.186160 0.000000
0.055604 0.091066 0.040955
0.142916 0.129183 0.000000
0.306188 0.107057 0.000000
0.437781 0.123049 0.000000
0.568811 0.144869 0.000000
0.699611 0.169406 0.000000
0.820310 0.191653 0.000000
0.940673 0.211002 0.000000
0.126101 0.192996 0.097566
0.157534 0.207614 0.076081
0.281682 0.258030 0.000000
0.444709 0.248631 0.000000
0.582696 0.223148 0.000000
0.709712 0.239536 0.000000
0.830014 0.252811 0.000000
0.949248 0.264744 0.000000
0.202945 0.298894 0.161807
0.220371 0.307683 0.148257
0.273594 0.327886 0.107607
0.418372 0.385473 0.000000
0.583215 0.380529 0.000000
0.723659 0.344549 0.000000
0.843076 0.326604 0.000000
0.959289 0.334478 0.000000
0.279332 0.399725 0.228092
0.290318 0.405890 0.218936
0.323827 0.420783 0.193515
0.391211 0.444862 0.138827
0.548241 0.506157 0.000000
0.705196 0.499336 0.000000
0.842466 0.465858 0.000000
0.971679 0.420966 0.000000
0.356298 0.503899 0.293584
0.365057 0.509606 0.287236
0.388769 0.521386 0.268528
0.436988 0.540856 0.231937
0.513725 0.565881 0.162875
0.677058 0.626062 0.000000
0.827604 0.616693 0.000000
0.966033 0.585901 0.000000
0.443824 0.622217 0.368109
0.450263 0.625910 0.362646
0.467720 0.634394 0.347662
0.502678 0.648707 0.319188
0.559777 0.667872 0.270298
0.641016 0.691310 0.182620
0.807950 0.747829 0.000000
0.950927 0.732937 0.000000
0.551324 0.751217 0.468879
0.555749 0.753964 0.463966
0.568231 0.760891 0.451179
0.593378 0.772824 0.427100
0.632990 0.786374 0.384222
0.696132 0.806302 0.319951
0.780667 0.829038 0.201389
0.947112 0.876829 0.000000
0.000000 0.077668 0.143862
0.114015 0.050690 0.133547
0.282139 0.052796 0.100618
0.422431 0.095552 0.080690
0.558953 0.122744 0.029389
0.691798 0.151888 0.000000
0.813535 0.180972 0.000000
0.934356 0.205356 0.000000
0.000000 0.141573 0.145205
0.137270 0.137270 0.137270
0.286534 0.139620 0.120363
0.428229 0.145876 0.088746
0.563378 0.160555 0.032013
0.694636 0.181735 0.000000
0.814572 0.204471 0.000000
0.934691 0.226535 0.000000
0.094331 0.237308 0.148898
0.182040 0.222751 0.167941
0.281254 0.263432 0.124422
0.442847 0.242130 0.090120
0.576867 0.230838 0.039063
0.704311 0.242466 0.000000
0.823117 0.256046 0.000000
0.942840 0.272465 0.000000
0.206607 0.320134 0.201144
0.238865 0.315526 0.209232
0.282383 0.336004 0.179660
0.416480 0.386603 0.109804
0.577874 0.374823 0.033295
0.717433 0.334539 0.000000
0.835813 0.326818 0.000000
0.953613 0.335424 0.000000
0.289036 0.409766 0.262150
0.304112 0.410895 0.261357
0.332372 0.425513 0.239567
0.394965 0.448737 0.196567
0.545403 0.505852 0.098329
0.701930 0.496468 0.000000
0.840391 0.460914 0.000000
0.970001 0.412818 0.000000
0.366918 0.506523 0.324071
0.373968 0.511345 0.317876
0.395178 0.523247 0.300969
0.440528 0.542931 0.268925
0.515282 0.567956 0.212070
0.675349 0.626246 0.085084
0.825864 0.615534 0.000000
0.964935 0.583124 0.000000
0.450660 0.622492 0.391577
0.456092 0.625696 0.385962
0.471992 0.634089 0.371618
0.505180 0.648676 0.345525
0.560906 0.668391 0.301244
0.641047 0.691768 0.226108
0.805478 0.746761 0.044495
0.948669 0.731197 0.000000
0.556023 0.750271 0.486702
0.560449 0.753231 0.482246
0.572045 0.760159 0.469978
0.595850 0.772213 0.447059
0.636439 0.788388 0.408881
0.697536 0.807614 0.347326
0.780209 0.829129 0.241001
0.946258 0.877012 0.000000
0.000000 0.168429 0.281468
0.000000 0.135775 0.282597
0.231144 0.113252 0.265965
0.393072 0.141054 0.247288
0.546410 0.166506 0.212650
0.685817 0.183322 0.181033
0.810758 0.205509 0.142550
0.935302 0.216861 0.033906
0.000000 0.206241 0.282231
0.000000 0.195377 0.280674
0.243961 0.176852 0.267491
0.400336 0.191745 0.248020
0.547906 0.205966 0.220371
0.686091 0.217380 0.190219
0.811582 0.228214 0.143587
0.935943 0.237034 0.035035
0.000000 0.277806 0.284459
0.000000 0.275944 0.281376
0.269413 0.269413 0.269413
0.417365 0.269688 0.253849
0.559777 0.271122 0.230320
0.694514 0.274449 0.196689
0.818540 0.278691 0.148196
0.942016 0.282994 0.039887
0.000000 0.374975 0.267399
0.147951 0.374792 0.269718
0.309331 0.351843 0.295140
0.414588 0.394415 0.253666
0.575860 0.373632 0.231662
0.709682 0.348730 0.204074
0.830808 0.348547 0.155673
0.952575 0.348699 0.046815
0.242618 0.458534 0.300816
0.293736 0.450385 0.312108
0.358770 0.438087 0.330175
0.408637 0.462013 0.299016
0.546075 0.512840 0.242405
0.701259 0.497200 0.204532
0.839933 0.457465 0.154879
0.967346 0.425360 0.055818
0.351995 0.542412 0.355261
0.378485 0.536950 0.364477
0.417243 0.532647 0.373571
0.453712 0.551843 0.347448
0.522423 0.576318 0.304143
0.674006 0.629541 0.232242
0.825071 0.616052 0.170352
0.966552 0.580774 0.016083
0.447883 0.643061 0.423194
0.466194 0.638880 0.431281
0.490089 0.639612 0.431647
0.517357 0.654047 0.408606
0.567773 0.673671 0.370886
0.645045 0.697200 0.311620
0.805112 0.749844 0.215030
0.950134 0.733089 0.097353
0.558526 0.759030 0.515892
0.572259 0.756039 0.523247
0.584985 0.761257 0.516167
0.606012 0.773861 0.496529
0.642756 0.790280 0.462776
0.700710 0.810178 0.408545
0.781765 0.832029 0.321233
0.945068 0.878599 0.180179
0.000000 0.255863 0.413153
0.000000 0.237247 0.414557
0.000000 0.164096 0.415045
0.345769 0.186191 0.393225
0.502342 0.220829 0.376745
0.660365 0.227359 0.345281
0.793240 0.264469 0.316899
0.922393 0.272923 0.281559
0.000000 0.282322 0.414557
0.000000 0.271366 0.414740
0.000000 0.225925 0.414038
0.353979 0.228336 0.394965
0.505730 0.257481 0.379156
0.663813 0.258824 0.344823
0.794156 0.287419 0.321294
0.923735 0.291783 0.284367
0.000000 0.330083 0.416510
0.000000 0.326085 0.415259
0.000000 0.314092 0.411597
0.371466 0.303197 0.396826
0.521355 0.321019 0.381476
0.667750 0.334051 0.357824
0.800900 0.336889 0.331518
0.931121 0.333074 0.288823
0.000000 0.410071 0.419898
0.000000 0.409064 0.418036
0.092622 0.405921 0.412390
0.398627 0.398627 0.398627
0.543725 0.398901 0.384894
0.680385 0.398596 0.365148
0.810910 0.395789 0.335576
0.940764 0.389044 0.289372
0.000000 0.504112 0.398596
0.000000 0.503777 0.395880
0.253819 0.501946 0.396185
0.436286 0.478065 0.422675
0.541436 0.520500 0.383154
0.695155 0.498329 0.365270
0.830381 0.466529 0.338811
0.956878 0.458900 0.290410
0.186099 0.602380 0.405737
0.270207 0.597498 0.411872
0.390143 0.582513 0.429389
0.483131 0.565270 0.454719
0.535821 0.589960 0.421180
0.671321 0.635615 0.369390
0.823423 0.617548 0.334874
0.967834 0.577386 0.280766
0.387030 0.684840 0.455695
0.419867 0.680629 0.463600
0.483742 0.670039 0.483162
0.543786 0.661738 0.501152
0.582086 0.682155 0.469490
0.651820 0.705837 0.421485
0.802762 0.754055 0.351598
0.951049 0.734707 0.290715
0.519768 0.788754 0.533104
0.539605 0.785733 0.540368
0.582788 0.778073 0.558160
0.624018 0.776211 0.567559
0.653925 0.793149 0.539483
0.705989 0.813565 0.495644
0.783627 0.836118 0.425269
0.942626 0.881254 0.325628
0.000000 0.340795 0.541344
0.000000 0.328618 0.542321
0.000000 0.294530 0.542992
0.061830 0.216098 0.541833
0.457649 0.259800 0.517418
0.614832 0.289708 0.500694
0.757839 0.315831 0.480476
0.901335 0.334752 0.445960
0.000000 0.361303 0.542168
0.000000 0.351659 0.542840
0.000000 0.323278 0.542840
0.088411 0.250584 0.542260
0.462989 0.288701 0.518425
0.617182 0.316472 0.501884
0.760494 0.337987 0.481086
0.901793 0.360266 0.449561
0.000000 0.397162 0.543603
0.000000 0.393622 0.543359
0.000000 0.380743 0.542321
0.173404 0.333989 0.540490
0.475044 0.347753 0.519615
0.621180 0.372656 0.503288
0.766506 0.385443 0.481239
0.900603 0.415869 0.463081
0.000000 0.455299 0.546563
0.000000 0.453407 0.545769
0.000000 0.448249 0.543328
0.219913 0.437354 0.537865
0.496132 0.429603 0.522087
0.636591 0.447272 0.507469
0.775418 0.463111 0.489784
0.914519 0.455756 0.460212
0.000000 0.535912 0.548150
0.000000 0.535454 0.547021
0.000000 0.533593 0.543633
0.263859 0.530022 0.536645
0.522332 0.522332 0.522332
0.661952 0.521386 0.508537
0.798764 0.517266 0.486610
0.935271 0.506950 0.451087
0.000000 0.626246 0.528161
0.000000 0.626947 0.525505
0.000000 0.626642 0.517967
0.359442 0.622553 0.515251
0.556939 0.598047 0.543847
0.660578 0.639246 0.504906
0.815976 0.617304 0.484535
0.959472 0.577722 0.449714
0.000000 0.730373 0.519371
0.065126 0.729671 0.519280
0.298375 0.727749 0.522637
0.492256 0.707698 0.545922
0.605310 0.687434 0.577508
0.658778 0.713191 0.540826
0.795254 0.757290 0.485756
0.948669 0.734615 0.441779
0.341283 0.831235 0.547753
0.390265 0.827604 0.554345
0.484565 0.818631 0.572015
0.592340 0.804593 0.602625
0.671107 0.793851 0.627924
0.712398 0.816037 0.592706
0.784390 0.839811 0.539025
0.936126 0.882963 0.463020
0.000000 0.420417 0.661463
0.000000 0.411841 0.662074
0.000000 0.389349 0.662837
0.000000 0.343816 0.663966
0.268711 0.287938 0.661494
0.566247 0.336309 0.636988
0.723110 0.365820 0.623011
0.855131 0.419043 0.613367
0.000000 0.435248 0.660609
0.000000 0.427649 0.661036
0.000000 0.407599 0.661799
0.000000 0.370703 0.661860
0.275822 0.311955 0.660121
0.569177 0.356878 0.636408
0.723659 0.385565 0.622522
0.856291 0.434119 0.613733
0.000000 0.465736 0.663142
0.000000 0.462562 0.663111
0.000000 0.450690 0.662806
0.000000 0.421332 0.661616
0.292973 0.365209 0.660090
0.579095 0.404700 0.637812
0.727596 0.432715 0.624231
0.862364 0.470741 0.616358
0.000000 0.511376 0.665705
0.000000 0.509392 0.665217
0.000000 0.504631 0.664149
0.000000 0.493324 0.662837
0.336126 0.452461 0.660914
0.596887 0.475624 0.641199
0.735409 0.502861 0.629053
0.876341 0.523095 0.618982
0.000000 0.573297 0.666957
0.000000 0.572229 0.666346
0.000000 0.569360 0.665126
0.000000 0.564172 0.662409
0.363500 0.555413 0.657008
0.616785 0.554467 0.641871
0.751797 0.572686 0.631434
0.893217 0.589807 0.618280
0.000000 0.654017 0.668513
0.000000 0.654139 0.668238
0.000000 0.653407 0.666407
0.000000 0.652033 0.662806
0.395605 0.649042 0.655909
0.643061 0.643061 0.643061
0.786130 0.642695 0.629877
0.927489 0.636316 0.606104
0.000000 0.753048 0.660121
0.000000 0.753658 0.658503
0.000000 0.754543 0.653132
0.000000 0.755154 0.642359
0.472602 0.748867 0.638727
0.680812 0.723110 0.667384
0.785519 0.763302 0.625788
0.944244 0.738125 0.599908
0.000000 0.864683 0.642206
0.000000 0.864103 0.641108
0.000000 0.862608 0.639338
0.353246 0.860166 0.640558
0.596002 0.840909 0.664424
0.732174 0.818265 0.703487
0.788296 0.845304 0.662348
0.927214 0.886351 0.602716
0.000000 0.498360 0.779080
0.000000 0.492256 0.779629
0.000000 0.476631 0.780209
0.000000 0.450172 0.780880
0.000000 0.386877 0.781888
0.414588 0.369543 0.777493
0.675532 0.428382 0.753750
0.826658 0.457069 0.742550
0.000000 0.509941 0.778500
0.000000 0.504417 0.779080
0.000000 0.489815 0.779568
0.000000 0.465003 0.779934
0.000000 0.409796 0.780575
0.419471 0.387457 0.776486
0.677607 0.443183 0.752987
0.826627 0.471290 0.741634
0.000000 0.535302 0.780056
0.000000 0.532952 0.780026
0.000000 0.521965 0.780148
0.000000 0.500359 0.780209
0.000000 0.462776 0.779751
0.432471 0.429938 0.776852
0.685725 0.481209 0.754574
0.831174 0.508263 0.743832
0.000000 0.572107 0.782834
0.000000 0.570153 0.782528
0.000000 0.565637 0.782101
0.000000 0.554589 0.781491
0.019532 0.531640 0.780056
0.450904 0.492622 0.778164
0.699306 0.536156 0.757229
0.839567 0.560662 0.747158
0.000000 0.623133 0.785183
0.000000 0.621729 0.784909
0.000000 0.618097 0.784298
0.000000 0.611536 0.783505
0.000000 0.602869 0.781064
0.475685 0.571832 0.778286
0.715602 0.598718 0.759915
0.852598 0.624140 0.751308
0.000000 0.690394 0.788540
0.000000 0.689662 0.788388
0.000000 0.687800 0.787839
0.000000 0.684352 0.786740
0.000000 0.679835 0.784207
0.493721 0.675837 0.778958
0.739132 0.676387 0.764523
0.875029 0.696498 0.756527
0.000000 0.775326 0.792721
0.000000 0.775387 0.792508
0.000000 0.775296 0.791592
0.000000 0.775204 0.789731
0.172641 0.774472 0.786099
0.524315 0.772549 0.779538
0.766842 0.766903 0.766873
0.914824 0.765011 0.751797
0.000000 0.883543 0.793820
0.000000 0.883818 0.792538
0.000000 0.884581 0.789181
0.000000 0.884977 0.782193
0.043946 0.884977 0.769833
0.584070 0.877958 0.762936
0.807736 0.851682 0.793881
0.914611 0.891295 0.749172
0.000000 0.578332 0.899290
0.000000 0.573907 0.899596
0.000000 0.563043 0.899840
0.000000 0.546380 0.900267
0.000000 0.527886 0.899840
0.060945 0.454108 0.901946
0.564446 0.480659 0.895995
0.793332 0.549310 0.874388
0.000000 0.587457 0.899077
0.000000 0.583337 0.899351
0.000000 0.573053 0.899657
0.000000 0.556970 0.899992
0.000000 0.539269 0.899565
0.127260 0.472938 0.901366
0.568200 0.493904 0.895598
0.795041 0.558831 0.874235
0.000000 0.608789 0.899779
0.000000 0.606470 0.899870
0.000000 0.597223 0.900084
0.000000 0.582666 0.900572
0.000000 0.566278 0.899962
0.217411 0.517021 0.900664
0.577722 0.524987 0.895781
0.800534 0.582666 0.875212
0.000000 0.636744 0.902129
0.000000 0.635431 0.902190
0.000000 0.632319 0.902037
0.000000 0.623041 0.902007
0.000000 0.608026 0.901396
0.306462 0.583154 0.900420
0.589746 0.570672 0.897307
0.810239 0.619898 0.877714
0.000000 0.678096 0.905425
0.000000 0.676600 0.905577
0.000000 0.672297 0.905608
0.000000 0.667292 0.905303
0.000000 0.661372 0.903990
0.344762 0.653864 0.901244
0.598566 0.624842 0.899748
0.823789 0.667872 0.881407
0.000000 0.735378 0.909270
0.000000 0.734188 0.909209
0.000000 0.731228 0.908995
0.000000 0.726223 0.908812
0.000000 0.719600 0.908446
0.246525 0.720546 0.905699
0.614527 0.698909 0.903471
0.843168 0.730220 0.886961
0.000000 0.808713 0.914305
0.000000 0.808225 0.914214
0.000000 0.806912 0.913909
0.000000 0.804929 0.913481
0.000000 0.802701 0.912383
0.234562 0.800443 0.910369
0.625788 0.801266 0.905425
0.866575 0.805020 0.891936
0.000000 0.898589 0.919371
0.000000 0.898680 0.919188
0.000000 0.898924 0.918669
0.000000 0.899474 0.917815
0.000000 0.900114 0.916106
0.340093 0.900664 0.913024
0.661006 0.900481 0.907500
0.896452 0.896483 0.896483
