[TTG] Sky Blue_Rec709.cube
# Created by: Adobe Lightroom Export LUT Plugin
LUT_3D_SIZE 32
DOMAIN_MIN 0.0 0.0 0.0
DOMAIN_MAX 1.0 1.0 1.0
0.000000 0.000000 0.000000
0.017243 0.000000 0.000153
0.036530 0.000000 0.000214
0.062348 0.000000 0.000122
0.090700 0.000000 0.000000
0.119570 0.000000 0.000000
0.149569 0.000000 0.000000
0.180728 0.000000 0.000000
0.212894 0.000000 0.000000
0.246586 0.000000 0.000000
0.281224 0.000000 0.000000
0.317418 0.000000 0.000000
0.354986 0.000000 0.000000
0.393683 0.000000 0.000000
0.433478 0.000000 0.000000
0.474342 0.000000 0.000000
0.516564 0.000000 0.000000
0.559167 0.000000 0.000000
0.603082 0.000000 0.000000
0.647578 0.000000 0.000000
0.692348 0.000000 0.000000
0.736294 0.000000 0.000000
0.779568 0.000000 0.000000
0.822843 0.000000 0.000000
0.865476 0.000000 0.000000
0.907134 0.000000 0.000000
0.947662 0.000000 0.000000
0.986633 0.000000 0.000000
1.000000 0.000000 0.000000
1.000000 0.000000 0.000000
1.000000 0.000000 0.000000
1.000000 0.000000 0.000000
0.001556 0.014343 0.000000
0.016205 0.011231 0.002686
0.035004 0.015045 0.001373
0.062379 0.016480 0.000122
0.090822 0.016815 0.000000
0.119478 0.017273 0.000000
0.149538 0.017334 0.000000
0.180850 0.016632 0.000000
0.213199 0.016236 0.000000
0.246983 0.015076 0.000000
0.281590 0.013062 0.000000
0.317784 0.011475 0.000000
0.355505 0.008301 0.000000
0.393988 0.005066 0.000000
0.433783 0.001251 0.000000
0.474678 0.000000 0.000000
0.516869 0.000000 0.000000
0.559533 0.000000 0.000000
0.603418 0.000000 0.000000
0.647791 0.000000 0.000000
0.692683 0.000000 0.000000
0.736538 0.000000 0.000000
0.779812 0.000000 0.000000
0.822995 0.000000 0.000000
0.865690 0.000000 0.000000
0.907347 0.000000 0.000000
0.947723 0.000000 0.000000
0.986633 0.000000 0.000000
1.000000 0.000000 0.000000
1.000000 0.000000 0.000000
1.000000 0.000000 0.000000
1.000000 0.000000 0.000000
0.002869 0.031220 0.000000
0.021851 0.028565 0.002045
0.033906 0.024414 0.005524
0.060273 0.030121 0.003723
0.090394 0.037232 0.000000
0.119387 0.038087 0.000000
0.149783 0.038911 0.000000
0.180850 0.039612 0.000000
0.213596 0.039918 0.000000
0.247166 0.040192 0.000000
0.282017 0.039368 0.000000
0.318395 0.038544 0.000000
0.355688 0.037568 0.000000
0.394568 0.034363 0.000000
0.434302 0.031830 0.000000
0.475349 0.028077 0.000000
0.517266 0.022950 0.000000
0.560143 0.016571 0.000000
0.603876 0.009003 0.000000
0.648188 0.000183 0.000000
0.692988 0.000000 0.000000
0.736721 0.000000 0.000000
0.779995 0.000000 0.000000
0.823239 0.000000 0.000000
0.865904 0.000000 0.000000
0.907378 0.000000 0.000000
0.947753 0.000000 0.000000
0.986725 0.000000 0.000000
1.000000 0.000000 0.000000
1.000000 0.000000 0.000000
1.000000 0.000000 0.000000
1.000000 0.000000 0.000000
0.004211 0.054994 0.000000
0.024384 0.052308 0.000885
0.042756 0.049378 0.004150
0.057404 0.042908 0.009857
0.086427 0.051484 0.006714
0.118013 0.060273 0.001282
0.150088 0.065858 0.000000
0.181338 0.066957 0.000000
0.213931 0.068482 0.000000
0.247745 0.069490 0.000000
0.282567 0.070436 0.000000
0.318730 0.070802 0.000000
0.356573 0.071046 0.000000
0.395178 0.070558 0.000000
0.435065 0.069978 0.000000
0.476173 0.068177 0.000000
0.517815 0.066926 0.000000
0.560754 0.063539 0.000000
0.604364 0.060121 0.000000
0.648768 0.053986 0.000000
0.693568 0.045808 0.000000
0.737240 0.038361 0.000000
0.780423 0.027283 0.000000
0.823575 0.014862 0.000000
0.866148 0.001678 0.000000
0.907774 0.000000 0.000000
0.947936 0.000000 0.000000
0.986847 0.000000 0.000000
1.000000 0.000000 0.000000
1.000000 0.000000 0.000000
1.000000 0.000000 0.000000
1.000000 0.000000 0.000000
0.006348 0.080140 0.000000
0.026184 0.078737 0.000000
0.048981 0.075349 0.001984
0.068818 0.071382 0.006378
0.082612 0.064210 0.012970
0.113466 0.073793 0.009339
0.147127 0.083955 0.002625
0.181430 0.094118 0.000000
0.214328 0.096803 0.000000
0.248142 0.098695 0.000000
0.283360 0.100130 0.000000
0.319615 0.101900 0.000000
0.357366 0.103151 0.000000
0.396002 0.103853 0.000000
0.435798 0.104494 0.000000
0.476844 0.104768 0.000000
0.518791 0.104768 0.000000
0.561730 0.103700 0.000000
0.605127 0.102419 0.000000
0.649470 0.100435 0.000000
0.694209 0.097505 0.000000
0.737667 0.094057 0.000000
0.780850 0.088808 0.000000
0.824002 0.082643 0.000000
0.866484 0.075868 0.000000
0.907866 0.065888 0.000000
0.948150 0.055116 0.000000
0.986938 0.041077 0.000000
1.000000 0.025238 0.000000
1.000000 0.009491 0.000000
1.000000 0.000000 0.000000
1.000000 0.000000 0.000000
0.010163 0.106508 0.000000
0.029786 0.106325 0.000000
0.053590 0.103395 0.000000
0.076539 0.099580 0.002655
0.096254 0.094972 0.008240
0.110201 0.086915 0.016144
0.142916 0.097536 0.011841
0.177401 0.108553 0.003357
0.213107 0.119631 0.000000
0.248966 0.127443 0.000000
0.284276 0.129763 0.000000
0.320653 0.132174 0.000000
0.358343 0.134157 0.000000
0.397040 0.136477 0.000000
0.437049 0.137850 0.000000
0.477852 0.139437 0.000000
0.519768 0.140383 0.000000
0.562646 0.140902 0.000000
0.606165 0.140932 0.000000
0.650446 0.140932 0.000000
0.694911 0.139925 0.000000
0.738369 0.137972 0.000000
0.781521 0.135348 0.000000
0.824613 0.131655 0.000000
0.866911 0.128511 0.000000
0.908293 0.123537 0.000000
0.948394 0.117433 0.000000
0.986999 0.111269 0.000000
1.000000 0.103212 0.000000
1.000000 0.094759 0.000000
1.000000 0.084413 0.000000
1.000000 0.074128 0.000000
0.013672 0.135256 0.000000
0.034791 0.135042 0.000000
0.058350 0.133211 0.000000
0.082765 0.129824 0.000000
0.105501 0.125704 0.003235
0.125551 0.120699 0.010437
0.139162 0.111818 0.020264
0.173495 0.122591 0.015259
0.209567 0.134737 0.004639
0.246586 0.146578 0.000000
0.284886 0.158358 0.000000
0.321996 0.162539 0.000000
0.359442 0.165255 0.000000
0.398444 0.168276 0.000000
0.438270 0.170596 0.000000
0.479225 0.172793 0.000000
0.521111 0.174838 0.000000
0.563775 0.176577 0.000000
0.607263 0.177737 0.000000
0.651575 0.178561 0.000000
0.695766 0.179141 0.000000
0.739040 0.178347 0.000000
0.782254 0.176669 0.000000
0.825162 0.175265 0.000000
0.867521 0.172610 0.000000
0.908659 0.169711 0.000000
0.948669 0.166171 0.000000
0.987243 0.162051 0.000000
1.000000 0.156954 0.000000
1.000000 0.151247 0.000000
1.000000 0.144717 0.000000
1.000000 0.138369 0.000000
0.017182 0.165377 0.000000
0.039490 0.165438 0.000000
0.062898 0.164492 0.000000
0.088624 0.161654 0.000000
0.113802 0.157778 0.000000
0.136782 0.153109 0.003326
0.157168 0.147768 0.011749
0.170657 0.138186 0.024964
0.205783 0.149233 0.019532
0.243107 0.161898 0.005371
0.281498 0.174380 0.000000
0.321294 0.186954 0.000000
0.360967 0.196689 0.000000
0.399878 0.200015 0.000000
0.439521 0.203311 0.000000
0.480507 0.206332 0.000000
0.522423 0.209018 0.000000
0.565240 0.211521 0.000000
0.608759 0.213443 0.000000
0.652857 0.215396 0.000000
0.696895 0.216251 0.000000
0.739986 0.216464 0.000000
0.783047 0.216281 0.000000
0.825895 0.215793 0.000000
0.867979 0.214450 0.000000
0.909148 0.211917 0.000000
0.948913 0.209720 0.000000
0.987427 0.206119 0.000000
1.000000 0.202701 0.000000
1.000000 0.198245 0.000000
1.000000 0.193179 0.000000
1.000000 0.188327 0.000000
0.020752 0.197391 0.000000
0.045197 0.197360 0.000000
0.067109 0.197391 0.000000
0.094270 0.194675 0.000000
0.120851 0.191440 0.000000
0.146395 0.187167 0.000000
0.169711 0.182254 0.002777
0.190402 0.176669 0.013733
0.204074 0.166232 0.030579
0.239902 0.176974 0.024781
0.278569 0.190402 0.007141
0.318212 0.203555 0.000000
0.358831 0.216861 0.000000
0.400793 0.230076 0.000000
0.441444 0.235966 0.000000
0.482277 0.239567 0.000000
0.523857 0.243076 0.000000
0.566674 0.246036 0.000000
0.610163 0.248905 0.000000
0.654200 0.251469 0.000000
0.698024 0.253178 0.000000
0.740902 0.253758 0.000000
0.783963 0.254520 0.000000
0.826688 0.254490 0.000000
0.868681 0.254185 0.000000
0.909636 0.252689 0.000000
0.949371 0.250553 0.000000
0.987610 0.248051 0.000000
1.000000 0.245426 0.000000
1.000000 0.241703 0.000000
1.000000 0.237278 0.000000
1.000000 0.233066 0.000000
0.024323 0.230747 0.000000
0.049622 0.230808 0.000000
0.072694 0.230747 0.000000
0.099062 0.229404 0.000000
0.127474 0.226200 0.000000
0.154757 0.222385 0.000000
0.180270 0.217868 0.000000
0.204196 0.212741 0.001160
0.225406 0.206882 0.014649
0.238926 0.195315 0.036591
0.274907 0.205783 0.030640
0.315129 0.220188 0.008698
0.355779 0.233921 0.000000
0.397711 0.247654 0.000000
0.440650 0.261479 0.000000
0.483955 0.272984 0.000000
0.525658 0.276890 0.000000
0.568444 0.280613 0.000000
0.611872 0.284092 0.000000
0.655634 0.287083 0.000000
0.699153 0.289342 0.000000
0.742031 0.290929 0.000000
0.784970 0.291752 0.000000
0.827573 0.292546 0.000000
0.869322 0.292576 0.000000
0.910124 0.291752 0.000000
0.949645 0.290501 0.000000
0.987701 0.288396 0.000000
1.000000 0.285801 0.000000
1.000000 0.282567 0.000000
1.000000 0.278599 0.000000
1.000000 0.274540 0.000000
0.028168 0.265690 0.000000
0.054261 0.265690 0.000000
0.076631 0.265629 0.000000
0.103304 0.265019 0.000000
0.132998 0.262181 0.000000
0.161990 0.258732 0.000000
0.189700 0.254765 0.000000
0.216007 0.249699 0.000000
0.239841 0.244022 0.000000
0.261509 0.238010 0.016083
0.274693 0.225711 0.042878
0.310948 0.235599 0.039155
0.352728 0.250767 0.012055
0.394690 0.265110 0.000000
0.437568 0.279515 0.000000
0.481727 0.293767 0.000000
0.526635 0.308293 0.000000
0.570153 0.315526 0.000000
0.613519 0.319402 0.000000
0.657374 0.322728 0.000000
0.700313 0.325597 0.000000
0.743252 0.327428 0.000000
0.786099 0.328985 0.000000
0.828458 0.330297 0.000000
0.870024 0.330632 0.000000
0.910643 0.330144 0.000000
0.949859 0.329198 0.000000
0.987823 0.327459 0.000000
1.000000 0.325048 0.000000
1.000000 0.322240 0.000000
1.000000 0.318578 0.000000
1.000000 0.314611 0.000000
0.031006 0.301732 0.000000
0.058991 0.301671 0.000000
0.081514 0.301732 0.000000
0.107332 0.301701 0.000000
0.138247 0.299382 0.000000
0.168521 0.296239 0.000000
0.198123 0.292271 0.000000
0.226108 0.287755 0.000000
0.252750 0.282383 0.000000
0.276982 0.276646 0.000000
0.298924 0.270451 0.017212
0.311894 0.257023 0.049805
0.348302 0.266300 0.048066
0.391852 0.282506 0.016297
0.434791 0.297429 0.000000
0.478706 0.312169 0.000000
0.523705 0.327062 0.000000
0.569665 0.341833 0.000000
0.615473 0.354864 0.000000
0.658930 0.358648 0.000000
0.701686 0.361639 0.000000
0.744503 0.364050 0.000000
0.787289 0.365911 0.000000
0.829496 0.367254 0.000000
0.870817 0.368017 0.000000
0.911131 0.368078 0.000000
0.950195 0.367224 0.000000
0.987854 0.365728 0.000000
1.000000 0.363592 0.000000
1.000000 0.360906 0.000000
1.000000 0.357519 0.000000
1.000000 0.353674 0.000000
0.036072 0.338964 0.000000
0.063081 0.338994 0.000000
0.086488 0.338964 0.000000
0.112367 0.338994 0.000000
0.142397 0.337743 0.000000
0.174594 0.334569 0.000000
0.205600 0.330999 0.000000
0.235416 0.326665 0.000000
0.263951 0.321752 0.000000
0.290623 0.316167 0.000000
0.315190 0.310124 0.000000
0.337377 0.303441 0.019440
0.350134 0.289372 0.057557
0.386786 0.298100 0.057862
0.431617 0.315068 0.023590
0.475929 0.330632 0.000000
0.520623 0.345830 0.000000
0.566552 0.360967 0.000000
0.612879 0.376104 0.000000
0.659358 0.390723 0.000000
0.703090 0.397742 0.000000
0.745754 0.400610 0.000000
0.788449 0.402777 0.000000
0.830442 0.404517 0.000000
0.871641 0.405463 0.000000
0.911620 0.405585 0.000000
0.950408 0.404913 0.000000
0.987884 0.403510 0.000000
1.000000 0.401556 0.000000
1.000000 0.398901 0.000000
1.000000 0.395483 0.000000
1.000000 0.391730 0.000000
0.038697 0.377173 0.000000
0.066682 0.377142 0.000000
0.090547 0.376989 0.000000
0.117372 0.377050 0.000000
0.146944 0.376684 0.000000
0.179934 0.373907 0.000000
0.212406 0.370550 0.000000
0.243656 0.366522 0.000000
0.273747 0.361944 0.000000
0.302708 0.356481 0.000000
0.329625 0.350683 0.000000
0.354467 0.344427 0.000000
0.376928 0.337499 0.022309
0.389502 0.322423 0.066224
0.426307 0.330846 0.068971
0.472511 0.348608 0.031464
0.517784 0.364508 0.000000
0.563409 0.380163 0.000000
0.609979 0.395575 0.000000
0.656214 0.410407 0.000000
0.702052 0.424537 0.000000
0.747127 0.437263 0.000000
0.789639 0.439734 0.000000
0.831449 0.441505 0.000000
0.872221 0.442512 0.000000
0.912139 0.442756 0.000000
0.950591 0.442359 0.000000
0.987671 0.441108 0.000000
1.000000 0.439094 0.000000
1.000000 0.436469 0.000000
1.000000 0.433051 0.000000
1.000000 0.429114 0.000000
0.044709 0.416175 0.000000
0.070924 0.416144 0.000000
0.095399 0.416175 0.000000
0.122072 0.416114 0.000000
0.151553 0.416175 0.000000
0.184543 0.414191 0.000000
0.218784 0.410864 0.000000
0.251408 0.407141 0.000000
0.283085 0.402869 0.000000
0.313634 0.397864 0.000000
0.342504 0.392248 0.000000
0.369787 0.386145 0.000000
0.394812 0.379644 0.000000
0.416327 0.371435 0.027619
0.429786 0.356573 0.074556
0.466712 0.364416 0.079896
0.514244 0.382788 0.041566
0.560327 0.399145 0.000000
0.606653 0.415045 0.000000
0.653132 0.430304 0.000000
0.699306 0.444953 0.000000
0.744869 0.458900 0.000000
0.789914 0.472084 0.000000
0.832395 0.478523 0.000000
0.872923 0.479652 0.000000
0.912444 0.479988 0.000000
0.950683 0.479530 0.000000
0.987488 0.478279 0.000000
1.000000 0.476295 0.000000
1.000000 0.473548 0.000000
1.000000 0.470039 0.000000
1.000000 0.466072 0.000000
0.048280 0.456184 0.000000
0.075532 0.456153 0.000000
0.100069 0.456184 0.000000
0.126375 0.456275 0.000000
0.156710 0.456245 0.000000
0.188998 0.455238 0.000000
0.224338 0.452216 0.000000
0.258213 0.448737 0.000000
0.291691 0.444465 0.000000
0.323491 0.439796 0.000000
0.354131 0.434577 0.000000
0.383490 0.428626 0.000000
0.410803 0.422431 0.000000
0.436225 0.415717 0.000000
0.456733 0.406226 0.033478
0.471168 0.391424 0.083406
0.508141 0.398627 0.090974
0.556512 0.417639 0.052613
0.603479 0.434272 0.000000
0.650172 0.450294 0.000000
0.696468 0.465431 0.000000
0.742428 0.479744 0.000000
0.787594 0.493172 0.000000
0.831388 0.505547 0.000000
0.873472 0.516747 0.000000
0.912657 0.516991 0.000000
0.950561 0.516503 0.000000
0.987152 0.515160 0.000000
1.000000 0.513146 0.000000
1.000000 0.510216 0.000000
1.000000 0.506706 0.000000
1.000000 0.502556 0.000000
0.052613 0.496925 0.000000
0.079561 0.497017 0.000000
0.103761 0.497017 0.000000
0.131746 0.496895 0.000000
0.161593 0.496895 0.000000
0.193362 0.496864 0.000000
0.229526 0.494179 0.000000
0.264897 0.490730 0.000000
0.299260 0.486854 0.000000
0.332616 0.482460 0.000000
0.364721 0.477363 0.000000
0.395697 0.471992 0.000000
0.425025 0.465827 0.000000
0.452735 0.459266 0.000000
0.478309 0.452399 0.000000
0.497871 0.441566 0.040101
0.513115 0.427039 0.092103
0.550134 0.433509 0.102174
0.599725 0.453223 0.063813
0.647211 0.470130 0.003388
0.693996 0.485969 0.000000
0.740047 0.500694 0.000000
0.785275 0.514580 0.000000
0.829099 0.527184 0.000000
0.871427 0.538628 0.000000
0.912139 0.548974 0.000000
0.950439 0.553399 0.000000
0.986633 0.551965 0.000000
1.000000 0.549706 0.000000
1.000000 0.546807 0.000000
1.000000 0.543084 0.000000
1.000000 0.538659 0.000000
0.057130 0.538567 0.000000
0.083864 0.538537 0.000000
0.108858 0.538445 0.000000
0.136049 0.538506 0.000000
0.166659 0.538537 0.000000
0.198520 0.538506 0.000000
0.234043 0.536828 0.000000
0.270390 0.533715 0.000000
0.306737 0.529931 0.000000
0.341131 0.525963 0.000000
0.374914 0.521233 0.000000
0.407416 0.515953 0.000000
0.438453 0.510246 0.000000
0.468238 0.504051 0.000000
0.496223 0.497536 0.000000
0.522179 0.490455 0.000000
0.541039 0.478645 0.047181
0.557397 0.464454 0.100465
0.594385 0.470222 0.114199
0.644038 0.489754 0.076905
0.691218 0.506249 0.016297
0.737758 0.521782 0.000000
0.783108 0.536095 0.000000
0.826963 0.548974 0.000000
0.869444 0.560571 0.000000
0.910094 0.570947 0.000000
0.948882 0.580072 0.000000
0.985840 0.588098 0.000000
1.000000 0.586297 0.000000
1.000000 0.582910 0.000000
1.000000 0.579034 0.000000
1.000000 0.574395 0.000000
0.061189 0.581140 0.000000
0.088930 0.581109 0.000000
0.112215 0.581170 0.000000
0.140444 0.581109 0.000000
0.171481 0.581170 0.000000
0.203677 0.581109 0.000000
0.238224 0.580468 0.000000
0.276097 0.577691 0.000000
0.312902 0.574487 0.000000
0.349401 0.570642 0.000000
0.384466 0.566308 0.000000
0.418830 0.561547 0.000000
0.451728 0.556359 0.000000
0.483314 0.550713 0.000000
0.513451 0.544579 0.000000
0.542016 0.537987 0.000000
0.568780 0.531151 0.000000
0.586877 0.518059 0.052888
0.604395 0.503990 0.109255
0.640040 0.508141 0.127108
0.688411 0.526513 0.091585
0.735348 0.542809 0.036225
0.780972 0.557580 0.000000
0.824826 0.570886 0.000000
0.867277 0.582696 0.000000
0.907988 0.593225 0.000000
0.946807 0.602380 0.000000
0.983764 0.610285 0.000000
1.000000 0.616999 0.000000
1.000000 0.618891 0.000000
1.000000 0.614740 0.000000
1.000000 0.609827 0.000000
0.067597 0.624048 0.000000
0.093233 0.624048 0.000000
0.116518 0.624109 0.000000
0.145510 0.624018 0.000000
0.176181 0.624018 0.000000
0.208682 0.624018 0.000000
0.242283 0.624048 0.000000
0.280858 0.621729 0.000000
0.319310 0.618769 0.000000
0.356512 0.615351 0.000000
0.392981 0.611536 0.000000
0.428504 0.607263 0.000000
0.463142 0.602441 0.000000
0.496742 0.597131 0.000000
0.528954 0.591577 0.000000
0.559625 0.585565 0.000000
0.588800 0.579278 0.000000
0.616236 0.572534 0.000000
0.633875 0.558373 0.060853
0.651850 0.544305 0.119997
0.686122 0.546624 0.142550
0.732876 0.563653 0.109133
0.778653 0.578943 0.063600
0.822873 0.592706 0.000000
0.865232 0.604913 0.000000
0.905821 0.615656 0.000000
0.944732 0.624903 0.000000
0.981598 0.632868 0.000000
1.000000 0.639521 0.000000
1.000000 0.644800 0.000000
1.000000 0.648981 0.000000
1.000000 0.644923 0.000000
0.070405 0.666987 0.000000
0.097749 0.666926 0.000000
0.121828 0.666896 0.000000
0.149630 0.666987 0.000000
0.181094 0.666835 0.000000
0.213840 0.666835 0.000000
0.247745 0.666773 0.000000
0.284581 0.665644 0.000000
0.324132 0.662959 0.000000
0.362860 0.659785 0.000000
0.400336 0.656458 0.000000
0.437354 0.652522 0.000000
0.473426 0.648157 0.000000
0.508415 0.643366 0.000000
0.542199 0.638300 0.000000
0.574792 0.632868 0.000000
0.606317 0.626856 0.000000
0.635889 0.620752 0.000000
0.664057 0.614282 0.000000
0.681056 0.599054 0.072694
0.699550 0.584863 0.132845
0.732235 0.585351 0.160250
0.776547 0.600458 0.130190
0.820554 0.614496 0.091859
0.863188 0.626978 0.031891
0.903655 0.638056 0.000000
0.942443 0.647547 0.000000
0.979248 0.655665 0.000000
1.000000 0.662257 0.000000
1.000000 0.667536 0.000000
1.000000 0.671504 0.000000
1.000000 0.674250 0.000000
0.076570 0.709133 0.000000
0.101350 0.709071 0.000000
0.126406 0.709102 0.000000
0.153628 0.709102 0.000000
0.185122 0.709010 0.000000
0.218418 0.708949 0.000000
0.251896 0.708919 0.000000
0.287633 0.708614 0.000000
0.328161 0.706233 0.000000
0.367651 0.703456 0.000000
0.406622 0.700282 0.000000
0.444556 0.696712 0.000000
0.481666 0.692836 0.000000
0.518151 0.688502 0.000000
0.553429 0.684016 0.000000
0.587854 0.678920 0.000000
0.620935 0.673579 0.000000
0.652735 0.667994 0.000000
0.683040 0.661952 0.000000
0.711788 0.655909 0.000000
0.728115 0.639673 0.088594
0.746822 0.625269 0.149264
0.777310 0.623651 0.181430
0.819089 0.636713 0.154452
0.860685 0.649104 0.123110
0.901549 0.660395 0.082338
0.940185 0.670161 0.027283
0.976806 0.678462 0.000000
1.000000 0.685176 0.000000
1.000000 0.690486 0.000000
1.000000 0.694423 0.000000
1.000000 0.696956 0.000000
0.082521 0.750088 0.000000
0.105928 0.750088 0.000000
0.129152 0.750088 0.000000
0.157351 0.749966 0.000000
0.188907 0.749935 0.000000
0.222232 0.749813 0.000000
0.256535 0.749722 0.000000
0.291264 0.749630 0.000000
0.330785 0.748074 0.000000
0.371313 0.745571 0.000000
0.411292 0.742641 0.000000
0.450202 0.739467 0.000000
0.488380 0.735958 0.000000
0.525780 0.732143 0.000000
0.562402 0.727993 0.000000
0.598047 0.723445 0.000000
0.632746 0.718563 0.000000
0.666194 0.713466 0.000000
0.698360 0.708125 0.000000
0.729274 0.702358 0.000000
0.758541 0.696498 0.018280
0.774044 0.679377 0.111025
0.792660 0.664820 0.170108
0.820798 0.661189 0.206790
0.859739 0.672206 0.183078
0.898985 0.682795 0.156588
0.937743 0.692805 0.126802
0.974273 0.701259 0.094453
1.000000 0.708156 0.052155
1.000000 0.713527 0.000000
1.000000 0.717494 0.000000
1.000000 0.720150 0.000000
0.087007 0.789517 0.000000
0.111177 0.789487 0.000000
0.134585 0.789425 0.000000
0.161929 0.789334 0.000000
0.192752 0.789242 0.000000
0.225223 0.789151 0.000000
0.260044 0.788998 0.000000
0.294591 0.788876 0.000000
0.332372 0.788113 0.000000
0.373968 0.785794 0.000000
0.414130 0.783322 0.000000
0.454200 0.780423 0.000000
0.493080 0.777310 0.000000
0.531579 0.773800 0.000000
0.569207 0.770016 0.000000
0.605951 0.765927 0.000000
0.641779 0.761624 0.000000
0.676661 0.756954 0.000000
0.710353 0.752102 0.000000
0.742947 0.746914 0.000000
0.774105 0.741512 0.000000
0.803830 0.735958 0.058930
0.818418 0.717983 0.137362
0.836667 0.703304 0.195407
0.862486 0.697810 0.236179
0.898711 0.706752 0.215000
0.934905 0.715328 0.193637
0.971405 0.723964 0.171054
1.000000 0.731014 0.148623
1.000000 0.736660 0.126253
1.000000 0.740810 0.099123
1.000000 0.743648 0.062104
0.093568 0.827146 0.000000
0.117128 0.827054 0.000000
0.138613 0.827024 0.000000
0.165805 0.826932 0.000000
0.196078 0.826871 0.000000
0.228397 0.826719 0.000000
0.262303 0.826566 0.000000
0.298070 0.826322 0.000000
0.334051 0.826108 0.000000
0.375128 0.824216 0.000000
0.415869 0.821958 0.000000
0.456336 0.819425 0.000000
0.496284 0.816526 0.000000
0.535454 0.813382 0.000000
0.573907 0.810025 0.000000
0.611597 0.806302 0.000000
0.648432 0.802396 0.000000
0.684413 0.798215 0.000000
0.719326 0.793790 0.000000
0.753262 0.789090 0.000000
0.786099 0.784176 0.000000
0.817350 0.779171 0.010010
0.847379 0.773953 0.101534
0.860868 0.755367 0.169406
0.878660 0.740475 0.226108
0.902007 0.733394 0.270268
0.935241 0.740200 0.252079
0.968231 0.746639 0.234134
1.000000 0.753933 0.217472
1.000000 0.759701 0.201877
1.000000 0.764157 0.188479
1.000000 0.767330 0.174380
0.099336 0.862821 0.000000
0.122377 0.862760 0.000000
0.143313 0.862699 0.000000
0.170352 0.862608 0.000000
0.199466 0.862516 0.000000
0.232059 0.862333 0.000000
0.265263 0.862150 0.000000
0.300206 0.861875 0.000000
0.335882 0.861662 0.000000
0.374762 0.860533 0.000000
0.416693 0.858457 0.000000
0.457496 0.856138 0.000000
0.498024 0.853574 0.000000
0.537530 0.850767 0.000000
0.576776 0.847715 0.000000
0.615137 0.844358 0.000000
0.652796 0.840848 0.000000
0.689693 0.837064 0.000000
0.725673 0.833066 0.000000
0.760586 0.828855 0.000000
0.794522 0.824460 0.000000
0.827298 0.819883 0.000000
0.858701 0.815183 0.082826
0.888670 0.810361 0.146304
0.901152 0.790982 0.206516
0.918090 0.776150 0.262089
0.938842 0.767727 0.309850
0.969024 0.772396 0.293645
0.998352 0.776638 0.278782
1.000000 0.782712 0.267613
1.000000 0.787350 0.257206
1.000000 0.790982 0.250767
0.106386 0.896330 0.000000
0.126894 0.896269 0.000000
0.148470 0.896208 0.000000
0.173465 0.896117 0.000000
0.202548 0.895995 0.000000
0.234531 0.895781 0.000000
0.267216 0.895598 0.000000
0.302068 0.895323 0.000000
0.337316 0.894987 0.000000
0.374060 0.894469 0.000000
0.415991 0.892607 0.000000
0.457221 0.890532 0.000000
0.497932 0.888212 0.000000
0.538140 0.885649 0.000000
0.577722 0.882872 0.000000
0.616602 0.879942 0.000000
0.654994 0.876707 0.000000
0.692439 0.873320 0.000000
0.729274 0.869627 0.000000
0.765164 0.865812 0.000000
0.800076 0.861845 0.000000
0.833799 0.857664 0.000000
0.866392 0.853422 0.069123
0.897581 0.849058 0.142489
0.927428 0.844572 0.194461
0.938537 0.824521 0.250217
0.954437 0.809781 0.304906
0.972473 0.800504 0.355291
0.999268 0.803159 0.341253
1.000000 0.805264 0.328649
1.000000 0.810361 0.322393
1.000000 0.814328 0.318181
0.113466 0.927459 0.000000
0.132815 0.927398 0.000000
0.152987 0.927306 0.000000
0.177432 0.927214 0.000000
0.206027 0.927062 0.000000
0.236454 0.926879 0.000000
0.268956 0.926635 0.000000
0.303044 0.926299 0.000000
0.337835 0.925963 0.000000
0.373297 0.925566 0.000000
0.413611 0.924193 0.000000
0.455421 0.922301 0.000000
0.496651 0.920195 0.000000
0.537194 0.917906 0.000000
0.577173 0.915373 0.000000
0.616541 0.912657 0.000000
0.655238 0.909728 0.000000
0.693263 0.906645 0.000000
0.730495 0.903349 0.000000
0.767056 0.899840 0.000000
