[TTG] Sky Blue_Rec709.cube
# Created by: Adobe Lightroom Export LUT Plugin
LUT_3D_SIZE 8
DOMAIN_MIN 0.000000 0.000000 0.000000
DOMAIN_MAX 0.903226 0.903226 0.903226
0.000000 0.000000 0.000000
0.090700 0.000000 0.000000
0.212894 0.000000 0.000000
0.354986 0.000000 0.000000
0.516564 0.000000 0.000000
0.692348 0.000000 0.000000
0.865476 0.000000 0.000000
1.000000 0.000000 0.000000
0.006348 0.080140 0.000000
0.082612 0.064210 0.012970
0.214328 0.096803 0.000000
0.357366 0.103151 0.000000
0.518791 0.104768 0.000000
0.694209 0.097505 0.000000
0.866484 0.075868 0.000000
1.000000 0.025238 0.000000
0.020752 0.197391 0.000000
0.120851 0.191440 0.000000
0.204074 0.166232 0.030579
0.358831 0.216861 0.000000
0.523857 0.243076 0.000000
0.698024 0.253178 0.000000
0.868681 0.254185 0.000000
1.000000 0.245426 0.000000
0.036072 0.338964 0.000000
0.142397 0.337743 0.000000
0.263951 0.321752 0.000000
0.350134 0.289372 0.057557
0.520623 0.345830 0.000000
0.703090 0.397742 0.000000
0.871641 0.405463 0.000000
1.000000 0.401556 0.000000
0.052613 0.496925 0.000000
0.161593 0.496895 0.000000
0.299260 0.486854 0.000000
0.425025 0.465827 0.000000
0.513115 0.427039 0.092103
0.693996 0.485969 0.000000
0.871427 0.538628 0.000000
1.000000 0.549706 0.000000
0.070405 0.666987 0.000000
0.181094 0.666835 0.000000
0.324132 0.662959 0.000000
0.473426 0.648157 0.000000
0.606317 0.626856 0.000000
0.699550 0.584863 0.132845
0.863188 0.626978 0.031891
1.000000 0.662257 0.000000
0.093568 0.827146 0.000000
0.196078 0.826871 0.000000
0.334051 0.826108 0.000000
0.496284 0.816526 0.000000
0.648432 0.802396 0.000000
0.786099 0.784176 0.000000
0.878660 0.740475 0.226108
1.000000 0.753933 0.217472
0.120516 0.956023 0.000000
0.208743 0.955566 0.000000
0.338170 0.954376 0.000000
0.493874 0.949432 0.000000
0.653590 0.939879 0.000000
0.802853 0.927428 0.000000
0.938140 0.912596 0.218387
1.000000 0.869810 0.416205
0.000000 0.022919 0.077607
0.083528 0.003021 0.087373
0.213687 0.000000 0.090822
0.361700 0.000000 0.082673
0.525200 0.000000 0.064637
0.700374 0.000000 0.037049
0.872068 0.000000 0.000000
1.000000 0.000000 0.000000
0.000000 0.088960 0.085420
0.088777 0.086244 0.086488
0.217533 0.082887 0.084138
0.363928 0.071382 0.074037
0.526513 0.048554 0.056489
0.701595 0.003449 0.022400
0.872618 0.000000 0.000000
1.000000 0.000000 0.000000
0.000000 0.206424 0.067994
0.092348 0.205600 0.066560
0.212558 0.181521 0.099245
0.366278 0.222843 0.064149
0.529717 0.230594 0.032959
0.703914 0.234104 0.000000
0.873960 0.230350 0.000000
1.000000 0.218021 0.000000
0.000000 0.346502 0.000000
0.097932 0.346166 0.000000
0.257725 0.333471 0.038178
0.357153 0.299931 0.117586
0.527977 0.352026 0.053101
0.707240 0.391547 0.000000
0.875700 0.396002 0.000000
1.000000 0.390356 0.000000
0.000000 0.502953 0.000000
0.111635 0.502861 0.000000
0.281834 0.496468 0.000000
0.424537 0.474647 0.007355
0.518700 0.435248 0.143618
0.699184 0.491005 0.057099
0.875151 0.540398 0.000000
1.000000 0.544854 0.000000
0.000000 0.671229 0.000000
0.126009 0.671077 0.000000
0.298405 0.669795 0.000000
0.465217 0.654505 0.000000
0.606073 0.632868 0.000000
0.702876 0.590570 0.179416
0.865873 0.630671 0.116579
1.000000 0.663966 0.000000
0.000000 0.829618 0.000000
0.143740 0.829313 0.000000
0.310246 0.828458 0.000000
0.482887 0.820279 0.000000
0.643183 0.805783 0.000000
0.784756 0.787320 0.044312
0.879179 0.743679 0.261326
1.000000 0.756619 0.251225
0.003265 0.957305 0.000000
0.164096 0.956817 0.000000
0.315862 0.955566 0.000000
0.477974 0.951354 0.000000
0.645502 0.941527 0.000000
0.798917 0.928832 0.000000
0.936187 0.913756 0.255222
1.000000 0.871550 0.438300
0.000000 0.070863 0.190768
0.000000 0.029175 0.199588
0.205905 0.000000 0.213352
0.357183 0.000000 0.219364
0.525597 0.000000 0.222568
0.707393 0.000000 0.211398
0.884489 0.000000 0.180301
1.000000 0.000000 0.161563
0.000000 0.129213 0.193881
0.027588 0.116762 0.201846
0.210727 0.077241 0.215061
0.364538 0.042420 0.215610
0.532128 0.000000 0.212741
0.712642 0.000000 0.195712
0.884459 0.000000 0.177127
1.000000 0.000000 0.157717
0.000000 0.216892 0.209689
0.008606 0.215976 0.210575
0.214054 0.208743 0.208927
0.370520 0.205234 0.206424
0.538170 0.195438 0.198428
0.713985 0.180026 0.185214
0.884245 0.158206 0.168185
1.000000 0.130343 0.148043
0.000000 0.357855 0.196841
0.000000 0.357885 0.186557
0.210880 0.355901 0.178988
0.365789 0.322393 0.219059
0.538750 0.365454 0.195224
0.714443 0.375280 0.174624
0.883543 0.372656 0.153048
1.000000 0.362127 0.130404
0.000000 0.515007 0.136172
0.000000 0.514549 0.135256
0.215427 0.513512 0.132143
0.414496 0.494453 0.170809
0.528557 0.453986 0.238376
0.709590 0.503227 0.197299
0.881865 0.541863 0.131655
1.000000 0.532952 0.105501
0.000000 0.680537 0.005005
0.000000 0.680140 0.001801
0.225681 0.679469 0.000000
0.436713 0.669642 0.065248
0.602594 0.646662 0.170474
0.709133 0.603998 0.268681
0.871611 0.639918 0.228244
1.000000 0.668513 0.158999
0.000000 0.835416 0.000000
0.000000 0.834989 0.000000
0.236240 0.833921 0.000000
0.442237 0.829465 0.000000
0.627253 0.814054 0.036561
0.780453 0.794736 0.205478
0.879606 0.751553 0.336278
1.000000 0.763333 0.322667
0.000000 0.960266 0.000000
0.000000 0.959716 0.000000
0.248875 0.958373 0.000000
0.432959 0.955993 0.000000
0.623133 0.945739 0.000000
0.788235 0.932341 0.173587
0.930816 0.916655 0.332097
1.000000 0.875761 0.488136
0.000000 0.133364 0.327672
0.000000 0.092805 0.335241
0.140414 0.038880 0.347997
0.351934 0.000000 0.363287
0.519646 0.000000 0.370031
0.702113 0.000000 0.377630
0.880583 0.000000 0.371374
1.000000 0.000000 0.351812
0.000000 0.183841 0.330114
0.000000 0.167514 0.337743
0.132296 0.111757 0.351171
0.356176 0.034455 0.366033
0.526909 0.000000 0.369207
0.707515 0.000000 0.372686
0.884489 0.000000 0.364385
1.000000 0.000000 0.343450
0.000000 0.258915 0.338842
0.000000 0.256291 0.340307
0.149996 0.238590 0.350683
0.363043 0.191531 0.367468
0.538567 0.176699 0.363470
0.717037 0.126680 0.359930
0.891814 0.000000 0.347051
1.000000 0.000000 0.326421
0.000000 0.370062 0.358312
0.000000 0.369696 0.359075
0.133730 0.366949 0.359686
0.364141 0.355871 0.356329
0.542718 0.352728 0.354131
0.721248 0.344732 0.347417
0.892088 0.332280 0.336461
1.000000 0.315831 0.322545
0.000000 0.527184 0.354009
0.000000 0.527398 0.348577
0.000000 0.526604 0.334447
0.359869 0.523125 0.324437
0.536431 0.483253 0.367529
0.718044 0.523766 0.348455
0.886687 0.528527 0.332738
1.000000 0.515587 0.318975
0.000000 0.692653 0.298070
0.000000 0.692775 0.288243
0.000000 0.691493 0.286809
0.359319 0.689082 0.283787
0.585321 0.668055 0.322667
0.714473 0.625360 0.390051
0.877684 0.656611 0.362127
1.000000 0.678126 0.324498
0.000000 0.843961 0.236851
0.000000 0.843412 0.236332
0.000000 0.842100 0.234318
0.361486 0.839628 0.230900
0.589776 0.827756 0.269902
0.769253 0.806546 0.347326
0.877745 0.764706 0.444160
1.000000 0.775570 0.424781
0.000000 0.964874 0.174624
0.000000 0.964263 0.173495
0.000000 0.962768 0.171511
0.364233 0.960082 0.167330
0.575341 0.953155 0.206546
0.766751 0.938354 0.321324
0.920287 0.921508 0.435889
1.000000 0.882994 0.561486
0.000000 0.207828 0.482307
0.000000 0.181765 0.488411
0.000000 0.109987 0.499458
0.294316 0.028626 0.514733
0.514794 0.000000 0.531060
0.693874 0.000000 0.535637
0.873930 0.000000 0.537987
1.000000 0.000000 0.525933
0.000000 0.249241 0.484169
0.000000 0.234165 0.490242
0.000000 0.161471 0.502708
0.290318 0.112306 0.517266
0.518151 0.000000 0.533440
0.699611 0.000000 0.535912
0.877836 0.000000 0.535302
1.000000 0.000000 0.521935
0.000000 0.324041 0.484596
0.000000 0.317296 0.489967
0.000000 0.290684 0.503319
0.278172 0.227146 0.520500
0.525231 0.167208 0.536645
0.710597 0.126833 0.533928
0.885283 0.013581 0.528252
1.000000 0.000000 0.513420
0.000000 0.412818 0.502373
0.000000 0.410956 0.503471
0.000000 0.406714 0.506004
0.299809 0.386450 0.517357
0.532769 0.338231 0.535882
0.719966 0.332128 0.526452
0.891905 0.310857 0.518212
1.000000 0.283330 0.503746
0.000000 0.540490 0.523827
0.000000 0.540276 0.524437
0.000000 0.539086 0.525628
0.295018 0.534356 0.525933
0.532311 0.521599 0.522057
0.718898 0.518730 0.520043
0.888945 0.511345 0.513634
1.000000 0.499275 0.502739
0.000000 0.703182 0.521813
0.000000 0.703212 0.519188
0.000000 0.702815 0.511925
0.219547 0.700496 0.498177
0.524193 0.695033 0.488319
0.712215 0.654566 0.536553
0.877501 0.682856 0.520653
1.000000 0.677913 0.506645
0.000000 0.852079 0.476112
0.000000 0.851835 0.472084
0.000000 0.850889 0.463355
0.207889 0.848264 0.455756
0.515953 0.843748 0.452827
0.744259 0.822873 0.498512
0.871275 0.783536 0.570642
1.000000 0.795041 0.551598
0.000000 0.969726 0.426886
0.000000 0.969085 0.426490
0.000000 0.967437 0.425727
0.256199 0.964508 0.424079
0.510918 0.960052 0.421607
0.729183 0.947234 0.468208
0.902800 0.928527 0.554437
0.993896 0.893462 0.651118
0.000000 0.291295 0.650782
0.000000 0.273930 0.655268
0.000000 0.194888 0.664332
0.126680 0.139101 0.675135
0.457282 0.000000 0.689662
0.681239 0.000000 0.702632
0.864195 0.000000 0.702754
1.000000 0.000000 0.690181
0.000000 0.325139 0.651759
0.000000 0.311955 0.656336
0.000000 0.252811 0.665766
0.105226 0.185977 0.676997
0.455024 0.100160 0.691279
0.683650 0.000000 0.704005
0.868009 0.000000 0.703029
1.000000 0.000000 0.688502
0.000000 0.392981 0.652430
0.000000 0.384344 0.656519
0.000000 0.358190 0.666438
0.030518 0.277134 0.680262
0.448951 0.227878 0.693904
0.689113 0.131777 0.706874
0.875883 0.026184 0.702327
1.000000 0.000000 0.684077
0.000000 0.477943 0.659052
0.000000 0.475990 0.659998
0.000000 0.469642 0.663661
0.188632 0.438636 0.678828
0.440833 0.372900 0.695521
0.696651 0.322881 0.708705
0.883574 0.309728 0.697841
1.000000 0.299748 0.677760
0.000000 0.580743 0.675654
0.000000 0.579614 0.676387
0.000000 0.576501 0.678004
0.214237 0.571099 0.680049
0.472602 0.553002 0.689479
0.703670 0.505730 0.706111
0.883238 0.507225 0.690211
1.000000 0.503258 0.675563
0.000000 0.714595 0.693202
0.000000 0.714443 0.693629
0.000000 0.713466 0.694575
0.110933 0.710872 0.695644
0.474342 0.704799 0.696010
0.702296 0.692378 0.692836
0.869718 0.690089 0.691127
1.000000 0.683986 0.685695
0.000000 0.860349 0.679774
0.000000 0.860044 0.678645
0.000000 0.858976 0.675685
0.000000 0.856260 0.671778
0.458808 0.850706 0.668635
0.693568 0.843656 0.665522
0.859434 0.809140 0.710170
0.988708 0.824155 0.697566
0.000000 0.973480 0.635187
0.000000 0.972808 0.635096
0.000000 0.970947 0.635615
0.179171 0.967193 0.639216
0.486763 0.962127 0.642390
0.683345 0.956359 0.640070
0.877562 0.938231 0.687282
0.979736 0.907927 0.753964
0.000000 0.380743 0.812436
0.000000 0.369360 0.815061
0.000000 0.316899 0.820737
0.000000 0.236606 0.828763
0.343206 0.182193 0.836820
0.612268 0.000000 0.847318
0.829679 0.000000 0.855558
1.000000 0.000000 0.854276
0.000000 0.407874 0.812497
0.000000 0.397986 0.815030
0.000000 0.357580 0.821012
0.000000 0.270939 0.829648
0.339239 0.224460 0.837583
0.611322 0.115541 0.847959
0.831235 0.000000 0.856168
1.000000 0.000000 0.853788
0.000000 0.465736 0.812161
0.000000 0.458412 0.814481
0.000000 0.437751 0.820371
0.000000 0.359838 0.830350
0.330571 0.310918 0.838895
0.609094 0.243809 0.849119
0.834470 0.124514 0.857450
1.000000 0.000000 0.852323
0.000000 0.548547 0.810544
0.000000 0.543969 0.812650
0.000000 0.531518 0.817960
0.000000 0.506859 0.827115
0.328313 0.431769 0.839322
0.606714 0.386755 0.849607
0.839261 0.324987 0.858335
1.000000 0.308629 0.847868
0.000000 0.632959 0.819394
0.000000 0.631800 0.819821
0.000000 0.629023 0.820737
0.084321 0.625513 0.821836
0.425879 0.605341 0.833371
0.610864 0.545830 0.847318
0.844602 0.503838 0.857145
1.000000 0.506706 0.839719
0.000000 0.737453 0.830045
0.000000 0.736599 0.830350
0.000000 0.734676 0.830991
0.000000 0.732021 0.831876
0.445472 0.730129 0.832364
0.658869 0.722621 0.838560
0.848875 0.683619 0.851743
0.996124 0.689540 0.833494
0.000000 0.864927 0.839963
0.000000 0.864469 0.840208
0.000000 0.863310 0.840696
0.000000 0.860990 0.841489
0.433295 0.856840 0.842313
0.667628 0.850340 0.842771
0.847562 0.840787 0.841093
0.973877 0.839292 0.839750
0.000000 0.978180 0.811276
0.000000 0.977722 0.811337
0.000000 0.975891 0.811063
0.000000 0.972137 0.811307
0.445686 0.966217 0.813779
0.676631 0.958160 0.820401
0.843229 0.950774 0.823606
0.963043 0.926818 0.859892
0.000000 0.480476 0.942473
0.000000 0.474922 0.943572
0.000000 0.444404 0.946807
0.000000 0.366400 0.952758
0.189425 0.329259 0.956847
0.517540 0.274571 0.961852
0.744167 0.159762 0.968048
0.943236 0.000000 0.972107
0.000000 0.501213 0.941985
0.000000 0.496162 0.943053
0.000000 0.475685 0.946014
0.000000 0.404852 0.951934
0.197147 0.358556 0.956634
0.518273 0.308446 0.961700
0.744076 0.212222 0.967926
0.943938 0.000000 0.972045
0.000000 0.546899 0.940734
0.000000 0.542931 0.941741
0.000000 0.533562 0.944274
0.000000 0.488502 0.949615
0.222202 0.425605 0.955932
0.522057 0.383398 0.961059
0.744472 0.310521 0.967437
0.945312 0.215671 0.971740
0.000000 0.613123 0.938537
0.000000 0.610590 0.939452
0.000000 0.604547 0.941711
0.102510 0.596368 0.945373
0.287785 0.528222 0.953643
0.535912 0.493141 0.959106
0.746975 0.437507 0.965789
0.947204 0.374640 0.970550
0.000000 0.688930 0.938079
0.000000 0.688624 0.938140
0.000000 0.688380 0.938170
0.121828 0.681178 0.941527
0.447852 0.677028 0.946166
0.565301 0.619501 0.955200
0.754543 0.578882 0.962249
0.949248 0.533959 0.967620
0.000000 0.768826 0.942138
0.000000 0.768551 0.942168
0.000000 0.768154 0.942168
0.147097 0.768612 0.941985
0.455634 0.772152 0.941192
0.653559 0.770352 0.946441
0.773678 0.725734 0.956085
0.950896 0.694484 0.962249
0.000000 0.863890 0.945739
0.000000 0.863584 0.945739
0.000000 0.862852 0.945769
0.143923 0.862119 0.945678
0.464332 0.862181 0.945281
0.665736 0.864714 0.944366
0.824399 0.866941 0.946868
0.951934 0.839994 0.955352
0.000000 0.973602 0.947814
0.000000 0.973053 0.947845
0.000000 0.971649 0.947936
0.102480 0.969085 0.948089
0.464851 0.965179 0.948302
0.672663 0.960021 0.948577
0.836393 0.954070 0.948974
0.951843 0.948913 0.948943
