[TTG] Sky Blue_Rec709.cube
# Created by: Adobe Lightroom Export LUT Plugin
LUT_3D_SIZE 5
DOMAIN_MIN 0.000000 0.000000 0.000000
DOMAIN_MAX 0.903226 0.903226 0.903226
0.000000 0.000000 0.000000
0.180728 0.000000 0.000000
0.433478 0.000000 0.000000
0.736294 0.000000 0.000000
1.000000 0.000000 0.000000
0.017182 0.165377 0.000000
0.170657 0.138186 0.024964
0.439521 0.203311 0.000000
0.739986 0.216464 0.000000
1.000000 0.202701 0.000000
0.044709 0.416175 0.000000
0.251408 0.407141 0.000000
0.429786 0.356573 0.074556
0.744869 0.458900 0.000000
1.000000 0.476295 0.000000
0.076570 0.709133 0.000000
0.287633 0.708614 0.000000
0.553429 0.684016 0.000000
0.746822 0.625269 0.149264
1.000000 0.685176 0.000000
0.120516 0.956023 0.000000
0.303655 0.954772 0.000000
0.574884 0.945006 0.000000
0.838224 0.923919 0.000000
1.000000 0.869810 0.416205
0.000000 0.057191 0.160037
0.173068 0.000000 0.179355
0.440711 0.000000 0.186709
0.753140 0.000000 0.154116
1.000000 0.000000 0.117098
0.000000 0.182132 0.176120
0.180026 0.175723 0.175998
0.451270 0.164981 0.167330
0.754086 0.134279 0.142153
1.000000 0.073243 0.099886
0.000000 0.431830 0.116396
0.180697 0.430640 0.112856
0.443275 0.380163 0.199496
0.756405 0.463142 0.106996
1.000000 0.456123 0.032746
0.000000 0.718776 0.000000
0.199924 0.718013 0.000000
0.537316 0.698360 0.000000
0.752834 0.638483 0.255467
1.000000 0.690883 0.164706
0.000000 0.959350 0.000000
0.224125 0.957977 0.000000
0.542260 0.949950 0.000000
0.829099 0.927520 0.184756
1.000000 0.874418 0.473091
0.000000 0.169741 0.403326
0.000000 0.086427 0.418402
0.431464 0.000000 0.445472
0.743771 0.000000 0.457282
1.000000 0.000000 0.440986
0.000000 0.271031 0.406043
0.000000 0.242985 0.422065
0.440681 0.140932 0.450172
0.755978 0.002930 0.448859
1.000000 0.000000 0.426978
0.000000 0.453468 0.439429
0.000000 0.452369 0.440955
0.446662 0.436927 0.437629
0.765652 0.429175 0.431067
1.000000 0.406775 0.411536
0.000000 0.737484 0.404669
0.000000 0.737331 0.388678
0.436866 0.732570 0.375616
0.757198 0.673671 0.468666
1.000000 0.711604 0.423407
0.000000 0.967498 0.308690
0.000000 0.965820 0.307378
0.432258 0.960479 0.303105
0.795163 0.938109 0.417578
0.999481 0.887785 0.604181
0.000000 0.313451 0.693111
0.000000 0.251682 0.702815
0.288457 0.127413 0.721187
0.720974 0.000000 0.743496
1.000000 0.000000 0.730983
0.000000 0.391669 0.694453
0.000000 0.363195 0.704341
0.269169 0.246311 0.724788
0.726589 0.044556 0.746609
1.000000 0.000000 0.727321
0.000000 0.541161 0.705379
0.000000 0.536858 0.707485
0.326909 0.506004 0.723140
0.738674 0.410986 0.748928
1.000000 0.406836 0.717342
0.000000 0.755398 0.732906
0.000000 0.754574 0.733883
0.310826 0.749569 0.735592
0.741726 0.732570 0.732876
0.999512 0.726375 0.727749
0.000000 0.974670 0.681025
0.000000 0.972686 0.681056
0.351720 0.965667 0.687068
0.725765 0.954986 0.689845
0.975647 0.912230 0.780606
0.000000 0.480476 0.942473
0.000000 0.456611 0.945739
0.000000 0.347021 0.954803
0.577356 0.254368 0.963287
0.943236 0.000000 0.972107
0.000000 0.533196 0.941131
0.000000 0.521904 0.943908
0.000000 0.420264 0.954131
0.579126 0.345708 0.962768
0.944884 0.173709 0.971862
0.000000 0.652155 0.936950
0.000000 0.645960 0.939361
0.320470 0.635309 0.945800
0.598901 0.545251 0.959045
0.948241 0.453437 0.969390
0.000000 0.791196 0.943145
0.000000 0.790616 0.943145
0.333623 0.791623 0.942718
0.699458 0.794797 0.946502
0.951232 0.732906 0.960601
0.000000 0.973602 0.947814
0.000000 0.972137 0.947906
0.330907 0.967285 0.948180
0.717586 0.958556 0.948669
0.951843 0.948913 0.948943
