SLOG2/[TTG] Sky Blue_Slog2_Desaturated.cube
# Created by: Adobe Lightroom Export LUT Plugin
LUT_3D_SIZE 32
DOMAIN_MIN 0.0 0.0 0.0
DOMAIN_MAX 1.0 1.0 1.0
0.000000 0.000000 0.000000
0.005280 0.000000 0.000000
0.010986 0.000000 0.000000
0.022980 0.000000 0.000000
0.043122 0.000000 0.000000
0.068330 0.000000 0.000000
0.095399 0.000000 0.000000
0.124514 0.000000 0.000000
0.155703 0.000000 0.000000
0.189395 0.000000 0.000000
0.226841 0.000000 0.000000
0.267674 0.000000 0.000000
0.313390 0.000000 0.000000
0.363073 0.000000 0.000000
0.417304 0.000000 0.000000
0.476204 0.000000 0.000000
0.539330 0.000000 0.000000
0.607080 0.000000 0.000000
0.678035 0.000000 0.000000
0.748745 0.000000 0.000000
0.818723 0.000000 0.000000
0.885618 0.000000 0.000000
0.946197 0.000000 0.000000
1.000000 0.000000 0.000000
1.000000 0.000000 0.000000
1.000000 0.000000 0.000000
1.000000 0.000000 0.000000
1.000000 0.000000 0.000000
1.000000 0.000000 0.000000
1.000000 0.000000 0.000000
1.000000 0.000000 0.000000
1.000000 0.000000 0.000000
0.000000 0.003204 0.000000
0.003754 0.002258 0.000061
0.009857 0.003388 0.000000
0.022126 0.002930 0.000000
0.042023 0.002045 0.000000
0.066529 0.000458 0.000000
0.093355 0.000000 0.000000
0.122560 0.000000 0.000000
0.153841 0.000000 0.000000
0.187991 0.000000 0.000000
0.225254 0.000000 0.000000
0.266606 0.000000 0.000000
0.312108 0.000000 0.000000
0.361700 0.000000 0.000000
0.416083 0.000000 0.000000
0.474525 0.000000 0.000000
0.538018 0.000000 0.000000
0.605737 0.000000 0.000000
0.676661 0.000000 0.000000
0.747646 0.000000 0.000000
0.817655 0.000000 0.000000
0.884672 0.000000 0.000000
0.945403 0.000000 0.000000
1.000000 0.000000 0.000000
1.000000 0.000000 0.000000
1.000000 0.000000 0.000000
1.000000 0.000000 0.000000
1.000000 0.000000 0.000000
1.000000 0.000000 0.000000
1.000000 0.000000 0.000000
1.000000 0.000000 0.000000
1.000000 0.000000 0.000000
0.000000 0.007782 0.000000
0.004883 0.006653 0.000000
0.008453 0.005310 0.000458
0.020233 0.007172 0.000000
0.039979 0.008179 0.000000
0.064607 0.007568 0.000000
0.091463 0.006256 0.000000
0.120394 0.003937 0.000000
0.152193 0.000000 0.000000
0.186160 0.000000 0.000000
0.223667 0.000000 0.000000
0.264988 0.000000 0.000000
0.310399 0.000000 0.000000
0.360113 0.000000 0.000000
0.414527 0.000000 0.000000
0.473213 0.000000 0.000000
0.536584 0.000000 0.000000
0.604303 0.000000 0.000000
0.675319 0.000000 0.000000
0.746456 0.000000 0.000000
0.816556 0.000000 0.000000
0.883360 0.000000 0.000000
0.944518 0.000000 0.000000
1.000000 0.000000 0.000000
1.000000 0.000000 0.000000
1.000000 0.000000 0.000000
1.000000 0.000000 0.000000
1.000000 0.000000 0.000000
1.000000 0.000000 0.000000
1.000000 0.000000 0.000000
1.000000 0.000000 0.000000
1.000000 0.000000 0.000000
0.000000 0.014801 0.000000
0.004578 0.013611 0.000000
0.010071 0.011597 0.000000
0.016358 0.009461 0.000671
0.035523 0.014191 0.000000
0.061982 0.017548 0.000000
0.089265 0.018158 0.000000
0.118257 0.017731 0.000000
0.149752 0.016083 0.000000
0.183658 0.013428 0.000000
0.221469 0.008209 0.000000
0.262821 0.001312 0.000000
0.308232 0.000000 0.000000
0.357763 0.000000 0.000000
0.412238 0.000000 0.000000
0.471046 0.000000 0.000000
0.534478 0.000000 0.000000
0.602594 0.000000 0.000000
0.673579 0.000000 0.000000
0.744656 0.000000 0.000000
0.814755 0.000000 0.000000
0.881834 0.000000 0.000000
0.943084 0.000000 0.000000
0.998871 0.000000 0.000000
1.000000 0.000000 0.000000
1.000000 0.000000 0.000000
1.000000 0.000000 0.000000
1.000000 0.000000 0.000000
1.000000 0.000000 0.000000
1.000000 0.000000 0.000000
1.000000 0.000000 0.000000
1.000000 0.000000 0.000000
0.000000 0.025635 0.000000
0.003967 0.024933 0.000000
0.011383 0.022278 0.000000
0.018952 0.019165 0.000000
0.027558 0.016327 0.000885
0.055238 0.023865 0.000000
0.084962 0.032044 0.000000
0.115023 0.035309 0.000000
0.146487 0.037079 0.000000
0.180697 0.037720 0.000000
0.218479 0.036957 0.000000
0.259678 0.034974 0.000000
0.305241 0.030213 0.000000
0.355047 0.022736 0.000000
0.409461 0.010681 0.000000
0.468421 0.000000 0.000000
0.532158 0.000000 0.000000
0.600275 0.000000 0.000000
0.671290 0.000000 0.000000
0.742275 0.000000 0.000000
0.812558 0.000000 0.000000
0.879606 0.000000 0.000000
0.941192 0.000000 0.000000
0.997223 0.000000 0.000000
1.000000 0.000000 0.000000
1.000000 0.000000 0.000000
1.000000 0.000000 0.000000
1.000000 0.000000 0.000000
1.000000 0.000000 0.000000
1.000000 0.000000 0.000000
1.000000 0.000000 0.000000
1.000000 0.000000 0.000000
0.000000 0.041962 0.000000
0.003265 0.041291 0.000000
0.012421 0.038544 0.000000
0.022644 0.034577 0.000000
0.032837 0.029267 0.000000
0.044526 0.026093 0.000122
0.076081 0.038270 0.000000
0.108736 0.050019 0.000000
0.142733 0.059602 0.000000
0.177249 0.063233 0.000000
0.214755 0.066590 0.000000
0.256413 0.069123 0.000000
0.301884 0.070832 0.000000
0.351965 0.070802 0.000000
0.406348 0.068208 0.000000
0.465522 0.062715 0.000000
0.529351 0.051606 0.000000
0.597467 0.029450 0.000000
0.668269 0.000000 0.000000
0.739864 0.000000 0.000000
0.809812 0.000000 0.000000
0.877317 0.000000 0.000000
0.939055 0.000000 0.000000
0.995117 0.000000 0.000000
1.000000 0.000000 0.000000
1.000000 0.000000 0.000000
1.000000 0.000000 0.000000
1.000000 0.000000 0.000000
1.000000 0.000000 0.000000
1.000000 0.000000 0.000000
1.000000 0.000000 0.000000
1.000000 0.000000 0.000000
0.000000 0.062104 0.000000
0.004883 0.061433 0.000000
0.014038 0.059327 0.000000
0.026429 0.055299 0.000000
0.040284 0.050263 0.000000
0.051698 0.044068 0.000000
0.064302 0.040070 0.000000
0.099123 0.055879 0.000000
0.134340 0.069551 0.000000
0.172488 0.084321 0.000000
0.211276 0.091951 0.000000
0.252781 0.097627 0.000000
0.298405 0.102663 0.000000
0.348760 0.107118 0.000000
0.403265 0.110597 0.000000
0.462440 0.112703 0.000000
0.526268 0.112154 0.000000
0.594202 0.108614 0.000000
0.665461 0.099916 0.000000
0.736965 0.083223 0.000000
0.807095 0.053773 0.000000
0.874510 0.000000 0.000000
0.936492 0.000000 0.000000
0.992737 0.000000 0.000000
1.000000 0.000000 0.000000
1.000000 0.000000 0.000000
1.000000 0.000000 0.000000
1.000000 0.000000 0.000000
1.000000 0.000000 0.000000
1.000000 0.000000 0.000000
1.000000 0.000000 0.000000
1.000000 0.000000 0.000000
0.000000 0.084108 0.000000
0.007141 0.083803 0.000000
0.017090 0.082094 0.000000
0.031464 0.078584 0.000000
0.047944 0.073701 0.000000
0.061891 0.068177 0.000000
0.073396 0.061250 0.000000
0.087251 0.057832 0.000000
0.124605 0.075410 0.000000
0.162844 0.091402 0.000000
0.204593 0.108370 0.000000
0.249271 0.123079 0.000000
0.295109 0.130892 0.000000
0.345190 0.138918 0.000000
0.399969 0.145876 0.000000
0.459144 0.152132 0.000000
0.523003 0.156832 0.000000
0.591424 0.159701 0.000000
0.662593 0.159701 0.000000
0.733700 0.155428 0.000000
0.804044 0.146670 0.000000
0.871458 0.130526 0.000000
0.933532 0.104799 0.000000
0.990173 0.059205 0.000000
1.000000 0.000000 0.000000
1.000000 0.000000 0.000000
1.000000 0.000000 0.000000
1.000000 0.000000 0.000000
1.000000 0.000000 0.000000
1.000000 0.000000 0.000000
1.000000 0.000000 0.000000
1.000000 0.000000 0.000000
0.000824 0.108949 0.000000
0.010498 0.108461 0.000000
0.021942 0.106996 0.000000
0.038361 0.103914 0.000000
0.056611 0.099672 0.000000
0.072206 0.094240 0.000000
0.086213 0.087892 0.000000
0.096223 0.080323 0.000000
0.112551 0.077607 0.000000
0.153231 0.097383 0.000000
0.194491 0.115297 0.000000
0.240482 0.134829 0.000000
0.291264 0.155550 0.000000
0.342138 0.167544 0.000000
0.396948 0.177615 0.000000
0.456214 0.186954 0.000000
0.519951 0.195499 0.000000
0.588342 0.203067 0.000000
0.659480 0.207980 0.000000
0.730343 0.209720 0.000000
0.800504 0.208164 0.000000
0.868101 0.201511 0.000000
0.930510 0.188754 0.000000
0.987182 0.169894 0.000000
1.000000 0.141756 0.000000
1.000000 0.099611 0.000000
1.000000 0.016907 0.000000
1.000000 0.000000 0.000000
1.000000 0.000000 0.000000
1.000000 0.000000 0.000000
1.000000 0.000000 0.000000
1.000000 0.000000 0.000000
0.002991 0.136629 0.000000
0.014588 0.135958 0.000000
0.027253 0.134920 0.000000
0.045777 0.131899 0.000000
0.064759 0.128023 0.000000
0.082826 0.123049 0.000000
0.098604 0.117128 0.000000
0.112123 0.110079 0.000000
0.120943 0.100252 0.000000
0.140505 0.099428 0.000000
0.184543 0.121279 0.000000
0.230259 0.142123 0.000000
0.280644 0.164096 0.000000
0.336034 0.187564 0.000000
0.394110 0.207370 0.000000
0.453376 0.219516 0.000000
0.517357 0.231144 0.000000
0.585687 0.241917 0.000000
0.656214 0.250675 0.000000
0.727016 0.256687 0.000000
0.797147 0.259068 0.000000
0.864958 0.257603 0.000000
0.927398 0.251102 0.000000
0.984131 0.239078 0.000000
1.000000 0.221744 0.000000
1.000000 0.198398 0.000000
1.000000 0.167697 0.000000
1.000000 0.124605 0.000000
1.000000 0.051911 0.000000
1.000000 0.000000 0.000000
1.000000 0.000000 0.000000
1.000000 0.000000 0.000000
0.004761 0.167178 0.000000
0.017670 0.166751 0.000000
0.032837 0.166232 0.000000
0.054200 0.163241 0.000000
0.074342 0.159365 0.000000
0.093324 0.154543 0.000000
0.111147 0.148959 0.000000
0.126986 0.142092 0.000000
0.140963 0.134249 0.000000
0.148836 0.122621 0.000000
0.171603 0.123720 0.000000
0.219547 0.147982 0.000000
0.269841 0.171481 0.000000
0.324620 0.196170 0.000000
0.384924 0.222416 0.000000
0.450690 0.250370 0.000000
0.514549 0.264897 0.000000
0.582757 0.278691 0.000000
0.653193 0.290471 0.000000
0.723659 0.299229 0.000000
0.793698 0.305272 0.000000
0.861631 0.307195 0.000000
0.924071 0.304356 0.000000
0.980896 0.296544 0.000000
1.000000 0.284337 0.000000
1.000000 0.267521 0.000000
1.000000 0.246036 0.000000
1.000000 0.218418 0.000000
1.000000 0.183719 0.000000
1.000000 0.137026 0.000000
1.000000 0.062776 0.000000
1.000000 0.000000 0.000000
0.006287 0.201236 0.000000
0.021302 0.200931 0.000000
0.038972 0.200412 0.000000
0.061830 0.198001 0.000000
0.083986 0.193912 0.000000
0.104891 0.189425 0.000000
0.124300 0.183841 0.000000
0.142092 0.177218 0.000000
0.158389 0.169711 0.000000
0.172457 0.161044 0.000000
0.179110 0.147219 0.000000
0.206058 0.150423 0.000000
0.258244 0.177401 0.000000
0.313695 0.203983 0.000000
0.373175 0.231388 0.000000
0.438361 0.260410 0.000000
0.509056 0.291081 0.000000
0.580499 0.313878 0.000000
0.650355 0.328099 0.000000
0.720638 0.339574 0.000000
0.790494 0.348211 0.000000
0.858274 0.353033 0.000000
0.920745 0.352667 0.000000
0.977386 0.348119 0.000000
1.000000 0.338933 0.000000
1.000000 0.325566 0.000000
1.000000 0.307927 0.000000
1.000000 0.286320 0.000000
1.000000 0.260410 0.000000
1.000000 0.229129 0.000000
1.000000 0.190707 0.000000
1.000000 0.140322 0.000000
0.008698 0.238834 0.000000
0.026337 0.238437 0.000000
0.046265 0.237888 0.000000
0.069734 0.236271 0.000000
0.093660 0.232578 0.000000
0.116701 0.227756 0.000000
0.137881 0.222293 0.000000
0.157778 0.215702 0.000000
0.176272 0.208194 0.000000
0.192599 0.199771 0.000000
0.206912 0.190463 0.000000
0.212070 0.173953 0.000000
0.243931 0.180209 0.000000
0.300908 0.209781 0.000000
0.361547 0.239628 0.000000
0.426001 0.269780 0.000000
0.495888 0.301427 0.000000
0.571221 0.334539 0.000000
0.647517 0.364660 0.000000
0.717342 0.378363 0.000000
0.787320 0.389258 0.000000
0.855039 0.396429 0.000000
0.917266 0.398413 0.000000
0.973938 0.395727 0.000000
1.000000 0.388617 0.000000
1.000000 0.377600 0.000000
1.000000 0.362799 0.000000
1.000000 0.344152 0.000000
1.000000 0.322271 0.000000
1.000000 0.296788 0.000000
1.000000 0.266911 0.000000
1.000000 0.231693 0.000000
0.012604 0.279911 0.000000
0.033326 0.279545 0.000000
0.054108 0.279118 0.000000
0.077852 0.278447 0.000000
0.103883 0.274479 0.000000
0.128298 0.269963 0.000000
0.151858 0.264408 0.000000
0.173709 0.258183 0.000000
0.194400 0.250736 0.000000
0.213413 0.242191 0.000000
0.230198 0.232822 0.000000
0.244724 0.222690 0.000000
0.249058 0.203952 0.000000
0.285954 0.212924 0.000000
0.347539 0.245396 0.000000
0.413458 0.278233 0.000000
0.482948 0.311254 0.000000
0.557733 0.345525 0.000000
0.635279 0.379583 0.000000
0.712642 0.411749 0.000000
0.784726 0.429297 0.000000
0.851957 0.438239 0.000000
0.914000 0.441901 0.000000
0.970520 0.440803 0.000000
1.000000 0.435309 0.000000
1.000000 0.425940 0.000000
1.000000 0.412940 0.000000
1.000000 0.396582 0.000000
1.000000 0.376867 0.000000
1.000000 0.354162 0.000000
1.000000 0.328466 0.000000
1.000000 0.299199 0.000000
0.016938 0.324712 0.000000
0.038788 0.324498 0.000000
0.061860 0.324132 0.000000
0.087068 0.323491 0.000000
0.114290 0.320531 0.000000
0.140261 0.316136 0.000000
0.165499 0.310826 0.000000
0.189975 0.304387 0.000000
0.212955 0.296880 0.000000
0.234195 0.288548 0.000000
0.253666 0.279149 0.000000
0.271061 0.268742 0.000000
0.286046 0.257389 0.000000
0.291112 0.237980 0.000000
0.331518 0.248447 0.000000
0.398199 0.283909 0.000000
0.470192 0.320287 0.000000
0.544182 0.355779 0.000000
0.621454 0.391241 0.000000
0.699428 0.425086 0.000000
0.777890 0.457496 0.000000
0.849088 0.478889 0.000000
0.910643 0.484016 0.000000
0.966827 0.484169 0.000000
1.000000 0.479988 0.000000
1.000000 0.471748 0.000000
1.000000 0.459815 0.000000
1.000000 0.444770 0.000000
1.000000 0.426612 0.000000
1.000000 0.405951 0.000000
1.000000 0.382452 0.000000
1.000000 0.356390 0.000000
0.020264 0.373541 0.000000
0.046967 0.373327 0.000000
0.072541 0.372778 0.000000
0.096956 0.372351 0.000000
0.124025 0.370550 0.000000
0.152407 0.366278 0.000000
0.179812 0.360906 0.000000
0.206668 0.354437 0.000000
0.231815 0.347326 0.000000
0.255406 0.338903 0.000000
0.277470 0.329503 0.000000
0.297612 0.319280 0.000000
0.315526 0.307713 0.000000
0.330999 0.295445 0.000000
0.337133 0.275029 0.000000
0.381537 0.287327 0.000000
0.453040 0.325658 0.000000
0.530266 0.365118 0.000000
0.607416 0.402197 0.000000
0.686183 0.438056 0.000000
0.765896 0.472328 0.000000
0.840696 0.501823 0.000000
0.907347 0.525017 0.000000
0.963256 0.526177 0.000000
1.000000 0.522972 0.000000
1.000000 0.515618 0.000000
1.000000 0.504723 0.000000
1.000000 0.490425 0.000000
1.000000 0.473426 0.000000
1.000000 0.453834 0.000000
1.000000 0.431830 0.000000
1.000000 0.407630 0.000000
0.027100 0.426032 0.000000
0.054231 0.425849 0.000000
0.078187 0.425635 0.000000
0.104982 0.425208 0.000000
0.133089 0.424628 0.000000
0.163882 0.420447 0.000000
0.193881 0.415106 0.000000
0.222812 0.408850 0.000000
0.250767 0.401434 0.000000
0.276982 0.393042 0.000000
0.301488 0.383825 0.000000
0.324376 0.373419 0.000000
0.345006 0.361883 0.000000
0.363561 0.349645 0.000000
0.379522 0.336217 0.000000
0.387030 0.315221 0.000000
0.435004 0.329076 0.000000
0.512108 0.370611 0.000000
0.593652 0.412634 0.000000
0.673426 0.450538 0.000000
0.753750 0.486793 0.000000
0.830472 0.518456 0.000000
0.898558 0.543328 0.000000
0.958404 0.562097 0.000000
1.000000 0.564843 0.000000
1.000000 0.558099 0.000000
1.000000 0.547784 0.000000
1.000000 0.534264 0.000000
1.000000 0.517845 0.000000
1.000000 0.499031 0.000000
1.000000 0.478004 0.000000
1.000000 0.455055 0.000000
0.025208 0.482856 0.000000
0.057435 0.482582 0.000000
0.083406 0.482307 0.000000
0.112581 0.481880 0.000000
0.142702 0.481361 0.000000
0.174716 0.478614 0.000000
0.207584 0.473487 0.000000
0.239017 0.467353 0.000000
0.269657 0.460090 0.000000
0.298436 0.451850 0.000000
0.325963 0.442695 0.000000
0.351629 0.432380 0.000000
0.375341 0.421057 0.000000
0.396948 0.408667 0.000000
0.416266 0.395392 0.000000
0.431952 0.380194 0.000000
0.442420 0.359747 0.000000
0.495033 0.375769 0.000000
0.576837 0.419989 0.000000
0.660761 0.462623 0.000000
0.742184 0.500969 0.000000
0.820157 0.534874 0.000000
0.889616 0.561273 0.000000
0.950713 0.581231 0.000000
1.000000 0.595514 0.000000
1.000000 0.599542 0.000000
1.000000 0.589654 0.000000
1.000000 0.576471 0.000000
1.000000 0.560540 0.000000
1.000000 0.542260 0.000000
1.000000 0.521721 0.000000
1.000000 0.499428 0.000000
0.017334 0.543999 0.000000
0.055390 0.543664 0.000000
0.084810 0.543511 0.000000
0.117403 0.543023 0.000000
0.150088 0.542718 0.000000
0.184237 0.541497 0.000000
0.220188 0.536706 0.000000
0.255070 0.530755 0.000000
0.288273 0.524407 0.000000
0.320531 0.516442 0.000000
0.351232 0.507591 0.000000
0.380133 0.497749 0.000000
0.407263 0.486732 0.000000
0.432349 0.474525 0.000000
0.455207 0.461463 0.000000
0.475685 0.447303 0.000000
0.490211 0.428962 0.000000
0.505058 0.410193 0.000000
0.562524 0.428260 0.000000
0.646448 0.472999 0.000000
0.730648 0.514916 0.000000
0.810147 0.551019 0.000000
0.880705 0.579126 0.000000
0.943023 0.600397 0.000000
0.997314 0.615564 0.000000
1.000000 0.625452 0.000000
1.000000 0.630457 0.000000
1.000000 0.617517 0.000000
1.000000 0.601801 0.000000
1.000000 0.583734 0.000000
1.000000 0.563745 0.000000
1.000000 0.541833 0.000000
0.000000 0.608148 0.000000
0.040803 0.607965 0.000000
0.078187 0.607996 0.000000
0.117006 0.607446 0.000000
0.153750 0.607172 0.000000
0.191226 0.606500 0.000000
0.229862 0.603265 0.000000
0.268254 0.597925 0.000000
0.305272 0.591791 0.000000
0.341009 0.584344 0.000000
0.374975 0.576165 0.000000
0.407660 0.566888 0.000000
0.438544 0.556695 0.000000
0.467597 0.545251 0.000000
0.494575 0.532738 0.000000
0.519219 0.519432 0.000000
0.541527 0.504723 0.000000
0.555535 0.483894 0.000000
0.575219 0.466560 0.000000
0.635126 0.484810 0.000000
0.719509 0.528618 0.000000
0.800076 0.566979 0.000000
0.872007 0.596918 0.000000
0.935454 0.619532 0.000000
0.990509 0.635584 0.000000
1.000000 0.646052 0.000000
1.000000 0.651911 0.000000
1.000000 0.654047 0.000000
1.000000 0.641962 0.000000
1.000000 0.624018 0.000000
1.000000 0.604181 0.000000
1.000000 0.582544 0.000000
0.000000 0.674830 0.000000
0.007752 0.674556 0.000000
0.060609 0.674403 0.000000
0.109529 0.674128 0.000000
0.152804 0.673671 0.000000
0.193606 0.673182 0.000000
0.235264 0.672023 0.000000
0.277806 0.667262 0.000000
0.319036 0.661555 0.000000
0.358495 0.654810 0.000000
0.396124 0.647456 0.000000
0.432563 0.638911 0.000000
0.467292 0.629358 0.000000
0.500114 0.618677 0.000000
0.531395 0.607172 0.000000
0.560601 0.594476 0.000000
0.587549 0.580774 0.000000
0.611933 0.566003 0.000000
0.626001 0.542931 0.000000
0.650019 0.526635 0.000000
0.711543 0.544274 0.000000
0.792538 0.584344 0.000000
0.863828 0.614893 0.000000
0.927764 0.638636 0.000000
0.983795 0.655634 0.000000
1.000000 0.666773 0.000000
1.000000 0.672969 0.000000
1.000000 0.675044 0.000000
1.000000 0.673976 0.000000
1.000000 0.663142 0.000000
1.000000 0.643336 0.000000
1.000000 0.621851 0.000000
0.000000 0.738003 0.000000
0.000000 0.737789 0.000000
0.009888 0.737636 0.000000
0.084657 0.737362 0.000000
0.140414 0.736934 0.000000
0.188815 0.736385 0.000000
0.234501 0.735714 0.000000
0.280003 0.733089 0.000000
0.325566 0.728389 0.000000
0.369329 0.722713 0.000000
0.411200 0.716426 0.000000
0.451575 0.709041 0.000000
0.490333 0.700893 0.000000
0.527581 0.691920 0.000000
0.563531 0.681697 0.000000
0.597406 0.670527 0.000000
0.629206 0.658320 0.000000
0.659022 0.644770 0.000000
0.686244 0.630274 0.000000
0.699855 0.604425 0.000000
0.728481 0.589288 0.000000
0.788022 0.603754 0.000000
0.859525 0.635523 0.000000
0.921324 0.658442 0.000000
0.977020 0.675746 0.000000
1.000000 0.687556 0.000000
1.000000 0.694026 0.000000
1.000000 0.696345 0.000000
1.000000 0.695125 0.000000
1.000000 0.691188 0.000000
1.000000 0.681483 0.000000
1.000000 0.659937 0.000000
0.000000 0.795163 0.000000
0.000000 0.794949 0.000000
0.000000 0.794736 0.000000
0.021485 0.794461 0.000000
0.112276 0.794064 0.000000
0.172305 0.793545 0.000000
0.224613 0.792844 0.000000
0.272740 0.792142 0.000000
0.323400 0.788266 0.000000
0.371130 0.783566 0.000000
0.417029 0.778225 0.000000
0.461250 0.772061 0.000000
0.503929 0.765286 0.000000
0.545129 0.757626 0.000000
0.584955 0.749111 0.000000
0.623346 0.739712 0.000000
0.659846 0.729427 0.000000
0.694850 0.718166 0.000000
0.727932 0.705745 0.000000
0.758663 0.692500 0.000000
0.773159 0.665187 0.000000
0.803616 0.649195 0.000000
0.857481 0.657862 0.000000
0.919249 0.681392 0.000000
0.972107 0.697169 0.000000
1.000000 0.708461 0.000000
1.000000 0.715358 0.000000
1.000000 0.717708 0.000000
1.000000 0.716457 0.000000
1.000000 0.712367 0.000000
1.000000 0.705959 0.000000
1.000000 0.697383 0.000000
0.000000 0.845884 0.000000
0.000000 0.845731 0.000000
0.000000 0.845487 0.000000
0.000000 0.845182 0.000000
0.042542 0.844785 0.000000
0.137972 0.844297 0.000000
0.203128 0.843565 0.000000
0.258000 0.842863 0.000000
0.310491 0.841276 0.000000
0.363684 0.837369 0.000000
0.413703 0.832853 0.000000
0.461646 0.827665 0.000000
0.507774 0.821897 0.000000
0.552636 0.815549 0.000000
0.595880 0.808469 0.000000
0.637903 0.800534 0.000000
0.678462 0.791989 0.000000
0.717678 0.782559 0.000000
0.755306 0.772213 0.000000
0.791226 0.761013 0.000000
0.825162 0.748898 0.000000
0.840116 0.720058 0.000000
0.871275 0.702907 0.000000
0.919097 0.706081 0.000000
0.971679 0.721889 0.000000
1.000000 0.731136 0.000000
1.000000 0.736721 0.000000
1.000000 0.739284 0.000000
1.000000 0.737942 0.000000
1.000000 0.733639 0.000000
1.000000 0.727138 0.000000
1.000000 0.718898 0.000000
0.000000 0.890379 0.000000
0.000000 0.890166 0.000000
0.000000 0.889952 0.000000
0.000000 0.889647 0.000000
0.000000 0.889250 0.000000
0.067231 0.888731 0.000000
0.163790 0.888090 0.000000
0.232029 0.887266 0.000000
0.290196 0.886320 0.000000
0.346380 0.883970 0.000000
0.401160 0.880156 0.000000
0.453010 0.875944 0.000000
0.502708 0.871031 0.000000
0.550408 0.865782 0.000000
0.597040 0.859770 0.000000
0.642023 0.853239 0.000000
0.685847 0.846036 0.000000
0.728603 0.838132 0.000000
0.769863 0.829587 0.000000
0.809812 0.820279 0.000000
0.848295 0.810178 0.000000
0.885039 0.799283 0.000000
0.900084 0.768826 0.000000
0.930785 0.749996 0.000000
0.972656 0.748196 0.000000
1.000000 0.757015 0.000000
1.000000 0.760464 0.000000
1.000000 0.761013 0.000000
1.000000 0.759762 0.000000
1.000000 0.755337 0.000000
1.000000 0.748623 0.000000
1.000000 0.740169 0.000000
0.000000 0.928679 0.000000
0.000000 0.928527 0.000000
0.000000 0.928313 0.000000
0.000000 0.927947 0.000000
0.000000 0.927581 0.000000
0.000000 0.927031 0.000000
0.089387 0.926390 0.000000
0.188296 0.925566 0.000000
0.258091 0.924681 0.000000
0.318700 0.923583 0.000000
0.378637 0.920714 0.000000
0.434974 0.917144 0.000000
0.488380 0.913085 0.000000
0.539422 0.908568 0.000000
0.588891 0.903593 0.000000
0.636866 0.898070 0.000000
0.683467 0.892058 0.000000
0.729030 0.885466 0.000000
0.773312 0.878294 0.000000
0.816312 0.870603 0.000000
0.858274 0.862211 0.000000
0.898955 0.853086 0.000000
0.938048 0.843412 0.000000
0.952728 0.811307 0.000000
0.982086 0.790677 0.000000
1.000000 0.784360 0.000000
1.000000 0.787015 0.000000
1.000000 0.785397 0.000000
1.000000 0.781674 0.000000
1.000000 0.777249 0.000000
1.000000 0.770413 0.000000
1.000000 0.761837 0.000000
0.000000 0.961303 0.000000
0.000000 0.961120 0.000000
0.000000 0.960906 0.000000
0.000000 0.960632 0.000000
0.000000 0.960174 0.000000
0.000000 0.959655 0.000000
0.000000 0.959014 0.000000
0.108858 0.958221 0.000000
0.209201 0.957305 0.000000
0.281834 0.956237 0.000000
0.344854 0.954894 0.000000
0.407202 0.951873 0.000000
0.465003 0.948455 0.000000
0.519738 0.944610 0.000000
0.572259 0.940368 0.000000
0.622889 0.935729 0.000000
0.672023 0.930602 0.000000
0.719936 0.925078 0.000000
0.766781 0.919005 0.000000
0.812497 0.912474 0.000000
0.857115 0.905425 0.000000
0.900633 0.897826 0.000000
0.942931 0.889677 0.000000
0.983856 0.880949 0.000000
0.997650 0.847166 0.000000
1.000000 0.824674 0.000000
1.000000 0.814755 0.000000
1.000000 0.812100 0.000000
1.000000 0.806455 0.000000
1.000000 0.799161 0.000000
1.000000 0.792325 0.000000
1.000000 0.783780 0.000000
0.000000 0.988708 0.000000
0.000000 0.988556 0.000000
0.000000 0.988312 0.000000
0.000000 0.988006 0.000000
0.000000 0.987610 0.000000
0.000000 0.987060 0.000000
0.000000 0.986419 0.000000
0.000000 0.985626 0.000000
0.124605 0.984710 0.000000
0.227573 0.983642 0.000000
0.302129 0.982452 0.000000
0.368292 0.980743 0.000000
0.432471 0.977752 0.000000
0.491554 0.974487 0.000000
0.547295 0.970855 0.000000
0.600885 0.966827 0.000000
0.652613 0.962463 0.000000
0.702846 0.957702 0.000000
0.751766 0.952514 0.000000
0.799496 0.946929 0.000000
