SLOG2/[TTG] Sky Blue_Slog2.cube
# Created by: Adobe Lightroom Export LUT Plugin
LUT_3D_SIZE 32
DOMAIN_MIN 0.0 0.0 0.0
DOMAIN_MAX 1.0 1.0 1.0
0.000000 0.000000 0.000000
0.004486 0.000000 0.000000
0.010986 0.000000 0.000000
0.021912 0.000000 0.000000
0.041596 0.000000 0.000000
0.066041 0.000000 0.000000
0.092287 0.000000 0.000000
0.120302 0.000000 0.000000
0.151003 0.000000 0.000000
0.183902 0.000000 0.000000
0.220523 0.000000 0.000000
0.260349 0.000000 0.000000
0.304753 0.000000 0.000000
0.353033 0.000000 0.000000
0.406043 0.000000 0.000000
0.463233 0.000000 0.000000
0.524987 0.000000 0.000000
0.591272 0.000000 0.000000
0.660945 0.000000 0.000000
0.731136 0.000000 0.000000
0.800687 0.000000 0.000000
0.868223 0.000000 0.000000
0.930327 0.000000 0.000000
0.987243 0.000000 0.000000
1.000000 0.000000 0.000000
1.000000 0.000000 0.000000
1.000000 0.000000 0.000000
1.000000 0.000000 0.000000
1.000000 0.000000 0.000000
1.000000 0.000000 0.000000
1.000000 0.000000 0.000000
1.000000 0.000000 0.000000
0.000397 0.003113 0.000000
0.005158 0.002564 0.000000
0.011414 0.002319 0.000000
0.022797 0.001953 0.000000
0.041901 0.001160 0.000000
0.065888 0.000000 0.000000
0.092012 0.000000 0.000000
0.120180 0.000000 0.000000
0.150607 0.000000 0.000000
0.183841 0.000000 0.000000
0.220096 0.000000 0.000000
0.260472 0.000000 0.000000
0.304601 0.000000 0.000000
0.353094 0.000000 0.000000
0.405829 0.000000 0.000000
0.462928 0.000000 0.000000
0.524804 0.000000 0.000000
0.591058 0.000000 0.000000
0.660914 0.000000 0.000000
0.731044 0.000000 0.000000
0.800626 0.000000 0.000000
0.868070 0.000000 0.000000
0.930205 0.000000 0.000000
0.987182 0.000000 0.000000
1.000000 0.000000 0.000000
1.000000 0.000000 0.000000
1.000000 0.000000 0.000000
1.000000 0.000000 0.000000
1.000000 0.000000 0.000000
1.000000 0.000000 0.000000
1.000000 0.000000 0.000000
1.000000 0.000000 0.000000
0.000214 0.007202 0.000000
0.005005 0.006653 0.000000
0.011231 0.006409 0.000000
0.023133 0.006409 0.000000
0.041688 0.006592 0.000000
0.066072 0.005493 0.000000
0.091859 0.003937 0.000000
0.120058 0.001770 0.000000
0.150301 0.000000 0.000000
0.183597 0.000000 0.000000
0.220005 0.000000 0.000000
0.260166 0.000000 0.000000
0.304387 0.000000 0.000000
0.352758 0.000000 0.000000
0.405646 0.000000 0.000000
0.462837 0.000000 0.000000
0.524743 0.000000 0.000000
0.590875 0.000000 0.000000
0.660670 0.000000 0.000000
0.731014 0.000000 0.000000
0.800381 0.000000 0.000000
0.867735 0.000000 0.000000
0.930083 0.000000 0.000000
0.986877 0.000000 0.000000
1.000000 0.000000 0.000000
1.000000 0.000000 0.000000
1.000000 0.000000 0.000000
1.000000 0.000000 0.000000
1.000000 0.000000 0.000000
1.000000 0.000000 0.000000
1.000000 0.000000 0.000000
1.000000 0.000000 0.000000
0.000214 0.013672 0.000000
0.005493 0.013519 0.000000
0.012024 0.012787 0.000000
0.023133 0.012909 0.000000
0.042664 0.013855 0.000000
0.066194 0.014221 0.000000
0.091920 0.014038 0.000000
0.120058 0.013214 0.000000
0.150210 0.011383 0.000000
0.183413 0.007538 0.000000
0.219883 0.002655 0.000000
0.260044 0.000000 0.000000
0.304173 0.000000 0.000000
0.352483 0.000000 0.000000
0.405554 0.000000 0.000000
0.462715 0.000000 0.000000
0.524529 0.000000 0.000000
0.590936 0.000000 0.000000
0.660822 0.000000 0.000000
0.730800 0.000000 0.000000
0.800229 0.000000 0.000000
0.867521 0.000000 0.000000
0.929717 0.000000 0.000000
0.986542 0.000000 0.000000
1.000000 0.000000 0.000000
1.000000 0.000000 0.000000
1.000000 0.000000 0.000000
1.000000 0.000000 0.000000
1.000000 0.000000 0.000000
1.000000 0.000000 0.000000
1.000000 0.000000 0.000000
1.000000 0.000000 0.000000
0.000031 0.024018 0.000000
0.005615 0.023407 0.000000
0.012970 0.022583 0.000000
0.023011 0.021912 0.000000
0.040742 0.023529 0.000000
0.066041 0.025940 0.000000
0.091890 0.027985 0.000000
0.119692 0.028595 0.000000
0.149966 0.029053 0.000000
0.183169 0.028016 0.000000
0.219425 0.026459 0.000000
0.259770 0.023163 0.000000
0.304021 0.017639 0.000000
0.352483 0.008667 0.000000
0.405188 0.000000 0.000000
0.462654 0.000000 0.000000
0.524651 0.000000 0.000000
0.591058 0.000000 0.000000
0.660639 0.000000 0.000000
0.730678 0.000000 0.000000
0.800168 0.000000 0.000000
0.867155 0.000000 0.000000
0.929412 0.000000 0.000000
0.986389 0.000000 0.000000
1.000000 0.000000 0.000000
1.000000 0.000000 0.000000
1.000000 0.000000 0.000000
1.000000 0.000000 0.000000
1.000000 0.000000 0.000000
1.000000 0.000000 0.000000
1.000000 0.000000 0.000000
1.000000 0.000000 0.000000
0.000977 0.038911 0.000000
0.007385 0.038209 0.000000
0.015503 0.037324 0.000000
0.026368 0.036530 0.000000
0.040497 0.035370 0.000000
0.063722 0.039033 0.000000
0.091615 0.045014 0.000000
0.119448 0.048066 0.000000
0.149447 0.050904 0.000000
0.182925 0.053376 0.000000
0.219242 0.055055 0.000000
0.259556 0.056031 0.000000
0.303777 0.055940 0.000000
0.352544 0.053315 0.000000
0.405524 0.048157 0.000000
0.462806 0.038605 0.000000
0.524926 0.021118 0.000000
0.591302 0.000000 0.000000
0.660975 0.000000 0.000000
0.730922 0.000000 0.000000
0.800107 0.000000 0.000000
0.867155 0.000000 0.000000
0.929168 0.000000 0.000000
0.985931 0.000000 0.000000
1.000000 0.000000 0.000000
1.000000 0.000000 0.000000
1.000000 0.000000 0.000000
1.000000 0.000000 0.000000
1.000000 0.000000 0.000000
1.000000 0.000000 0.000000
1.000000 0.000000 0.000000
1.000000 0.000000 0.000000
0.003632 0.058076 0.000000
0.010101 0.057496 0.000000
0.019074 0.056733 0.000000
0.030701 0.056031 0.000000
0.046113 0.054994 0.000000
0.062837 0.053437 0.000000
0.088441 0.059602 0.000000
0.119783 0.066773 0.000000
0.149752 0.071504 0.000000
0.182925 0.076081 0.000000
0.219425 0.080385 0.000000
0.259892 0.084535 0.000000
0.304082 0.088075 0.000000
0.352880 0.090517 0.000000
0.405921 0.091829 0.000000
0.463478 0.091218 0.000000
0.525719 0.087129 0.000000
0.592004 0.079530 0.000000
0.661402 0.065034 0.000000
0.731228 0.036774 0.000000
0.800229 0.000000 0.000000
0.867033 0.000000 0.000000
0.929015 0.000000 0.000000
0.985504 0.000000 0.000000
1.000000 0.000000 0.000000
1.000000 0.000000 0.000000
1.000000 0.000000 0.000000
1.000000 0.000000 0.000000
1.000000 0.000000 0.000000
1.000000 0.000000 0.000000
1.000000 0.000000 0.000000
1.000000 0.000000 0.000000
0.005585 0.079835 0.000000
0.013733 0.079286 0.000000
0.022980 0.078920 0.000000
0.037507 0.077913 0.000000
0.053773 0.077211 0.000000
0.070771 0.075898 0.000000
0.087709 0.074220 0.000000
0.116854 0.082368 0.000000
0.150698 0.091310 0.000000
0.183932 0.097627 0.000000
0.220493 0.103883 0.000000
0.260624 0.110262 0.000000
0.304997 0.116518 0.000000
0.353735 0.122133 0.000000
0.406897 0.127077 0.000000
0.464546 0.130983 0.000000
0.526665 0.133181 0.000000
0.593164 0.133242 0.000000
0.662470 0.130251 0.000000
0.731807 0.122255 0.000000
0.800626 0.107912 0.000000
0.867185 0.084199 0.000000
0.928923 0.038697 0.000000
0.985290 0.000000 0.000000
1.000000 0.000000 0.000000
1.000000 0.000000 0.000000
1.000000 0.000000 0.000000
1.000000 0.000000 0.000000
1.000000 0.000000 0.000000
1.000000 0.000000 0.000000
1.000000 0.000000 0.000000
1.000000 0.000000 0.000000
0.008484 0.104219 0.000000
0.017884 0.103914 0.000000
0.028840 0.103548 0.000000
0.044709 0.102693 0.000000
0.062043 0.101961 0.000000
0.080018 0.100710 0.000000
0.097810 0.099611 0.000000
0.116213 0.098085 0.000000
0.149020 0.108125 0.000000
0.185977 0.118685 0.000000
0.222171 0.126528 0.000000
0.262394 0.134829 0.000000
0.306828 0.143191 0.000000
0.355566 0.151278 0.000000
0.408698 0.158816 0.000000
0.466346 0.165896 0.000000
0.528527 0.171939 0.000000
0.594965 0.176699 0.000000
0.664027 0.178866 0.000000
0.732967 0.177981 0.000000
0.801572 0.172641 0.000000
0.867643 0.162936 0.000000
0.928893 0.145785 0.000000
0.985077 0.120455 0.000000
1.000000 0.079652 0.000000
1.000000 0.000000 0.000000
1.000000 0.000000 0.000000
1.000000 0.000000 0.000000
1.000000 0.000000 0.000000
1.000000 0.000000 0.000000
1.000000 0.000000 0.000000
1.000000 0.000000 0.000000
0.012116 0.131441 0.000000
0.023255 0.130953 0.000000
0.035859 0.130587 0.000000
0.052705 0.129946 0.000000
0.071290 0.129183 0.000000
0.090211 0.128145 0.000000
0.109041 0.127016 0.000000
0.128145 0.125551 0.000000
0.148989 0.125521 0.000000
0.184756 0.136629 0.000000
0.224887 0.149020 0.000000
0.265660 0.158785 0.000000
0.309941 0.168856 0.000000
0.358373 0.178897 0.000000
0.411261 0.189212 0.000000
0.468971 0.198734 0.000000
0.531060 0.207675 0.000000
0.597223 0.215732 0.000000
0.665949 0.221683 0.000000
0.734493 0.224765 0.000000
0.802365 0.224430 0.000000
0.868345 0.220310 0.000000
0.929290 0.210971 0.000000
0.984985 0.196139 0.000000
1.000000 0.175296 0.000000
1.000000 0.146242 0.000000
1.000000 0.104280 0.000000
1.000000 0.025422 0.000000
1.000000 0.000000 0.000000
1.000000 0.000000 0.000000
1.000000 0.000000 0.000000
1.000000 0.000000 0.000000
0.017029 0.161318 0.000000
0.029480 0.161013 0.000000
0.044556 0.160464 0.000000
0.062318 0.160128 0.000000
0.081117 0.159396 0.000000
0.100404 0.158450 0.000000
0.121004 0.157382 0.000000
0.141360 0.156069 0.000000
0.161593 0.154421 0.000000
0.185611 0.155856 0.000000
0.224735 0.168643 0.000000
0.268925 0.182498 0.000000
0.313848 0.194675 0.000000
0.362524 0.206332 0.000000
0.415290 0.218296 0.000000
0.472328 0.230289 0.000000
0.534417 0.241917 0.000000
0.600671 0.252659 0.000000
0.668482 0.261265 0.000000
0.736507 0.267308 0.000000
0.804013 0.270237 0.000000
0.869535 0.269780 0.000000
0.929870 0.264530 0.000000
0.985168 0.254490 0.000000
1.000000 0.239994 0.000000
1.000000 0.220768 0.000000
1.000000 0.195560 0.000000
1.000000 0.162844 0.000000
1.000000 0.117372 0.000000
1.000000 0.036866 0.000000
1.000000 0.000000 0.000000
1.000000 0.000000 0.000000
0.023529 0.194583 0.000000
0.038025 0.194186 0.000000
0.053712 0.193790 0.000000
0.072114 0.193301 0.000000
0.091768 0.192569 0.000000
0.112459 0.191775 0.000000
0.133822 0.190616 0.000000
0.154971 0.189425 0.000000
0.176852 0.188022 0.000000
0.198642 0.186313 0.000000
0.226444 0.189700 0.000000
0.269108 0.204227 0.000000
0.317357 0.220096 0.000000
0.367437 0.234257 0.000000
0.420203 0.247745 0.000000
0.477180 0.261601 0.000000
0.538598 0.275395 0.000000
0.604547 0.288365 0.000000
0.671656 0.299138 0.000000
0.739040 0.307469 0.000000
0.806394 0.312932 0.000000
0.870939 0.315007 0.000000
0.930785 0.312383 0.000000
0.985382 0.305516 0.000000
1.000000 0.294591 0.000000
1.000000 0.279515 0.000000
1.000000 0.260349 0.000000
1.000000 0.236210 0.000000
1.000000 0.206729 0.000000
1.000000 0.169894 0.000000
1.000000 0.119478 0.000000
1.000000 0.028199 0.000000
0.031250 0.230869 0.000000
0.048554 0.230625 0.000000
0.064210 0.230259 0.000000
0.082551 0.229770 0.000000
0.103426 0.229129 0.000000
0.124910 0.228336 0.000000
0.147280 0.227176 0.000000
0.170230 0.226017 0.000000
0.193057 0.224765 0.000000
0.216312 0.223117 0.000000
0.239353 0.221347 0.000000
0.271244 0.227024 0.000000
0.318364 0.243503 0.000000
0.371191 0.261357 0.000000
0.425666 0.277714 0.000000
0.482795 0.293095 0.000000
0.543847 0.308385 0.000000
0.608972 0.323491 0.000000
0.675380 0.336126 0.000000
0.742184 0.346227 0.000000
0.808957 0.353735 0.000000
0.872709 0.357702 0.000000
0.931853 0.356909 0.000000
0.985809 0.352178 0.000000
1.000000 0.343511 0.000000
1.000000 0.330999 0.000000
1.000000 0.315007 0.000000
1.000000 0.295140 0.000000
1.000000 0.271489 0.000000
1.000000 0.243412 0.000000
1.000000 0.210025 0.000000
1.000000 0.168826 0.000000
0.041413 0.270726 0.000000
0.059510 0.270481 0.000000
0.075380 0.270085 0.000000
0.094179 0.269780 0.000000
0.116243 0.268925 0.000000
0.138766 0.268254 0.000000
0.162051 0.267277 0.000000
0.185824 0.266178 0.000000
0.210391 0.264836 0.000000
0.234867 0.263249 0.000000
0.259556 0.261570 0.000000
0.284154 0.259678 0.000000
0.320989 0.268223 0.000000
0.372595 0.286809 0.000000
0.429572 0.306493 0.000000
0.489021 0.325170 0.000000
0.550256 0.342107 0.000000
0.614496 0.358282 0.000000
0.679988 0.372503 0.000000
0.745876 0.384192 0.000000
0.812314 0.393500 0.000000
0.875029 0.398779 0.000000
0.933165 0.399542 0.000000
0.986450 0.396063 0.000000
1.000000 0.388891 0.000000
1.000000 0.378149 0.000000
1.000000 0.364019 0.000000
1.000000 0.346654 0.000000
1.000000 0.325994 0.000000
1.000000 0.302251 0.000000
1.000000 0.275029 0.000000
1.000000 0.243198 0.000000
0.054414 0.314061 0.000000
0.070893 0.313878 0.000000
0.087526 0.313420 0.000000
0.107454 0.313054 0.000000
0.129274 0.312596 0.000000
0.152651 0.311833 0.000000
0.177523 0.310948 0.000000
0.202762 0.309728 0.000000
0.228702 0.308476 0.000000
0.254551 0.307042 0.000000
0.280583 0.305394 0.000000
0.306828 0.303502 0.000000
0.332921 0.301518 0.000000
0.375402 0.313268 0.000000
0.431220 0.333776 0.000000
0.492927 0.355505 0.000000
0.557336 0.376318 0.000000
0.620813 0.393530 0.000000
0.684932 0.408820 0.000000
0.750332 0.421881 0.000000
0.816068 0.432532 0.000000
0.877806 0.438727 0.000000
0.934874 0.440528 0.000000
0.987182 0.438270 0.000000
1.000000 0.432013 0.000000
1.000000 0.422431 0.000000
1.000000 0.409400 0.000000
1.000000 0.393713 0.000000
1.000000 0.374853 0.000000
1.000000 0.353521 0.000000
1.000000 0.329229 0.000000
1.000000 0.302098 0.000000
0.067689 0.361212 0.000000
0.084565 0.361120 0.000000
0.101076 0.360571 0.000000
0.120790 0.360235 0.000000
0.143893 0.359686 0.000000
0.168429 0.358831 0.000000
0.194064 0.358099 0.000000
0.220798 0.357031 0.000000
0.247776 0.355749 0.000000
0.275212 0.354345 0.000000
0.302739 0.352728 0.000000
0.330632 0.350896 0.000000
0.358343 0.348882 0.000000
0.386084 0.346563 0.000000
0.434760 0.362249 0.000000
0.495064 0.384680 0.000000
0.560754 0.408179 0.000000
0.627283 0.429053 0.000000
0.690639 0.445197 0.000000
0.755612 0.459663 0.000000
0.820188 0.471229 0.000000
0.880674 0.478065 0.000000
0.936767 0.480598 0.000000
0.987976 0.478981 0.000000
1.000000 0.473335 0.000000
1.000000 0.464576 0.000000
1.000000 0.452491 0.000000
1.000000 0.437659 0.000000
1.000000 0.420081 0.000000
1.000000 0.400153 0.000000
1.000000 0.377752 0.000000
1.000000 0.353063 0.000000
0.081636 0.411994 0.000000
0.099123 0.411749 0.000000
0.114778 0.411536 0.000000
0.135836 0.411170 0.000000
0.159213 0.410498 0.000000
0.184695 0.409766 0.000000
0.211765 0.408820 0.000000
0.239506 0.407904 0.000000
0.268009 0.406653 0.000000
0.296727 0.405371 0.000000
0.325963 0.403723 0.000000
0.355230 0.401953 0.000000
0.384680 0.400000 0.000000
0.414160 0.397864 0.000000
0.443488 0.395544 0.000000
0.498817 0.414984 0.000000
0.562982 0.439033 0.000000
0.629877 0.461952 0.000000
0.697108 0.482063 0.000000
0.761563 0.497780 0.000000
0.824674 0.509758 0.000000
0.883970 0.516960 0.000000
0.938750 0.519860 0.000000
0.989044 0.518639 0.000000
1.000000 0.513664 0.000000
1.000000 0.505241 0.000000
1.000000 0.493690 0.000000
1.000000 0.479438 0.000000
1.000000 0.462684 0.000000
1.000000 0.443580 0.000000
1.000000 0.422522 0.000000
1.000000 0.399420 0.000000
0.097261 0.466346 0.000000
0.113741 0.466194 0.000000
0.130190 0.465949 0.000000
0.151125 0.465522 0.000000
0.175692 0.465034 0.000000
0.201999 0.464332 0.000000
0.230137 0.463569 0.000000
0.259098 0.462623 0.000000
0.289189 0.461433 0.000000
0.319432 0.460151 0.000000
0.350256 0.458747 0.000000
0.381323 0.457160 0.000000
0.412421 0.455207 0.000000
0.443763 0.453407 0.000000
0.475196 0.451240 0.000000
0.506401 0.448920 0.000000
0.568475 0.472358 0.000000
0.633845 0.495735 0.000000
0.701076 0.517388 0.000000
0.768154 0.536156 0.000000
0.829557 0.548211 0.000000
0.887358 0.555657 0.000000
0.940856 0.558679 0.000000
0.990112 0.557641 0.000000
1.000000 0.552880 0.000000
1.000000 0.544610 0.000000
1.000000 0.533410 0.000000
1.000000 0.519554 0.000000
1.000000 0.503258 0.000000
1.000000 0.484810 0.000000
1.000000 0.464424 0.000000
1.000000 0.442206 0.000000
0.113649 0.525841 0.000000
0.130007 0.525566 0.000000
0.147158 0.525383 0.000000
0.168276 0.524895 0.000000
0.193790 0.524376 0.000000
0.220584 0.523827 0.000000
0.250034 0.523125 0.000000
0.280430 0.522118 0.000000
0.311772 0.521263 0.000000
0.343816 0.520073 0.000000
0.376287 0.518730 0.000000
0.409033 0.517327 0.000000
0.442084 0.515618 0.000000
0.475257 0.513695 0.000000
0.508537 0.511742 0.000000
0.541985 0.509728 0.000000
0.577264 0.509148 0.000000
0.641657 0.532708 0.000000
0.707851 0.554742 0.000000
0.773037 0.573571 0.000000
0.834684 0.586755 0.000000
0.890990 0.594018 0.000000
0.943206 0.597070 0.000000
0.991058 0.596002 0.000000
1.000000 0.591241 0.000000
1.000000 0.583001 0.000000
1.000000 0.571954 0.000000
1.000000 0.558221 0.000000
1.000000 0.542138 0.000000
1.000000 0.524193 0.000000
1.000000 0.504234 0.000000
1.000000 0.482673 0.000000
0.130892 0.588312 0.000000
0.147585 0.588128 0.000000
0.164492 0.587884 0.000000
0.186587 0.587427 0.000000
0.211856 0.587060 0.000000
0.239994 0.586542 0.000000
0.270481 0.585901 0.000000
0.302190 0.584955 0.000000
0.334844 0.584161 0.000000
0.368505 0.582940 0.000000
0.402411 0.581903 0.000000
0.437110 0.580407 0.000000
0.471870 0.578882 0.000000
0.506859 0.577050 0.000000
0.542046 0.575280 0.000000
0.577295 0.573297 0.000000
0.612726 0.571130 0.000000
0.653193 0.573266 0.000000
0.717922 0.595270 0.000000
0.780911 0.613214 0.000000
0.840238 0.625605 0.000000
0.894743 0.632502 0.000000
0.945434 0.635096 0.000000
0.992096 0.633845 0.000000
1.000000 0.628870 0.000000
1.000000 0.620691 0.000000
1.000000 0.609461 0.000000
1.000000 0.595880 0.000000
1.000000 0.579950 0.000000
1.000000 0.562005 0.000000
1.000000 0.542351 0.000000
1.000000 0.521111 0.000000
0.149447 0.653254 0.000000
0.165164 0.653162 0.000000
0.182345 0.652979 0.000000
0.204990 0.652644 0.000000
0.230716 0.652186 0.000000
0.259525 0.651698 0.000000
0.290898 0.650996 0.000000
0.323796 0.650263 0.000000
0.357977 0.649409 0.000000
0.392981 0.648280 0.000000
0.428626 0.647181 0.000000
0.464637 0.645960 0.000000
0.500938 0.644434 0.000000
0.537804 0.642817 0.000000
0.574701 0.641108 0.000000
0.611994 0.639185 0.000000
0.649226 0.637171 0.000000
0.686519 0.635065 0.000000
0.730770 0.638819 0.000000
0.791379 0.655268 0.000000
0.848051 0.666224 0.000000
0.900359 0.672023 0.000000
0.947997 0.673182 0.000000
0.992950 0.671168 0.000000
1.000000 0.665949 0.000000
1.000000 0.657527 0.000000
1.000000 0.646204 0.000000
1.000000 0.632380 0.000000
1.000000 0.616388 0.000000
1.000000 0.598535 0.000000
1.000000 0.579034 0.000000
1.000000 0.558068 0.000000
0.166812 0.716976 0.000000
0.182773 0.716762 0.000000
0.199802 0.716609 0.000000
0.221378 0.716304 0.000000
0.248753 0.715785 0.000000
0.277867 0.715389 0.000000
0.310063 0.714748 0.000000
0.343633 0.713893 0.000000
0.378759 0.713039 0.000000
0.414710 0.712001 0.000000
0.451423 0.710750 0.000000
0.488838 0.709346 0.000000
0.526421 0.707942 0.000000
0.564508 0.706294 0.000000
0.602899 0.704555 0.000000
0.641413 0.702510 0.000000
0.679927 0.700435 0.000000
0.718624 0.698146 0.000000
0.757565 0.695979 0.000000
0.803586 0.699580 0.000000
0.857694 0.708827 0.000000
0.907591 0.713069 0.000000
0.953216 0.712917 0.000000
0.994537 0.708736 0.000000
1.000000 0.702480 0.000000
1.000000 0.693660 0.000000
1.000000 0.682063 0.000000
1.000000 0.668055 0.000000
1.000000 0.651942 0.000000
1.000000 0.634028 0.000000
1.000000 0.614527 0.000000
1.000000 0.593652 0.000000
0.182254 0.774868 0.000000
0.198093 0.774563 0.000000
0.215122 0.774350 0.000000
0.237278 0.774075 0.000000
0.263523 0.773678 0.000000
0.292821 0.773129 0.000000
0.325505 0.772427 0.000000
0.359319 0.771633 0.000000
0.395331 0.770748 0.000000
0.431739 0.769680 0.000000
0.469398 0.768429 0.000000
0.507530 0.767056 0.000000
0.546014 0.765621 0.000000
0.585016 0.763943 0.000000
0.624170 0.762112 0.000000
0.663661 0.760098 0.000000
0.703120 0.757961 0.000000
0.742702 0.756039 0.000000
0.782712 0.753872 0.000000
0.823148 0.751675 0.000000
0.868437 0.753140 0.000000
0.915984 0.755520 0.000000
0.959442 0.753628 0.000000
0.998932 0.748074 0.000000
1.000000 0.739437 0.000000
1.000000 0.729244 0.000000
1.000000 0.717311 0.000000
1.000000 0.702907 0.000000
1.000000 0.686671 0.000000
1.000000 0.668605 0.000000
1.000000 0.649012 0.000000
1.000000 0.628290 0.000000
0.196445 0.826413 0.000000
0.211673 0.826261 0.000000
0.228611 0.825956 0.000000
0.249821 0.825681 0.000000
0.275517 0.825284 0.000000
0.305211 0.824735 0.000000
0.337652 0.824002 0.000000
0.371527 0.823331 0.000000
0.407568 0.822324 0.000000
0.444678 0.821195 0.000000
0.482643 0.819944 0.000000
0.520897 0.818662 0.000000
0.560113 0.817075 0.000000
0.599481 0.815366 0.000000
0.638972 0.813626 0.000000
0.678340 0.811978 0.000000
0.718196 0.810056 0.000000
0.758694 0.808042 0.000000
0.799283 0.805783 0.000000
0.840452 0.803372 0.000000
0.881865 0.800778 0.000000
0.925017 0.799161 0.000000
0.966400 0.795285 0.000000
1.000000 0.788083 0.000000
1.000000 0.777951 0.000000
1.000000 0.765408 0.000000
1.000000 0.751736 0.000000
1.000000 0.737087 0.000000
1.000000 0.720546 0.000000
1.000000 0.702296 0.000000
1.000000 0.682734 0.000000
1.000000 0.662196 0.000000
0.208316 0.871794 0.000000
0.223789 0.871550 0.000000
0.239231 0.871366 0.000000
0.259739 0.871092 0.000000
0.285466 0.870634 0.000000
0.314549 0.870176 0.000000
0.346471 0.869444 0.000000
0.380926 0.868620 0.000000
0.416480 0.867704 0.000000
0.453407 0.866636 0.000000
0.491310 0.865385 0.000000
0.528710 0.864225 0.000000
0.566949 0.862882 0.000000
0.605982 0.861448 0.000000
0.645441 0.859831 0.000000
0.685451 0.857969 0.000000
0.725856 0.856077 0.000000
0.766842 0.853910 0.000000
0.807950 0.851621 0.000000
0.849577 0.849027 0.000000
0.891478 0.846250 0.000000
0.933532 0.843320 0.000000
0.973449 0.837797 0.000000
1.000000 0.828702 0.000000
1.000000 0.816861 0.000000
1.000000 0.802792 0.000000
1.000000 0.787045 0.000000
1.000000 0.770626 0.000000
1.000000 0.753719 0.000000
1.000000 0.735317 0.000000
1.000000 0.715785 0.000000
1.000000 0.695338 0.000000
0.214481 0.911284 0.000000
0.228122 0.911131 0.000000
0.243503 0.910918 0.000000
0.263279 0.910643 0.000000
0.287419 0.910307 0.000000
0.315587 0.909819 0.000000
0.346319 0.909239 0.000000
0.379583 0.908537 0.000000
0.414374 0.907774 0.000000
0.450507 0.906828 0.000000
0.488045 0.905730 0.000000
0.526390 0.904509 0.000000
0.565362 0.903166 0.000000
0.604974 0.901640 0.000000
0.645136 0.899962 0.000000
0.685817 0.898070 0.000000
0.726711 0.896056 0.000000
0.767971 0.893858 0.000000
0.809628 0.891417 0.000000
0.851408 0.888792 0.000000
0.893523 0.885954 0.000000
0.935912 0.882872 0.000000
0.978515 0.879545 0.000000
1.000000 0.869718 0.000000
1.000000 0.856077 0.000000
1.000000 0.840452 0.000000
1.000000 0.823209 0.000000
1.000000 0.804776 0.000000
1.000000 0.786130 0.000000
1.000000 0.767544 0.000000
1.000000 0.747951 0.000000
1.000000 0.727657 0.000000
0.184817 0.946014 0.000000
0.200626 0.945830 0.000000
0.218173 0.945647 0.000000
0.240299 0.945403 0.000000
0.267033 0.945037 0.000000
0.297704 0.944518 0.000000
0.330297 0.943969 0.000000
0.365484 0.943206 0.000000
0.401923 0.942382 0.000000
0.439704 0.941405 0.000000
0.478370 0.940276 0.000000
0.517388 0.939055 0.000000
0.557427 0.937621 0.000000
0.597772 0.936065 0.000000
0.638453 0.934325 0.000000
0.679561 0.932433 0.000000
0.721004 0.930327 0.000000
0.762692 0.928038 0.000000
0.804562 0.925536 0.000000
0.846647 0.922850 0.000000
0.889006 0.919921 0.000000
0.931426 0.916808 0.000000
0.974151 0.913390 0.000000
1.000000 0.909758 0.000000
1.000000 0.895323 0.000000
1.000000 0.877867 0.000000
1.000000 0.859129 0.000000
1.000000 0.839384 0.000000
1.000000 0.819059 0.000000
1.000000 0.798734 0.000000
1.000000 0.778988 0.000000
1.000000 0.758816 0.000000
0.133272 0.975250 0.000000
0.154360 0.975128 0.000000
0.176120 0.974945 0.000000
0.203372 0.974640 0.000000
0.235294 0.974243 0.000000
0.269139 0.973785 0.000000
0.305577 0.973175 0.000000
0.343481 0.972442 0.000000
0.382238 0.971588 0.000000
0.421668 0.970581 0.000000
0.461677 0.969482 0.000000
0.502373 0.968170 0.000000
0.543206 0.966735 0.000000
0.584436 0.965148 0.000000
0.625910 0.963378 0.000000
0.667659 0.961395 0.000000
0.709529 0.959258 0.000000
0.751522 0.956939 0.000000
0.793668 0.954437 0.000000
0.836027 0.951659 0.000000
