SLOG2/[TTG] Sky Blue_Slog2.cube
# Created by: Adobe Lightroom Export LUT Plugin
LUT_3D_SIZE 8
DOMAIN_MIN 0.000000 0.000000 0.000000
DOMAIN_MAX 0.903226 0.903226 0.903226
0.000000 0.000000 0.000000
0.041596 0.000000 0.000000
0.151003 0.000000 0.000000
0.304753 0.000000 0.000000
0.524987 0.000000 0.000000
0.800687 0.000000 0.000000
1.000000 0.000000 0.000000
1.000000 0.000000 0.000000
0.000031 0.024018 0.000000
0.040742 0.023529 0.000000
0.149966 0.029053 0.000000
0.304021 0.017639 0.000000
0.524651 0.000000 0.000000
0.800168 0.000000 0.000000
1.000000 0.000000 0.000000
1.000000 0.000000 0.000000
0.008484 0.104219 0.000000
0.062043 0.101961 0.000000
0.149020 0.108125 0.000000
0.306828 0.143191 0.000000
0.528527 0.171939 0.000000
0.801572 0.172641 0.000000
1.000000 0.079652 0.000000
1.000000 0.000000 0.000000
0.031250 0.230869 0.000000
0.103426 0.229129 0.000000
0.193057 0.224765 0.000000
0.318364 0.243503 0.000000
0.543847 0.308385 0.000000
0.808957 0.353735 0.000000
1.000000 0.343511 0.000000
1.000000 0.271489 0.000000
0.081636 0.411994 0.000000
0.159213 0.410498 0.000000
0.268009 0.406653 0.000000
0.384680 0.400000 0.000000
0.562982 0.439033 0.000000
0.824674 0.509758 0.000000
1.000000 0.513664 0.000000
1.000000 0.462684 0.000000
0.149447 0.653254 0.000000
0.230716 0.652186 0.000000
0.357977 0.649409 0.000000
0.500938 0.644434 0.000000
0.649226 0.637171 0.000000
0.848051 0.666224 0.000000
1.000000 0.665949 0.000000
1.000000 0.616388 0.000000
0.208316 0.871794 0.000000
0.285466 0.870634 0.000000
0.416480 0.867704 0.000000
0.566949 0.862882 0.000000
0.725856 0.856077 0.000000
0.891478 0.846250 0.000000
1.000000 0.816861 0.000000
1.000000 0.753719 0.000000
0.000000 0.999634 0.000000
0.185061 0.998596 0.000000
0.354314 0.995850 0.000000
0.523278 0.990967 0.000000
0.692775 0.983429 0.000000
0.862821 0.972808 0.000000
1.000000 0.958190 0.000000
1.000000 0.882780 0.000000
0.000000 0.011536 0.040650
0.032837 0.000000 0.038270
0.144381 0.000000 0.041474
0.302129 0.000000 0.025360
0.523888 0.000000 0.000000
0.798581 0.000000 0.000000
1.000000 0.000000 0.000000
1.000000 0.000000 0.000000
0.000000 0.035309 0.031952
0.030335 0.027680 0.027955
0.147066 0.013001 0.019013
0.305760 0.000000 0.001343
0.526696 0.000000 0.000000
0.800381 0.000000 0.000000
1.000000 0.000000 0.000000
1.000000 0.000000 0.000000
0.000000 0.118898 0.002045
0.029725 0.115908 0.000000
0.153780 0.114137 0.000000
0.313268 0.132082 0.000000
0.535210 0.148470 0.000000
0.805356 0.141299 0.000000
1.000000 0.057252 0.000000
1.000000 0.000000 0.000000
0.000000 0.246769 0.000000
0.049805 0.244694 0.000000
0.189181 0.239719 0.000000
0.327520 0.250828 0.000000
0.552758 0.303777 0.000000
0.815427 0.342565 0.000000
1.000000 0.337713 0.000000
1.000000 0.289616 0.000000
0.000000 0.427863 0.000000
0.095094 0.426215 0.000000
0.251041 0.422126 0.000000
0.388769 0.414954 0.000000
0.572290 0.446204 0.000000
0.830930 0.507805 0.000000
1.000000 0.512505 0.000000
1.000000 0.469795 0.000000
0.000000 0.666529 0.000000
0.159213 0.665309 0.000000
0.329503 0.662287 0.000000
0.492988 0.656886 0.000000
0.653895 0.648890 0.000000
0.852293 0.670069 0.000000
1.000000 0.667994 0.000000
1.000000 0.619898 0.000000
0.066499 0.877958 0.000000
0.213352 0.876738 0.000000
0.379919 0.873594 0.000000
0.550713 0.868040 0.000000
0.721370 0.859709 0.000000
0.890532 0.848417 0.000000
1.000000 0.819089 0.000000
1.000000 0.755703 0.000000
0.000000 1.000000 0.000000
0.161410 0.999512 0.000000
0.343359 0.996765 0.000000
0.516655 0.991852 0.000000
0.688289 0.984283 0.000000
0.859709 0.973602 0.000000
1.000000 0.958892 0.000000
1.000000 0.884031 0.000000
0.000000 0.067720 0.154665
0.000000 0.016785 0.157198
0.136355 0.000000 0.148592
0.290440 0.000000 0.161532
0.518822 0.000000 0.182956
0.804410 0.000000 0.166049
1.000000 0.000000 0.000000
1.000000 0.000000 0.000000
0.000000 0.092287 0.147524
0.000000 0.071870 0.147738
0.133486 0.008942 0.142519
0.298894 0.000000 0.148440
0.528954 0.000000 0.150362
0.813779 0.000000 0.085084
1.000000 0.000000 0.000000
1.000000 0.000000 0.000000
0.000000 0.142763 0.134646
0.000000 0.139010 0.132021
0.125002 0.119356 0.119326
0.310826 0.088838 0.101778
0.544701 0.000000 0.060365
0.819913 0.000000 0.000000
1.000000 0.000000 0.000000
1.000000 0.000000 0.000000
0.000000 0.270268 0.103548
0.000000 0.270146 0.066682
0.115694 0.263920 0.023560
0.331456 0.258244 0.000000
0.560052 0.279454 0.000000
0.828916 0.290501 0.000000
1.000000 0.260319 0.000000
1.000000 0.188754 0.000000
0.000000 0.459297 0.000000
0.000000 0.457313 0.000000
0.138552 0.452247 0.000000
0.377447 0.443244 0.000000
0.585077 0.457038 0.000000
0.842832 0.495155 0.000000
1.000000 0.485145 0.000000
1.000000 0.438544 0.000000
0.000000 0.694484 0.000000
0.000000 0.693050 0.000000
0.188602 0.689265 0.000000
0.452796 0.682643 0.000000
0.654353 0.672602 0.000000
0.861906 0.677394 0.000000
1.000000 0.660304 0.000000
1.000000 0.611383 0.000000
0.000000 0.892363 0.000000
0.000000 0.890898 0.000000
0.229282 0.887358 0.000000
0.488319 0.880949 0.000000
0.695247 0.871366 0.000000
0.885985 0.858457 0.000000
1.000000 0.822232 0.000000
1.000000 0.758358 0.000000
0.000000 1.000000 0.000000
0.000000 1.000000 0.000000
0.247044 1.000000 0.000000
0.478401 0.995361 0.000000
0.672541 0.986816 0.000000
0.850462 0.975769 0.000000
1.000000 0.960815 0.000000
1.000000 0.887205 0.000000
0.000000 0.171511 0.332860
0.000000 0.138430 0.336431
0.000000 0.000000 0.334173
0.298222 0.000000 0.321111
0.501213 0.000000 0.340459
0.789090 0.000000 0.385321
1.000000 0.000000 0.373449
1.000000 0.000000 0.301396
0.000000 0.192966 0.326207
0.000000 0.170687 0.328222
0.000000 0.032990 0.329168
0.296513 0.000000 0.317601
0.511559 0.000000 0.335088
0.797940 0.000000 0.367834
1.000000 0.000000 0.346227
1.000000 0.000000 0.263401
0.000000 0.238102 0.315862
0.000000 0.227176 0.315831
0.000000 0.180697 0.314031
0.291936 0.065034 0.305638
0.533043 0.000000 0.310521
0.818387 0.000000 0.310613
1.000000 0.000000 0.253758
1.000000 0.000000 0.122072
0.000000 0.313237 0.297276
0.000000 0.310643 0.295384
0.000000 0.300175 0.287877
0.275731 0.263188 0.263676
0.551049 0.222965 0.239994
0.838651 0.121004 0.194675
1.000000 0.000000 0.121523
1.000000 0.000000 0.000000
0.000000 0.490181 0.285130
0.000000 0.490944 0.268009
0.000000 0.489631 0.206516
0.258518 0.477638 0.137209
0.582147 0.463966 0.081636
0.847715 0.462776 0.044984
1.000000 0.423865 0.000000
1.000000 0.353246 0.000000
0.000000 0.731136 0.000000
0.000000 0.731685 0.000000
0.000000 0.726436 0.000000
0.268101 0.716915 0.000000
0.619989 0.702724 0.000000
0.868284 0.684962 0.000000
1.000000 0.642847 0.000000
1.000000 0.577111 0.000000
0.000000 0.915190 0.000000
0.000000 0.913420 0.000000
0.000000 0.908965 0.000000
0.276371 0.900969 0.000000
0.621424 0.889097 0.000000
0.865782 0.872892 0.000000
1.000000 0.825406 0.000000
1.000000 0.746700 0.000000
0.000000 1.000000 0.000000
0.000000 1.000000 0.000000
0.000000 1.000000 0.000000
0.265568 1.000000 0.000000
0.582330 0.996002 0.000000
0.810269 0.982635 0.000000
1.000000 0.965179 0.000000
1.000000 0.891722 0.000000
0.000000 0.317815 0.584314
0.000000 0.290318 0.587213
0.000000 0.175418 0.591547
0.187015 0.000000 0.582788
0.528649 0.000000 0.567010
0.764126 0.000000 0.574060
1.000000 0.000000 0.588800
1.000000 0.000000 0.539055
0.000000 0.339422 0.578180
0.000000 0.315740 0.580865
0.000000 0.225162 0.585473
0.137881 0.000000 0.579767
0.527489 0.000000 0.564294
0.773342 0.000000 0.571313
1.000000 0.000000 0.578149
1.000000 0.000000 0.524163
0.000000 0.381292 0.568292
0.000000 0.367895 0.569238
0.000000 0.317021 0.571740
0.000000 0.105653 0.571649
0.524346 0.000000 0.556298
0.794369 0.000000 0.559442
1.000000 0.000000 0.547143
1.000000 0.000000 0.483345
0.000000 0.452735 0.553735
0.000000 0.444800 0.553582
0.000000 0.419196 0.552239
0.000000 0.341650 0.546410
0.516869 0.193729 0.534356
0.821103 0.000000 0.520653
1.000000 0.000000 0.480446
1.000000 0.000000 0.401160
0.000000 0.555016 0.528130
0.000000 0.553307 0.527001
0.000000 0.546349 0.521843
0.000000 0.526574 0.508263
0.494392 0.472633 0.473701
0.832822 0.424201 0.442237
1.000000 0.339574 0.386389
1.000000 0.204440 0.304570
0.000000 0.757351 0.513542
0.000000 0.758053 0.503349
0.000000 0.758541 0.472358
0.000000 0.755184 0.392645
0.449378 0.736507 0.309270
0.853666 0.694545 0.256382
1.000000 0.624872 0.278996
1.000000 0.529686 0.160830
0.000000 0.935515 0.338415
0.000000 0.935668 0.306828
0.000000 0.935210 0.196750
0.000000 0.928374 0.000000
0.396704 0.912810 0.000000
0.801846 0.891386 0.000000
1.000000 0.831266 0.000000
1.000000 0.728756 0.000000
0.000000 1.000000 0.000000
0.000000 1.000000 0.000000
0.000000 1.000000 0.000000
0.000000 1.000000 0.000000
0.328252 1.000000 0.000000
0.714199 0.994263 0.000000
0.980072 0.973022 0.000000
1.000000 0.892607 0.000000
0.000000 0.453437 0.817685
0.000000 0.431342 0.819791
0.000000 0.358892 0.824216
0.000000 0.044404 0.828489
0.406500 0.000000 0.821073
0.757412 0.000000 0.811124
0.998138 0.000000 0.797604
1.000000 0.000000 0.745632
0.000000 0.473396 0.814969
0.000000 0.452888 0.816892
0.000000 0.387640 0.821134
0.000000 0.137789 0.826658
0.387030 0.000000 0.820066
0.757839 0.000000 0.810269
1.000000 0.000000 0.795285
1.000000 0.000000 0.738582
0.000000 0.514672 0.809995
0.000000 0.501915 0.811185
0.000000 0.454871 0.814511
0.000000 0.304051 0.820371
0.328496 0.000000 0.817502
0.758724 0.000000 0.807675
1.000000 0.000000 0.786679
1.000000 0.000000 0.719600
0.000000 0.580926 0.802731
0.000000 0.571679 0.803433
0.000000 0.544152 0.805142
0.000000 0.469917 0.808103
0.126101 0.243717 0.811063
0.760128 0.000000 0.800656
1.000000 0.000000 0.763638
1.000000 0.000000 0.684138
0.000000 0.677729 0.791043
0.000000 0.672480 0.791257
0.000000 0.657008 0.791836
0.000000 0.621668 0.791928
0.000000 0.539391 0.789822
0.761807 0.406226 0.782040
1.000000 0.361334 0.720302
1.000000 0.282261 0.643671
0.000000 0.809445 0.771206
0.000000 0.808621 0.770809
0.000000 0.805875 0.769345
0.000000 0.798520 0.765286
0.000000 0.777310 0.754330
0.743191 0.724636 0.725460
0.992828 0.686702 0.697627
1.000000 0.615412 0.637781
0.000000 0.949920 0.699031
0.000000 0.950042 0.692866
0.000000 0.949798 0.676051
0.000000 0.946777 0.644251
0.000000 0.933776 0.609247
0.674189 0.909483 0.588891
1.000000 0.855528 0.534386
1.000000 0.761227 0.531395
0.000000 1.000000 0.514000
0.000000 1.000000 0.501305
0.000000 1.000000 0.468391
0.000000 1.000000 0.418799
0.000000 1.000000 0.387793
0.536614 1.000000 0.319677
0.904265 0.983612 0.196994
1.000000 0.900847 0.000000
0.000000 0.534386 0.956756
0.000000 0.517540 0.957946
0.000000 0.468116 0.960906
0.000000 0.341314 0.966186
0.000000 0.000000 0.968841
0.566979 0.000000 0.965454
0.897978 0.000000 0.961059
1.000000 0.000000 0.951904
0.000000 0.550591 0.955596
0.000000 0.534752 0.956756
0.000000 0.488258 0.959655
0.000000 0.375097 0.964874
0.000000 0.064332 0.968566
0.558282 0.000000 0.965240
0.898741 0.000000 0.960815
1.000000 0.000000 0.949371
0.000000 0.587091 0.953185
0.000000 0.576776 0.954040
0.000000 0.537255 0.956786
0.000000 0.445716 0.961608
0.000000 0.183108 0.967864
0.534844 0.000000 0.964508
0.900389 0.000000 0.960052
1.000000 0.000000 0.941588
0.000000 0.640986 0.949737
0.000000 0.632654 0.950500
0.000000 0.609064 0.952361
0.000000 0.550500 0.956054
0.000000 0.399725 0.962249
0.490517 0.228672 0.962158
0.903777 0.000000 0.957458
1.000000 0.000000 0.924498
0.000000 0.719966 0.944152
0.000000 0.713954 0.944762
0.000000 0.697200 0.946380
0.000000 0.662989 0.949157
0.000000 0.599573 0.952056
0.436042 0.466194 0.954955
0.908629 0.389044 0.949615
1.000000 0.339788 0.894804
0.000000 0.826047 0.934905
0.000000 0.822751 0.935271
0.000000 0.813626 0.936248
0.000000 0.795132 0.937743
0.000000 0.765621 0.938628
0.507500 0.747066 0.933410
0.912535 0.695064 0.928283
1.000000 0.687617 0.872618
0.000000 0.964416 0.919097
0.000000 0.964080 0.919036
0.000000 0.962799 0.918822
0.000000 0.959289 0.917967
0.000000 0.948669 0.915373
0.542840 0.925383 0.908934
0.903227 0.894530 0.894865
1.000000 0.874296 0.878904
0.000000 1.000000 0.807431
0.000000 1.000000 0.804105
0.000000 1.000000 0.795895
0.000000 1.000000 0.780575
0.000000 1.000000 0.774289
0.563775 1.000000 0.809903
0.860075 0.984436 0.820951
1.000000 0.947417 0.783383
0.000000 0.574212 1.000000
0.000000 0.561791 1.000000
0.000000 0.527337 1.000000
0.000000 0.456214 1.000000
0.000000 0.276066 1.000000
0.076722 0.071015 1.000000
0.675166 0.000000 1.000000
0.966278 0.000000 1.000000
0.000000 0.586572 1.000000
0.000000 0.574762 1.000000
0.000000 0.541680 1.000000
0.000000 0.474739 1.000000
0.000000 0.318090 1.000000
0.000000 0.133547 1.000000
0.672084 0.000000 1.000000
0.966796 0.000000 1.000000
0.000000 0.617334 1.000000
0.000000 0.606836 1.000000
0.000000 0.577386 1.000000
0.000000 0.518883 1.000000
0.000000 0.410559 1.000000
0.000000 0.237339 1.000000
0.664607 0.056001 1.000000
0.968078 0.000000 1.000000
0.000000 0.658564 1.000000
0.000000 0.651575 1.000000
0.000000 0.632959 1.000000
0.000000 0.588617 1.000000
0.000000 0.520806 1.000000
0.000000 0.377173 1.000000
0.657130 0.304234 1.000000
0.970367 0.153902 1.000000
0.000000 0.719051 1.000000
0.000000 0.713283 1.000000
0.000000 0.697810 1.000000
0.000000 0.668940 1.000000
0.000000 0.626154 1.000000
0.189731 0.588952 1.000000
0.668330 0.517723 1.000000
0.973602 0.460761 1.000000
0.000000 0.800290 1.000000
0.000000 0.796201 1.000000
0.000000 0.785153 1.000000
0.000000 0.764248 1.000000
0.000000 0.733425 1.000000
0.176333 0.743374 1.000000
0.733242 0.740780 1.000000
0.977417 0.714687 1.000000
0.000000 0.904662 1.000000
0.000000 0.902403 1.000000
0.000000 0.896300 1.000000
0.000000 0.884947 1.000000
0.000000 0.869322 1.000000
0.000000 0.868528 1.000000
0.807797 0.901030 0.991394
0.979797 0.888304 0.988586
0.000000 1.000000 0.987579
0.000000 1.000000 0.987549
0.000000 1.000000 0.987518
0.000000 1.000000 0.987243
0.000000 1.000000 0.986175
0.277195 1.000000 0.983337
0.832792 0.987732 0.979858
0.977661 0.975280 0.975341
