SLOG2/[TTG] Sky Blue_Slog2_Desaturated.cube
# Created by: Adobe Lightroom Export LUT Plugin
LUT_3D_SIZE 8
DOMAIN_MIN 0.000000 0.000000 0.000000
DOMAIN_MAX 0.903226 0.903226 0.903226
0.000000 0.000000 0.000000
0.043122 0.000000 0.000000
0.155703 0.000000 0.000000
0.313390 0.000000 0.000000
0.539330 0.000000 0.000000
0.818723 0.000000 0.000000
1.000000 0.000000 0.000000
1.000000 0.000000 0.000000
0.000000 0.025635 0.000000
0.027558 0.016327 0.000885
0.146487 0.037079 0.000000
0.305241 0.030213 0.000000
0.532158 0.000000 0.000000
0.812558 0.000000 0.000000
1.000000 0.000000 0.000000
1.000000 0.000000 0.000000
0.000824 0.108949 0.000000
0.056611 0.099672 0.000000
0.112551 0.077607 0.000000
0.291264 0.155550 0.000000
0.519951 0.195499 0.000000
0.800504 0.208164 0.000000
1.000000 0.141756 0.000000
1.000000 0.000000 0.000000
0.008698 0.238834 0.000000
0.093660 0.232578 0.000000
0.176272 0.208194 0.000000
0.243931 0.180209 0.000000
0.495888 0.301427 0.000000
0.787320 0.389258 0.000000
1.000000 0.388617 0.000000
1.000000 0.322271 0.000000
0.027100 0.426032 0.000000
0.133089 0.424628 0.000000
0.250767 0.401434 0.000000
0.345006 0.361883 0.000000
0.435004 0.329076 0.000000
0.753750 0.486793 0.000000
1.000000 0.564843 0.000000
1.000000 0.517845 0.000000
0.000000 0.674830 0.000000
0.152804 0.673671 0.000000
0.319036 0.661555 0.000000
0.467292 0.629358 0.000000
0.587549 0.580774 0.000000
0.711543 0.544274 0.000000
0.983795 0.655634 0.000000
1.000000 0.673976 0.000000
0.000000 0.890379 0.000000
0.000000 0.889250 0.000000
0.290196 0.886320 0.000000
0.502708 0.871031 0.000000
0.685847 0.846036 0.000000
0.848295 0.810178 0.000000
0.972656 0.748196 0.000000
1.000000 0.759762 0.000000
0.000000 1.000000 0.000000
0.000000 1.000000 0.000000
0.000000 1.000000 0.000000
0.388769 1.000000 0.000000
0.625544 0.988525 0.000000
0.827695 0.969696 0.000000
1.000000 0.944213 0.000000
1.000000 0.860258 0.000000
0.000000 0.010376 0.037598
0.037354 0.000000 0.041871
0.148928 0.000000 0.044129
0.309178 0.000000 0.026642
0.533623 0.000000 0.000000
0.809628 0.000000 0.000000
1.000000 0.000000 0.000000
1.000000 0.000000 0.000000
0.000000 0.033631 0.030732
0.030335 0.027680 0.027955
0.147066 0.015717 0.018219
0.306310 0.000000 0.000000
0.529992 0.000000 0.000000
0.805936 0.000000 0.000000
1.000000 0.000000 0.000000
1.000000 0.000000 0.000000
0.000000 0.121828 0.000000
0.023102 0.118410 0.000000
0.123445 0.090822 0.012787
0.297368 0.151003 0.000000
0.522362 0.186130 0.000000
0.797086 0.212222 0.000000
1.000000 0.197238 0.000000
1.000000 0.000000 0.000000
0.000000 0.253208 0.000000
0.026032 0.250675 0.000000
0.176669 0.226627 0.000000
0.254429 0.190280 0.000000
0.500847 0.304021 0.000000
0.785489 0.392889 0.000000
1.000000 0.402838 0.000000
1.000000 0.338170 0.000000
0.000000 0.440620 0.000000
0.043732 0.438514 0.000000
0.237400 0.419562 0.000000
0.351751 0.375860 0.000000
0.439490 0.334173 0.000000
0.749142 0.487037 0.000000
1.000000 0.571008 0.000000
1.000000 0.523980 0.000000
0.000000 0.683925 0.000000
0.078401 0.682277 0.000000
0.304021 0.671809 0.000000
0.468666 0.636713 0.000000
0.591180 0.584985 0.000000
0.710567 0.545006 0.000000
0.982666 0.657099 0.000000
1.000000 0.675563 0.000000
0.000000 0.891783 0.000000
0.000000 0.890715 0.000000
0.293492 0.887816 0.000000
0.504143 0.872587 0.000000
0.686366 0.847837 0.000000
0.848814 0.812314 0.000000
0.972259 0.749142 0.000000
1.000000 0.760800 0.000000
0.000000 1.000000 0.000000
0.000000 1.000000 0.000000
0.000000 1.000000 0.000000
0.380133 1.000000 0.000000
0.621057 0.989349 0.000000
0.824887 0.970581 0.000000
1.000000 0.945037 0.000000
1.000000 0.860960 0.000000
0.000000 0.055329 0.146365
0.000000 0.009735 0.153475
0.146639 0.000000 0.156313
0.299260 0.000000 0.169039
0.532189 0.000000 0.192111
0.821042 0.000000 0.174014
1.000000 0.000000 0.000000
1.000000 0.000000 0.000000
0.000000 0.082856 0.136172
0.000000 0.066651 0.139315
0.140047 0.006500 0.146639
0.305028 0.000000 0.153658
0.539757 0.000000 0.156313
0.827909 0.000000 0.087251
1.000000 0.000000 0.000000
1.000000 0.000000 0.000000
0.000000 0.137057 0.129885
0.000000 0.134157 0.128267
0.125460 0.119112 0.119356
0.309392 0.095766 0.100099
0.544060 0.021729 0.053712
0.821164 0.000000 0.000000
1.000000 0.000000 0.000000
1.000000 0.000000 0.000000
0.000000 0.273869 0.101228
0.000000 0.273655 0.063935
0.105074 0.266606 0.019745
0.277317 0.218326 0.076204
0.531945 0.309026 0.000000
0.807980 0.343969 0.000000
1.000000 0.339910 0.000000
1.000000 0.301366 0.000000
0.000000 0.469337 0.000000
0.000000 0.466835 0.000000
0.103639 0.460792 0.000000
0.353765 0.417334 0.000000
0.469856 0.362860 0.000000
0.779232 0.497017 0.000000
1.000000 0.553796 0.000000
1.000000 0.520714 0.000000
0.000000 0.708583 0.000000
0.000000 0.706844 0.000000
0.116640 0.702388 0.000000
0.432563 0.674434 0.000000
0.604944 0.620813 0.000000
0.731106 0.564233 0.000000
0.988586 0.660517 0.000000
1.000000 0.678950 0.000000
0.000000 0.902953 0.000000
0.000000 0.901488 0.000000
0.121767 0.897704 0.000000
0.458320 0.884764 0.000000
0.675441 0.857420 0.000000
0.849302 0.819303 0.000000
0.971466 0.751400 0.000000
1.000000 0.763241 0.000000
0.000000 1.000000 0.000000
0.000000 1.000000 0.000000
0.000000 1.000000 0.000000
0.351843 1.000000 0.000000
0.607111 0.991699 0.000000
0.816953 0.972869 0.000000
1.000000 0.947173 0.000000
1.000000 0.862516 0.000000
0.000000 0.144076 0.315282
0.000000 0.111116 0.324071
0.040070 0.000000 0.331243
0.318120 0.000000 0.336217
0.518120 0.000000 0.354925
0.808133 0.000000 0.401221
1.000000 0.000000 0.385382
1.000000 0.000000 0.308598
0.000000 0.169345 0.301366
0.000000 0.149203 0.309239
0.000000 0.045014 0.322301
0.313268 0.000000 0.329564
0.525841 0.000000 0.347509
0.814694 0.000000 0.382055
1.000000 0.000000 0.356573
1.000000 0.000000 0.268254
0.000000 0.218021 0.294743
0.000000 0.209140 0.294224
0.000000 0.174807 0.298039
0.302007 0.064149 0.311711
0.541772 0.000000 0.318517
0.830411 0.000000 0.319432
1.000000 0.000000 0.258488
1.000000 0.000000 0.112947
0.000000 0.300359 0.286320
0.000000 0.298436 0.285313
0.000000 0.290715 0.280278
0.275639 0.263096 0.263676
0.548150 0.231510 0.237583
0.836454 0.163882 0.188785
1.000000 0.000000 0.102693
1.000000 0.000000 0.000000
0.000000 0.495735 0.282658
0.000000 0.495888 0.265415
0.000000 0.494209 0.204318
0.243565 0.481392 0.133761
0.502556 0.408606 0.199619
0.813657 0.502800 0.000000
1.000000 0.489204 0.000000
1.000000 0.435431 0.000000
0.000000 0.741054 0.000000
0.000000 0.741512 0.000000
0.000000 0.735683 0.000000
0.220737 0.725490 0.000000
0.593988 0.673915 0.000000
0.763363 0.600031 0.002930
1.000000 0.663996 0.000000
1.000000 0.657221 0.000000
0.000000 0.923766 0.000000
0.000000 0.921965 0.000000
0.000000 0.917418 0.000000
0.186404 0.909270 0.000000
0.601984 0.884154 0.000000
0.838987 0.843839 0.000000
0.980011 0.765194 0.000000
1.000000 0.764920 0.000000
0.000000 1.000000 0.000000
0.000000 1.000000 0.000000
0.000000 1.000000 0.000000
0.136385 1.000000 0.000000
0.550835 0.998383 0.000000
0.797635 0.977417 0.000000
0.999939 0.951080 0.000000
1.000000 0.865263 0.000000
0.000000 0.271122 0.556481
0.000000 0.243992 0.564202
0.000000 0.098878 0.576989
0.259159 0.000000 0.585077
0.560876 0.000000 0.591302
0.787320 0.000000 0.594263
1.000000 0.000000 0.604883
1.000000 0.000000 0.550988
0.000000 0.294804 0.544274
0.000000 0.273686 0.551598
0.000000 0.175845 0.567407
0.230198 0.000000 0.578576
0.557153 0.000000 0.585901
0.794217 0.000000 0.590082
1.000000 0.000000 0.593256
1.000000 0.000000 0.535454
0.000000 0.344305 0.529473
0.000000 0.332830 0.529473
0.000000 0.287297 0.542504
0.120546 0.127108 0.562310
0.547845 0.000000 0.572076
0.810239 0.000000 0.574517
1.000000 0.000000 0.559625
1.000000 0.000000 0.492226
0.000000 0.420569 0.522423
0.000000 0.413764 0.522271
0.000000 0.393256 0.520348
0.000000 0.337560 0.524224
0.530877 0.194553 0.542168
0.829923 0.000000 0.530114
1.000000 0.000000 0.487434
1.000000 0.000000 0.403265
0.000000 0.534661 0.510887
0.000000 0.533288 0.510216
0.000000 0.528191 0.506737
0.000000 0.513359 0.497627
0.493874 0.473060 0.473457
0.829770 0.432349 0.438972
1.000000 0.363195 0.380163
1.000000 0.258610 0.292119
0.000000 0.762478 0.509972
0.000000 0.762844 0.499428
0.000000 0.762936 0.467750
0.000000 0.759182 0.389227
0.429419 0.740566 0.305333
0.780056 0.650507 0.383734
1.000000 0.671595 0.262058
1.000000 0.595941 0.096254
0.000000 0.941711 0.320897
0.000000 0.941741 0.287266
0.000000 0.941283 0.163943
0.000000 0.934539 0.000000
0.340368 0.919005 0.000000
0.788418 0.875639 0.000000
0.981476 0.790311 0.275029
1.000000 0.765469 0.000000
0.000000 1.000000 0.000000
0.000000 1.000000 0.000000
0.000000 1.000000 0.000000
0.000000 1.000000 0.000000
0.216190 1.000000 0.000000
0.697108 0.993103 0.000000
0.970886 0.961212 0.000000
1.000000 0.872587 0.084962
0.000000 0.399969 0.798062
0.000000 0.377295 0.802182
0.000000 0.297368 0.812131
0.000000 0.054170 0.820401
0.472053 0.000000 0.826352
0.788083 0.000000 0.829740
1.000000 0.000000 0.812894
1.000000 0.000000 0.758083
0.000000 0.423285 0.791989
0.000000 0.403571 0.796139
0.000000 0.337224 0.806516
0.000000 0.117098 0.817380
0.457465 0.000000 0.823911
0.787289 0.000000 0.827848
1.000000 0.000000 0.809781
1.000000 0.000000 0.750820
0.000000 0.476967 0.778500
0.000000 0.462440 0.782437
0.000000 0.416083 0.792599
0.000000 0.251896 0.808835
0.414771 0.000763 0.817411
0.785214 0.000000 0.822599
1.000000 0.000000 0.799496
1.000000 0.000000 0.730556
0.000000 0.548119 0.774380
0.000000 0.540093 0.774685
0.000000 0.518090 0.775021
0.000000 0.455177 0.785977
0.321630 0.280339 0.804013
0.781765 0.000000 0.811490
1.000000 0.000000 0.774228
1.000000 0.000000 0.692714
0.000000 0.650355 0.768460
0.000000 0.645594 0.768521
0.000000 0.632502 0.768612
0.000000 0.605890 0.767849
0.296941 0.553887 0.771389
0.775326 0.409430 0.787930
1.000000 0.351415 0.727199
1.000000 0.259922 0.646357
0.000000 0.792111 0.757778
0.000000 0.791440 0.757412
0.000000 0.789151 0.756405
0.000000 0.782681 0.753811
0.000000 0.765225 0.746059
0.743099 0.724758 0.725307
0.991577 0.690394 0.694667
1.000000 0.623468 0.631769
0.000000 0.953307 0.693782
0.000000 0.953338 0.687404
0.000000 0.952911 0.669917
0.000000 0.949554 0.637476
0.000000 0.936492 0.604089
0.656245 0.912810 0.580957
0.948394 0.840879 0.654475
1.000000 0.800900 0.527855
0.000000 1.000000 0.493324
0.000000 1.000000 0.479194
0.000000 1.000000 0.441566
0.000000 1.000000 0.379492
0.000000 1.000000 0.329747
0.465095 1.000000 0.220981
0.903166 0.976165 0.381201
1.000000 0.902647 0.563043
0.000000 0.487221 0.948241
0.000000 0.470954 0.949981
0.000000 0.423499 0.954589
0.000000 0.271031 0.962127
0.000000 0.068238 0.966033
0.627314 0.000000 0.969177
0.922087 0.000000 0.970642
1.000000 0.000000 0.960479
0.000000 0.507530 0.945830
0.000000 0.492775 0.947631
0.000000 0.449989 0.952148
0.000000 0.322698 0.959960
0.000000 0.137179 0.964996
0.620569 0.000000 0.968383
0.922484 0.000000 0.970092
1.000000 0.000000 0.957580
0.000000 0.555322 0.940337
0.000000 0.543297 0.942077
0.000000 0.509300 0.946471
0.000000 0.433143 0.954070
0.000000 0.250736 0.962127
0.603021 0.000000 0.966186
0.923064 0.000000 0.968505
1.000000 0.000000 0.949493
0.000000 0.620356 0.935149
0.000000 0.614343 0.935515
0.000000 0.598535 0.936614
0.000000 0.551232 0.943694
0.000000 0.409613 0.955413
0.575463 0.283665 0.960906
0.924071 0.000000 0.964660
1.000000 0.000000 0.931731
0.000000 0.701595 0.931395
0.000000 0.697139 0.931670
0.000000 0.685847 0.932311
0.000000 0.668025 0.932860
0.058717 0.640436 0.936828
0.563287 0.525109 0.948699
0.924834 0.385473 0.954925
1.000000 0.315526 0.900755
0.000000 0.810086 0.924956
0.000000 0.807309 0.925170
0.000000 0.799985 0.925658
0.000000 0.787686 0.925933
0.000000 0.777096 0.924071
0.657954 0.778988 0.921111
0.920989 0.696651 0.931365
1.000000 0.680385 0.875334
0.000000 0.954070 0.913085
0.000000 0.953613 0.913054
0.000000 0.952148 0.912810
0.000000 0.948089 0.912078
0.000000 0.937560 0.909911
0.606470 0.918273 0.904997
0.903105 0.894560 0.894804
1.000000 0.875639 0.877226
0.000000 1.000000 0.801266
0.000000 1.000000 0.797757
0.000000 1.000000 0.788174
0.000000 1.000000 0.771054
0.000000 1.000000 0.763668
0.545006 1.000000 0.802365
0.846860 0.986847 0.811276
1.000000 0.947631 0.856535
0.000000 0.554131 1.000000
0.000000 0.546441 1.000000
0.000000 0.527489 1.000000
0.000000 0.482856 1.000000
0.000000 0.338781 1.000000
0.404913 0.220127 1.000000
0.729030 0.000000 1.000000
0.985840 0.000000 1.000000
0.000000 0.570642 1.000000
0.000000 0.563592 1.000000
0.000000 0.546227 1.000000
0.000000 0.517449 1.000000
0.000000 0.373114 1.000000
0.403479 0.264530 1.000000
0.726925 0.000000 1.000000
0.986175 0.000000 1.000000
0.000000 0.608728 1.000000
0.000000 0.602869 1.000000
0.000000 0.589136 1.000000
0.000000 0.572290 1.000000
0.000000 0.467323 1.000000
0.409216 0.362310 1.000000
0.723049 0.157443 1.000000
0.986786 0.000000 1.000000
0.000000 0.665034 1.000000
0.000000 0.663355 1.000000
0.000000 0.653498 1.000000
0.000000 0.643091 1.000000
0.271122 0.628016 1.000000
0.453223 0.509880 1.000000
0.723751 0.372503 1.000000
0.987701 0.000000 1.000000
0.000000 0.719387 1.000000
0.000000 0.717464 1.000000
0.000000 0.714076 1.000000
0.000000 0.721370 1.000000
0.345373 0.730190 1.000000
0.562341 0.683314 1.000000
0.746914 0.588159 1.000000
0.988037 0.434424 1.000000
0.000000 0.795529 1.000000
0.000000 0.793637 1.000000
0.000000 0.789731 1.000000
0.000000 0.787961 1.000000
0.162966 0.801999 1.000000
0.680354 0.834195 0.996368
0.805020 0.787167 1.000000
0.986755 0.707698 1.000000
0.000000 0.896056 0.998718
0.000000 0.894499 0.998779
0.000000 0.890745 0.998810
0.000000 0.886198 0.998291
0.000000 0.887633 0.995697
0.629328 0.902678 0.990204
0.874327 0.922332 0.985412
0.983795 0.887022 0.990082
0.000000 1.000000 0.985870
0.000000 1.000000 0.985809
0.000000 1.000000 0.985687
0.000000 1.000000 0.985199
0.000000 1.000000 0.983825
0.507683 0.999939 0.981231
0.854978 0.984894 0.978607
0.977630 0.975311 0.975311
