SLOG2/[TTG] Sky Blue_Slog2.cube
# Created by: Adobe Lightroom Export LUT Plugin
LUT_3D_SIZE 5
DOMAIN_MIN 0.000000 0.000000 0.000000
DOMAIN_MAX 0.903226 0.903226 0.903226
0.000000 0.000000 0.000000
0.120302 0.000000 0.000000
0.406043 0.000000 0.000000
0.868223 0.000000 0.000000
1.000000 0.000000 0.000000
0.005585 0.079835 0.000000
0.116854 0.082368 0.000000
0.406897 0.127077 0.000000
0.867185 0.084199 0.000000
1.000000 0.000000 0.000000
0.054414 0.314061 0.000000
0.202762 0.309728 0.000000
0.431220 0.333776 0.000000
0.877806 0.438727 0.000000
1.000000 0.374853 0.000000
0.166812 0.716976 0.000000
0.343633 0.713893 0.000000
0.602899 0.704555 0.000000
0.907591 0.713069 0.000000
1.000000 0.651942 0.000000
0.000000 0.999634 0.000000
0.311955 0.996735 0.000000
0.607965 0.987549 0.000000
0.905882 0.969543 0.000000
1.000000 0.882780 0.000000
0.000000 0.048280 0.121370
0.106264 0.000000 0.116335
0.398718 0.000000 0.138003
0.877043 0.000000 0.013184
1.000000 0.000000 0.000000
0.000000 0.110842 0.104067
0.096864 0.092134 0.092348
0.417792 0.000000 0.049805
0.880980 0.000000 0.000000
1.000000 0.000000 0.000000
0.000000 0.351385 0.000000
0.103212 0.345556 0.000000
0.449256 0.348821 0.000000
0.892454 0.411139 0.000000
1.000000 0.353033 0.000000
0.000000 0.745022 0.000000
0.191562 0.741238 0.000000
0.583062 0.729641 0.000000
0.915435 0.720333 0.000000
1.000000 0.654475 0.000000
0.000000 1.000000 0.000000
0.244663 1.000000 0.000000
0.591669 0.990021 0.000000
0.897520 0.971771 0.000000
1.000000 0.886168 0.000000
0.000000 0.240604 0.451820
0.000000 0.123201 0.457801
0.405951 0.000000 0.436103
0.850217 0.000000 0.487922
1.000000 0.000000 0.428290
0.000000 0.291691 0.437903
0.000000 0.240574 0.440345
0.402106 0.000000 0.426825
0.872526 0.000000 0.453712
1.000000 0.000000 0.362951
0.000000 0.426276 0.405249
0.000000 0.418708 0.399786
0.376593 0.359838 0.360388
0.908782 0.252934 0.298741
1.000000 0.000000 0.166140
0.000000 0.797940 0.290410
0.000000 0.799008 0.154482
0.338994 0.781765 0.000000
0.922179 0.732204 0.000000
1.000000 0.603479 0.000000
0.000000 1.000000 0.000000
0.000000 1.000000 0.000000
0.287358 1.000000 0.000000
0.831754 0.983490 0.000000
1.000000 0.891966 0.000000
0.000000 0.478828 0.861204
0.000000 0.415351 0.865721
0.000000 0.000000 0.870909
0.801175 0.000000 0.857786
1.000000 0.000000 0.796597
0.000000 0.526452 0.856077
0.000000 0.479683 0.859739
0.000000 0.123049 0.868894
0.802579 0.000000 0.856046
1.000000 0.000000 0.780545
0.000000 0.644373 0.844724
0.000000 0.622492 0.846525
0.000000 0.516655 0.850767
0.807553 0.225986 0.845212
1.000000 0.000000 0.726131
0.000000 0.858122 0.817716
0.000000 0.856291 0.816861
0.000000 0.843229 0.810880
0.793027 0.777188 0.777859
1.000000 0.700191 0.715785
0.000000 1.000000 0.600549
0.000000 1.000000 0.575097
0.000000 1.000000 0.523186
0.624750 1.000000 0.485664
1.000000 0.907958 0.313756
0.000000 0.574212 1.000000
0.000000 0.538781 1.000000
0.000000 0.397620 1.000000
0.346075 0.000000 1.000000
0.966278 0.000000 1.000000
0.000000 0.607874 1.000000
0.000000 0.576318 1.000000
0.000000 0.460395 1.000000
0.311192 0.177371 1.000000
0.967681 0.000000 1.000000
0.000000 0.686244 1.000000
0.000000 0.668238 1.000000
0.000000 0.602136 1.000000
0.268284 0.451087 1.000000
0.971801 0.321233 1.000000
0.000000 0.824033 1.000000
0.000000 0.813748 1.000000
0.000000 0.779202 1.000000
0.458259 0.787594 1.000000
0.978210 0.766323 1.000000
0.000000 1.000000 0.987579
0.000000 1.000000 0.987518
0.000000 1.000000 0.986877
0.521416 1.000000 0.982483
0.977661 0.975280 0.975341
