SLOG2/[TTG] Sky Blue_Slog2_Desaturated.cube
# Created by: Adobe Lightroom Export LUT Plugin
LUT_3D_SIZE 5
DOMAIN_MIN 0.000000 0.000000 0.000000
DOMAIN_MAX 0.903226 0.903226 0.903226
0.000000 0.000000 0.000000
0.124514 0.000000 0.000000
0.417304 0.000000 0.000000
0.885618 0.000000 0.000000
1.000000 0.000000 0.000000
0.000000 0.084108 0.000000
0.087251 0.057832 0.000000
0.399969 0.145876 0.000000
0.871458 0.130526 0.000000
1.000000 0.000000 0.000000
0.016938 0.324712 0.000000
0.189975 0.304387 0.000000
0.331518 0.248447 0.000000
0.849088 0.478889 0.000000
1.000000 0.426612 0.000000
0.000000 0.738003 0.000000
0.280003 0.733089 0.000000
0.563531 0.681697 0.000000
0.788022 0.603754 0.000000
1.000000 0.695125 0.000000
0.000000 1.000000 0.000000
0.000000 1.000000 0.000000
0.514275 0.995789 0.000000
0.875669 0.963989 0.000000
1.000000 0.860258 0.000000
0.000000 0.038972 0.114809
0.114900 0.000000 0.122866
0.408972 0.000000 0.145480
0.892668 0.000000 0.011536
1.000000 0.000000 0.000000
0.000000 0.106416 0.100587
0.096925 0.092134 0.092103
0.417243 0.025452 0.045289
0.883116 0.000000 0.000000
1.000000 0.000000 0.000000
0.000000 0.358770 0.000000
0.076722 0.351873 0.000000
0.359411 0.276066 0.000000
0.860197 0.465888 0.000000
1.000000 0.439368 0.000000
0.000000 0.759396 0.000000
0.106752 0.755032 0.000000
0.557549 0.706477 0.000000
0.793210 0.611566 0.000000
1.000000 0.698634 0.000000
0.000000 1.000000 0.000000
0.000000 1.000000 0.000000
0.495979 0.998230 0.000000
0.868864 0.966369 0.000000
1.000000 0.862028 0.000000
0.000000 0.203342 0.428260
0.000000 0.062348 0.445167
0.432990 0.000000 0.456977
0.869688 0.000000 0.505791
1.000000 0.000000 0.438575
0.000000 0.261692 0.404852
0.000000 0.218112 0.415473
0.421149 0.000000 0.439979
0.886778 0.000000 0.467262
1.000000 0.000000 0.369574
0.000000 0.409155 0.390661
0.000000 0.403754 0.387182
0.376776 0.359655 0.360052
0.905974 0.277531 0.293584
1.000000 0.035126 0.144137
0.000000 0.805875 0.279240
0.000000 0.806516 0.134798
0.295933 0.788632 0.000000
0.835599 0.666407 0.188540
1.000000 0.681605 0.000000
0.000000 1.000000 0.000000
0.000000 1.000000 0.000000
0.163210 1.000000 0.000000
0.821378 0.977661 0.000000
1.000000 0.867033 0.000000
0.000000 0.425513 0.844663
0.000000 0.359991 0.853849
0.000000 0.000000 0.867094
0.830198 0.000000 0.873899
1.000000 0.000000 0.808560
0.000000 0.485237 0.832456
0.000000 0.438148 0.841459
0.000000 0.160189 0.861265
0.829068 0.000000 0.869993
1.000000 0.000000 0.791531
0.000000 0.615991 0.822019
0.000000 0.598047 0.822629
0.000000 0.520104 0.831449
0.826047 0.222843 0.853574
1.000000 0.000000 0.733394
0.000000 0.842679 0.806241
0.000000 0.840909 0.805783
0.000000 0.829252 0.801541
0.793088 0.777218 0.777523
1.000000 0.705348 0.711086
0.000000 1.000000 0.584497
0.000000 1.000000 0.556237
0.000000 1.000000 0.492561
0.569055 1.000000 0.429664
1.000000 0.914092 0.654292
0.000000 0.554131 1.000000
0.000000 0.533349 1.000000
0.000000 0.410712 1.000000
0.498878 0.167269 1.000000
0.985840 0.000000 1.000000
0.000000 0.597009 1.000000
0.000000 0.580682 1.000000
0.000000 0.516991 1.000000
0.496284 0.296483 1.000000
0.986511 0.000000 1.000000
0.000000 0.688594 1.000000
0.000000 0.687098 1.000000
0.000000 0.682795 1.000000
0.554650 0.572290 1.000000
0.987945 0.274662 1.000000
0.000000 0.818051 1.000000
0.000000 0.813382 1.000000
0.000000 0.812284 1.000000
0.738552 0.858762 0.993500
0.986175 0.761593 1.000000
0.000000 1.000000 0.985870
0.000000 1.000000 0.985748
0.000000 1.000000 0.984649
0.633570 0.995727 0.980560
0.977630 0.975311 0.975311
