SLOG3/[TTG] Sky Blue_SLOG3.cube
# Created by Adobe Lightroom plugin Export LUT (1.22.0)
# www.johnrellis.com/lightroom/exportlut.htm
# Photo: SLOG3.jpg
# Color profile: /Library/Application Support/Adobe/Color/Profiles/Recommended/AdobeRGB1998.icc
LUT_3D_SIZE 33
DOMAIN_MIN 0.0 0.0 0.0
DOMAIN_MAX 1.0 1.0 1.0
0.000000 0.000000 0.000000
0.006622 0.000092 0.000000
0.014435 0.001160 0.000000
0.034302 0.001404 0.000000
0.062684 0.002136 0.000000
0.083101 0.003662 0.000000
0.105135 0.006287 0.000000
0.128756 0.010101 0.000000
0.154574 0.015503 0.000000
0.182223 0.022309 0.000000
0.211826 0.033387 0.000000
0.243351 0.047639 0.000000
0.276982 0.060334 0.000000
0.312779 0.069398 0.000000
0.350774 0.079316 0.000000
0.390906 0.089845 0.000000
0.433509 0.101015 0.000000
0.478340 0.112184 0.000000
0.525292 0.123995 0.000000
0.574670 0.136202 0.000000
0.625055 0.148318 0.000000
0.677089 0.160616 0.000000
0.729580 0.172335 0.000000
0.778805 0.182834 0.000000
0.824765 0.192081 0.000000
0.867460 0.199954 0.000000
0.906737 0.206455 0.000000
0.942840 0.211673 0.000000
0.976013 0.215702 0.000000
1.000000 0.218570 0.000000
1.000000 0.220188 0.000000
1.000000 0.220768 0.000000
1.000000 0.219852 0.000000
0.000427 0.003388 0.001862
0.005951 0.004883 0.000000
0.015473 0.003326 0.000000
0.035309 0.003601 0.000000
0.063050 0.005524 0.000000
0.083345 0.007050 0.000000
0.105043 0.009918 0.000000
0.128878 0.014679 0.000000
0.154635 0.021271 0.000000
0.181979 0.028565 0.000000
0.211612 0.040833 0.000000
0.243076 0.052491 0.000000
0.276799 0.063783 0.000000
0.312566 0.072389 0.000000
0.350591 0.082216 0.000000
0.390723 0.092378 0.000000
0.433051 0.103243 0.000000
0.477729 0.114351 0.000000
0.524773 0.126101 0.000000
0.573754 0.138308 0.000000
0.624140 0.150271 0.000000
0.676143 0.162356 0.000000
0.728725 0.174105 0.000000
0.778103 0.184756 0.000000
0.824094 0.193820 0.000000
0.866789 0.201602 0.000000
0.906126 0.208164 0.000000
0.942290 0.213504 0.000000
0.975586 0.217319 0.000000
1.000000 0.220096 0.000000
1.000000 0.221683 0.000000
1.000000 0.222232 0.000000
1.000000 0.221286 0.000000
0.000000 0.008179 0.004761
0.000000 0.009400 0.000305
0.015503 0.012726 0.000000
0.035859 0.009369 0.000000
0.063386 0.008911 0.000000
0.083558 0.011658 0.000000
0.105440 0.015473 0.000000
0.129183 0.020264 0.000000
0.154726 0.027070 0.000000
0.182162 0.036530 0.000000
0.211612 0.048493 0.000000
0.243046 0.059602 0.000000
0.276799 0.067262 0.000000
0.312566 0.076204 0.000000
0.350408 0.085969 0.000000
0.390478 0.095735 0.000000
0.432929 0.106355 0.000000
0.477333 0.117586 0.000000
0.524437 0.129335 0.000000
0.573205 0.141115 0.000000
0.623255 0.153017 0.000000
0.675135 0.164920 0.000000
0.727626 0.176425 0.000000
0.776883 0.187015 0.000000
0.822812 0.195926 0.000000
0.865568 0.203769 0.000000
0.905028 0.210269 0.000000
0.941344 0.215396 0.000000
0.974701 0.219303 0.000000
1.000000 0.221958 0.000000
1.000000 0.223758 0.000000
1.000000 0.224033 0.000000
1.000000 0.223148 0.000000
0.000000 0.021180 0.010254
0.000000 0.020935 0.010224
0.000336 0.023377 0.000244
0.035920 0.028168 0.000000
0.064088 0.025086 0.000000
0.084291 0.021790 0.000000
0.105928 0.028046 0.000000
0.129305 0.034241 0.000000
0.154788 0.042267 0.000000
0.182193 0.051423 0.000000
0.211612 0.060761 0.000000
0.243046 0.067323 0.000000
0.276768 0.075288 0.000000
0.312291 0.083680 0.000000
0.350164 0.092836 0.000000
0.390295 0.102571 0.000000
0.432532 0.113069 0.000000
0.477028 0.123751 0.000000
0.524285 0.135348 0.000000
0.572747 0.146792 0.000000
0.622705 0.158755 0.000000
0.674525 0.170413 0.000000
0.726925 0.182040 0.000000
0.776242 0.192142 0.000000
0.822354 0.200992 0.000000
0.865110 0.208743 0.000000
0.904662 0.215000 0.000000
0.940917 0.220066 0.000000
0.974304 0.223880 0.000000
1.000000 0.226505 0.000000
1.000000 0.227848 0.000000
1.000000 0.228000 0.000000
1.000000 0.227237 0.000000
0.000000 0.039948 0.019593
0.000000 0.038514 0.018555
0.000000 0.038300 0.017456
0.009247 0.045441 0.000000
0.063233 0.056397 0.000000
0.084382 0.055390 0.000000
0.106661 0.049958 0.000000
0.130159 0.052644 0.000000
0.155398 0.060090 0.000000
0.182528 0.065370 0.000000
0.211856 0.071473 0.000000
0.243320 0.078004 0.000000
0.276799 0.085878 0.000000
0.312352 0.093996 0.000000
0.350134 0.103151 0.000000
0.390173 0.112367 0.000000
0.432471 0.122469 0.000000
0.476905 0.133059 0.000000
0.524193 0.144442 0.000000
0.572442 0.155734 0.000000
0.622309 0.167178 0.000000
0.673915 0.178653 0.000000
0.726406 0.190005 0.000000
0.775814 0.200137 0.000000
0.822019 0.208896 0.000000
0.864927 0.216403 0.000000
0.904448 0.222538 0.000000
0.940826 0.227390 0.000000
0.974243 0.230930 0.000000
1.000000 0.233371 0.000000
1.000000 0.234653 0.000000
1.000000 0.234775 0.000000
1.000000 0.233677 0.000000
0.000000 0.059907 0.031586
0.000000 0.059327 0.030579
0.000000 0.058747 0.030671
0.000000 0.060792 0.015076
0.030854 0.065370 0.000000
0.082490 0.074617 0.000000
0.106844 0.076387 0.000000
0.130526 0.074464 0.000000
0.156222 0.071901 0.000000
0.183291 0.077241 0.000000
0.212589 0.083650 0.000000
0.243656 0.090486 0.000000
0.277226 0.097902 0.000000
0.312749 0.106142 0.000000
0.350652 0.114717 0.000000
0.390600 0.124392 0.000000
0.432715 0.134066 0.000000
0.477150 0.144472 0.000000
0.524407 0.155642 0.000000
0.572473 0.166873 0.000000
0.622217 0.177981 0.000000
0.673793 0.189303 0.000000
0.726131 0.200626 0.000000
0.775570 0.210605 0.000000
0.821714 0.219211 0.000000
0.870329 0.227695 0.000000
0.909178 0.233341 0.000000
0.944823 0.237797 0.000000
0.977600 0.241032 0.000000
1.000000 0.243046 0.000000
1.000000 0.243900 0.000000
1.000000 0.243656 0.000000
1.000000 0.242252 0.000000
0.000000 0.073610 0.049439
0.000000 0.073213 0.048676
0.000000 0.073121 0.047852
0.000000 0.072114 0.046143
0.000000 0.078218 0.002380
0.061982 0.082887 0.000000
0.104494 0.094697 0.000000
0.131533 0.098421 0.000000
0.157290 0.098177 0.000000
0.185061 0.096834 0.000000
0.214694 0.097017 0.000000
0.245975 0.104341 0.000000
0.279423 0.111727 0.000000
0.315007 0.119936 0.000000
0.352880 0.128664 0.000000
0.393042 0.138155 0.000000
0.435279 0.147982 0.000000
0.480323 0.158480 0.000000
0.528252 0.169558 0.000000
0.576593 0.180636 0.000000
0.626551 0.191958 0.000000
0.678218 0.203372 0.000000
0.730709 0.214420 0.000000
0.779843 0.224125 0.000000
0.825803 0.232273 0.000000
0.868437 0.239139 0.000000
0.907713 0.244816 0.000000
0.943755 0.249027 0.000000
0.976837 0.251987 0.000000
1.000000 0.253788 0.000000
1.000000 0.254490 0.000000
1.000000 0.253971 0.000000
1.000000 0.252445 0.000000
0.000000 0.089265 0.063722
0.000000 0.088960 0.063325
0.000000 0.088594 0.062928
0.000000 0.087495 0.061707
0.000000 0.090028 0.046632
0.013886 0.096925 0.000000
0.082277 0.101381 0.000000
0.128145 0.116335 0.000000
0.157565 0.121462 0.000000
0.185306 0.122530 0.000000
0.214725 0.123110 0.000000
0.246647 0.121859 0.000000
0.280400 0.125490 0.000000
0.315923 0.133974 0.000000
0.353796 0.142855 0.000000
0.393774 0.152285 0.000000
0.436103 0.162203 0.000000
0.481453 0.172824 0.000000
0.529046 0.184024 0.000000
0.577142 0.195071 0.000000
0.626917 0.206302 0.000000
0.678798 0.217502 0.000000
0.730953 0.228397 0.000000
0.779995 0.238041 0.000000
0.825834 0.246189 0.000000
0.868406 0.252811 0.000000
0.907622 0.258122 0.000000
0.943664 0.261967 0.000000
0.976867 0.264744 0.000000
1.000000 0.266361 0.000000
1.000000 0.266758 0.000000
1.000000 0.265995 0.000000
1.000000 0.264195 0.000000
0.000000 0.106447 0.075654
0.000000 0.106172 0.075319
0.000000 0.105653 0.074678
0.000000 0.105043 0.074006
0.000000 0.103883 0.072694
0.000000 0.111055 0.034791
0.055146 0.117525 0.000000
0.104768 0.121767 0.000000
0.154147 0.139956 0.000000
0.185702 0.146151 0.000000
0.215427 0.148196 0.000000
0.247166 0.149508 0.000000
0.280919 0.150423 0.000000
0.317052 0.149508 0.000000
0.354833 0.157473 0.000000
0.394598 0.166964 0.000000
0.436957 0.177188 0.000000
0.482521 0.187991 0.000000
0.529442 0.199313 0.000000
0.577356 0.210239 0.000000
0.626917 0.221500 0.000000
0.678431 0.232731 0.000000
0.730465 0.243717 0.000000
0.779355 0.253239 0.000000
0.825101 0.261051 0.000000
0.867765 0.267521 0.000000
0.906981 0.272587 0.000000
0.943175 0.276280 0.000000
0.976349 0.278752 0.000000
1.000000 0.280125 0.000000
1.000000 0.280247 0.000000
1.000000 0.279271 0.000000
1.000000 0.277226 0.000000
0.000000 0.125429 0.089082
0.000000 0.125216 0.088533
0.000000 0.124941 0.088258
0.000000 0.124483 0.087160
0.000000 0.123507 0.086091
0.000000 0.126253 0.074952
0.000000 0.134615 0.002472
0.081270 0.140322 0.000000
0.129000 0.144045 0.000000
0.182223 0.165591 0.000000
0.216068 0.172610 0.000000
0.247959 0.175540 0.000000
0.281651 0.177890 0.000000
0.317754 0.179477 0.000000
0.355749 0.180331 0.000000
0.395972 0.182345 0.000000
0.438941 0.192966 0.000000
0.483986 0.204044 0.000000
0.530785 0.215274 0.000000
0.578363 0.226505 0.000000
0.627741 0.237705 0.000000
0.679164 0.249149 0.000000
0.730892 0.260075 0.000000
0.779721 0.269474 0.000000
0.825437 0.277348 0.000000
0.868040 0.283574 0.000000
0.907286 0.288640 0.000000
0.943420 0.292058 0.000000
0.976532 0.294255 0.000000
1.000000 0.295262 0.000000
1.000000 0.295140 0.000000
1.000000 0.293828 0.000000
1.000000 0.291478 0.000000
0.000000 0.146304 0.103212
0.000000 0.145937 0.102998
0.000000 0.145724 0.102541
0.000000 0.145144 0.101656
0.000000 0.144350 0.100282
0.000000 0.143160 0.098909
0.000000 0.150912 0.071077
0.009277 0.158938 0.000000
0.107088 0.164981 0.000000
0.156619 0.169680 0.000000
0.212436 0.193057 0.000000
0.248692 0.201083 0.000000
0.282597 0.204929 0.000000
0.318639 0.208347 0.000000
0.356847 0.210819 0.000000
0.397559 0.212894 0.000000
0.440803 0.213809 0.000000
0.485817 0.220554 0.000000
0.532433 0.232120 0.000000
0.580011 0.243442 0.000000
0.629480 0.254948 0.000000
0.680781 0.266545 0.000000
0.732540 0.277714 0.000000
0.781125 0.287083 0.000000
0.826627 0.294804 0.000000
0.868894 0.300999 0.000000
0.907927 0.305577 0.000000
0.943847 0.308873 0.000000
0.976898 0.310765 0.000000
1.000000 0.311467 0.000000
1.000000 0.311009 0.000000
1.000000 0.309545 0.000000
1.000000 0.306950 0.000000
0.000000 0.168490 0.118654
0.000000 0.168307 0.118257
0.000000 0.168002 0.117891
0.000000 0.167361 0.116945
0.000000 0.166659 0.115785
0.000000 0.165377 0.114260
0.000000 0.168612 0.102266
0.000000 0.177310 0.056916
0.066041 0.185000 0.000000
0.134676 0.191318 0.000000
0.186923 0.197940 0.000000
0.244907 0.222446 0.000000
0.283696 0.231693 0.000000
0.319646 0.236271 0.000000
0.358251 0.240665 0.000000
0.398962 0.244480 0.000000
0.442145 0.247288 0.000000
0.492012 0.251865 0.000000
0.539147 0.252384 0.000000
0.586816 0.263188 0.000000
0.636072 0.274876 0.000000
0.687465 0.286687 0.000000
0.738430 0.297581 0.000000
0.786313 0.306798 0.000000
0.831266 0.314366 0.000000
0.872984 0.320226 0.000000
0.911498 0.324559 0.000000
0.946960 0.327428 0.000000
0.979461 0.328801 0.000000
1.000000 0.329076 0.000000
1.000000 0.328374 0.000000
1.000000 0.326390 0.000000
1.000000 0.323400 0.000000
0.000000 0.192813 0.135317
0.000000 0.192660 0.135012
0.000000 0.192416 0.134676
0.000000 0.191958 0.133852
0.000000 0.190890 0.132601
0.000000 0.189761 0.131106
0.000000 0.188357 0.129274
0.000000 0.196658 0.100679
0.000000 0.206729 0.000000
0.099153 0.213382 0.000000
0.164340 0.220035 0.000000
0.219913 0.228794 0.000000
0.280613 0.254765 0.000000
0.322606 0.265660 0.000000
0.361486 0.271489 0.000000
0.402533 0.276829 0.000000
0.446021 0.281804 0.000000
0.491707 0.285618 0.000000
0.538628 0.288121 0.000000
0.586816 0.289433 0.000000
0.636683 0.292546 0.000000
0.688136 0.304875 0.000000
0.739193 0.316106 0.000000
0.786984 0.325414 0.000000
0.831754 0.332921 0.000000
0.873350 0.338750 0.000000
0.911650 0.342718 0.000000
0.946929 0.345525 0.000000
0.979431 0.346777 0.000000
1.000000 0.346777 0.000000
1.000000 0.345739 0.000000
1.000000 0.343542 0.000000
1.000000 0.340368 0.000000
0.000000 0.217441 0.152255
0.000000 0.217319 0.152102
0.000000 0.216892 0.151583
0.000000 0.216617 0.150851
0.000000 0.215793 0.149722
0.000000 0.214572 0.148013
0.000000 0.213352 0.146456
0.000000 0.216617 0.133272
0.000000 0.226200 0.091279
0.000000 0.235874 0.000000
0.130678 0.242649 0.000000
0.195102 0.249668 0.000000
0.254765 0.261143 0.000000
0.318517 0.289067 0.000000
0.362615 0.300755 0.000000
0.404150 0.307683 0.000000
0.447333 0.313848 0.000000
0.492744 0.319310 0.000000
0.539574 0.323613 0.000000
0.587671 0.326482 0.000000
0.637720 0.328588 0.000000
0.689906 0.328496 0.000000
0.740810 0.335271 0.000000
0.788357 0.344671 0.000000
0.832853 0.352178 0.000000
0.874144 0.357824 0.000000
0.912352 0.361761 0.000000
0.947539 0.364355 0.000000
0.979919 0.365332 0.000000
1.000000 0.365209 0.000000
1.000000 0.363958 0.000000
1.000000 0.361425 0.000000
1.000000 0.357946 0.000000
0.000000 0.243412 0.170169
0.000000 0.243290 0.169924
0.000000 0.243015 0.169558
0.000000 0.242496 0.168704
0.000000 0.241825 0.167575
0.000000 0.240696 0.166110
0.000000 0.239414 0.164370
0.000000 0.237797 0.162325
0.000000 0.246708 0.132631
0.000000 0.257328 0.068605
0.066926 0.266239 0.000000
0.163210 0.273960 0.000000
0.227848 0.280430 0.000000
0.291600 0.295537 0.000000
0.357916 0.325017 0.000000
0.404028 0.337224 0.000000
0.448249 0.345373 0.000000
0.493507 0.352300 0.000000
0.540032 0.357794 0.000000
0.588220 0.362402 0.000000
0.638087 0.366430 0.000000
0.690059 0.369238 0.000000
0.741085 0.368139 0.000000
0.789120 0.363897 0.000000
0.833524 0.371496 0.000000
0.874693 0.377203 0.000000
0.912810 0.381048 0.000000
0.947967 0.383490 0.000000
0.980285 0.384436 0.000000
1.000000 0.384070 0.000000
1.000000 0.382452 0.000000
1.000000 0.379797 0.000000
1.000000 0.375921 0.000000
0.000000 0.270512 0.188815
0.000000 0.270420 0.188571
0.000000 0.270146 0.188266
0.000000 0.269780 0.187503
0.000000 0.269047 0.186404
0.000000 0.267948 0.184909
0.000000 0.266728 0.183261
0.000000 0.265232 0.181247
0.000000 0.268681 0.167361
0.000000 0.279118 0.126650
0.000000 0.290990 0.000000
0.111971 0.299016 0.000000
0.197116 0.307042 0.000000
0.261723 0.312810 0.000000
0.330846 0.331670 0.000000
0.399481 0.362646 0.000000
0.448035 0.375982 0.000000
0.494972 0.385382 0.000000
0.541436 0.392218 0.000000
0.589654 0.398322 0.000000
0.639582 0.403540 0.000000
0.691371 0.408209 0.000000
0.742000 0.410132 0.000000
0.789944 0.406622 0.000000
0.835264 0.396918 0.000000
0.876738 0.397467 0.000000
0.914763 0.401312 0.000000
0.949737 0.403601 0.000000
0.981933 0.404334 0.000000
1.000000 0.403632 0.000000
1.000000 0.401862 0.000000
1.000000 0.398810 0.000000
1.000000 0.394629 0.000000
0.000000 0.299138 0.208499
0.000000 0.299107 0.208377
0.000000 0.298802 0.208011
0.000000 0.298344 0.207248
0.000000 0.297673 0.206180
0.000000 0.296696 0.204715
0.000000 0.295628 0.203067
0.000000 0.294347 0.201297
0.000000 0.292882 0.199283
0.000000 0.302770 0.168307
0.000000 0.314244 0.111208
0.000000 0.325750 0.000000
0.151400 0.333837 0.000000
0.233280 0.342168 0.000000
0.298070 0.347204 0.000000
0.372534 0.370459 0.000000
0.444160 0.403021 0.000000
0.495003 0.417304 0.000000
0.543420 0.426825 0.000000
0.591394 0.434089 0.000000
0.641444 0.440803 0.000000
0.693233 0.446723 0.000000
0.743465 0.449805 0.000000
0.790860 0.449592 0.000000
0.835660 0.443366 0.000000
0.877470 0.431495 0.000000
0.915862 0.421515 0.000000
0.950561 0.423529 0.000000
0.982513 0.424109 0.000000
1.000000 0.423316 0.000000
1.000000 0.421149 0.000000
1.000000 0.417945 0.000000
1.000000 0.413519 0.000000
0.000000 0.329259 0.229252
0.000000 0.329046 0.229007
0.000000 0.328893 0.228672
0.000000 0.328466 0.227970
0.000000 0.327825 0.226932
0.000000 0.327062 0.225711
0.000000 0.325994 0.223972
0.000000 0.324834 0.222202
0.000000 0.323278 0.220096
0.000000 0.329259 0.206516
0.000000 0.340459 0.165347
0.000000 0.353063 0.077699
0.048096 0.363439 0.000000
0.191714 0.371893 0.000000
0.272221 0.380774 0.000000
0.337743 0.384894 0.000000
0.418555 0.413184 0.000000
0.493599 0.447944 0.000000
0.545647 0.461860 0.000000
0.595941 0.471839 0.000000
0.645808 0.479683 0.000000
0.697475 0.486519 0.000000
0.746914 0.490181 0.000000
0.793698 0.490700 0.000000
0.837644 0.488289 0.000000
0.879179 0.478492 0.000000
0.917510 0.464637 0.000000
0.952941 0.446937 0.000000
0.984588 0.444770 0.000000
1.000000 0.443641 0.000000
1.000000 0.441199 0.000000
1.000000 0.437568 0.000000
1.000000 0.432837 0.000000
0.000000 0.362524 0.252140
0.000000 0.362463 0.251957
0.000000 0.362036 0.251530
0.000000 0.361700 0.250828
0.000000 0.361059 0.249912
0.000000 0.360296 0.248508
0.000000 0.359258 0.246891
0.000000 0.358099 0.244999
0.000000 0.356695 0.243046
0.000000 0.355047 0.240818
0.000000 0.365698 0.208286
0.000000 0.378210 0.153689
0.000000 0.391913 0.000000
0.119295 0.401373 0.000000
0.231540 0.410681 0.000000
0.312474 0.420447 0.000000
0.379248 0.423835 0.000000
0.466926 0.457618 0.000000
0.543023 0.492622 0.000000
0.595209 0.505730 0.000000
0.646601 0.515801 0.000000
0.698054 0.523796 0.000000
0.747372 0.528588 0.000000
0.793881 0.529900 0.000000
0.837705 0.528283 0.000000
0.878599 0.522271 0.000000
0.916777 0.510094 0.000000
0.951995 0.494514 0.000000
0.984527 0.475227 0.000000
1.000000 0.463691 0.000000
1.000000 0.461006 0.000000
1.000000 0.457221 0.000000
1.000000 0.452186 0.000000
0.000000 0.397345 0.276066
0.000000 0.397284 0.275944
0.000000 0.396979 0.275456
0.000000 0.396521 0.274784
0.000000 0.395789 0.273625
0.000000 0.394934 0.272313
0.000000 0.394079 0.270848
0.000000 0.392950 0.269017
0.000000 0.391577 0.266880
0.000000 0.389960 0.264622
0.000000 0.394293 0.249241
0.000000 0.406775 0.206668
0.000000 0.420417 0.131228
0.000000 0.434180 0.000000
0.170535 0.443885 0.000000
0.274540 0.454108 0.000000
0.357000 0.464759 0.000000
0.426123 0.468788 0.000000
0.518334 0.505211 0.000000
0.595270 0.540246 0.000000
0.647791 0.552270 0.000000
0.699611 0.561639 0.000000
0.748440 0.566918 0.000000
0.794583 0.568811 0.000000
0.837919 0.567590 0.000000
0.878233 0.563684 0.000000
0.916075 0.553704 0.000000
0.951202 0.539605 0.000000
0.983673 0.522179 0.000000
1.000000 0.501640 0.000000
1.000000 0.481209 0.000000
1.000000 0.477119 0.000000
1.000000 0.471839 0.000000
0.000000 0.435248 0.302037
0.000000 0.435035 0.301732
0.000000 0.434852 0.301427
0.000000 0.434302 0.300694
0.000000 0.433692 0.299657
0.000000 0.432868 0.298283
0.000000 0.432013 0.296788
0.000000 0.430762 0.294896
0.000000 0.429511 0.292790
0.000000 0.428046 0.290562
0.000000 0.426398 0.288304
0.000000 0.438331 0.253941
0.000000 0.452125 0.199344
0.000000 0.467170 0.081086
0.000000 0.480201 0.000000
0.219669 0.490700 0.000000
0.320623 0.501244 0.000000
0.403662 0.510979 0.000000
0.477974 0.518547 0.000000
0.572412 0.555200 0.000000
0.650355 0.589960 0.000000
0.701778 0.600000 0.000000
0.749538 0.605188 0.000000
0.795254 0.607538 0.000000
0.838285 0.606775 0.000000
0.878355 0.603204 0.000000
0.915770 0.596063 0.000000
0.950774 0.583124 0.000000
0.983124 0.567102 0.000000
1.000000 0.547936 0.000000
1.000000 0.525841 0.000000
1.000000 0.500511 0.000000
1.000000 0.491646 0.000000
0.000000 0.477058 0.330632
0.000000 0.477089 0.330510
0.000000 0.476722 0.330083
0.000000 0.476265 0.329381
0.000000 0.475624 0.328374
0.000000 0.474800 0.327001
0.000000 0.473945 0.325414
0.000000 0.472816 0.323552
0.000000 0.471748 0.321538
0.000000 0.470497 0.319432
0.000000 0.468971 0.317113
0.000000 0.474037 0.300542
0.000000 0.487984 0.256199
0.000000 0.503258 0.183841
0.000000 0.519585 0.000000
0.117433 0.531182 0.000000
0.270054 0.542168 0.000000
0.370367 0.553307 0.000000
0.454932 0.561975 0.000000
0.535393 0.573632 0.000000
0.631586 0.610498 0.000000
0.708644 0.642969 0.000000
0.755215 0.647395 0.000000
0.798367 0.648035 0.000000
0.840879 0.647425 0.000000
0.880461 0.643732 0.000000
0.917266 0.637659 0.000000
0.951720 0.626276 0.000000
0.983703 0.611231 0.000000
1.000000 0.592981 0.000000
1.000000 0.572168 0.000000
1.000000 0.548363 0.000000
1.000000 0.521508 0.000000
0.000000 0.524193 0.362829
0.000000 0.524071 0.362585
0.000000 0.523827 0.362249
0.000000 0.523308 0.361547
0.000000 0.522820 0.360571
0.000000 0.522118 0.359258
0.000000 0.521263 0.357763
0.000000 0.520226 0.355871
0.000000 0.519280 0.353918
0.000000 0.518029 0.351659
0.000000 0.516533 0.349310
0.000000 0.514855 0.346715
0.000000 0.527825 0.309575
0.000000 0.542657 0.253117
0.000000 0.558801 0.151644
0.000000 0.574548 0.000000
0.187381 0.585412 0.000000
0.321996 0.596094 0.000000
0.422705 0.607080 0.000000
0.507988 0.613947 0.000000
0.593317 0.628870 0.000000
0.687800 0.662623 0.000000
0.760525 0.689906 0.000000
0.802426 0.689601 0.000000
0.841123 0.686122 0.000000
0.880400 0.682673 0.000000
0.916991 0.676692 0.000000
0.951080 0.667353 0.000000
0.982849 0.653101 0.000000
1.000000 0.635920 0.000000
1.000000 0.616083 0.000000
1.000000 0.593500 0.000000
1.000000 0.568139 0.000000
0.000000 0.572656 0.395941
0.000000 0.574121 0.396796
0.000000 0.573816 0.396399
0.000000 0.573388 0.395697
0.000000 0.572625 0.394659
0.000000 0.571832 0.393286
0.000000 0.570886 0.391577
0.000000 0.569848 0.389715
0.000000 0.568841 0.387671
0.000000 0.567834 0.385534
0.000000 0.566583 0.383215
0.000000 0.565057 0.380621
0.000000 0.570275 0.362463
0.000000 0.584741 0.314122
0.000000 0.600458 0.241032
0.000000 0.617365 0.071595
0.000000 0.631403 0.000000
0.249332 0.642359 0.000000
0.376532 0.653193 0.000000
0.477546 0.663386 0.000000
0.563073 0.667872 0.000000
0.651026 0.683436 0.000000
0.741268 0.712032 0.000000
0.809567 0.734401 0.000000
0.846799 0.729519 0.000000
0.880858 0.721614 0.000000
0.917052 0.715633 0.000000
0.950622 0.707240 0.000000
0.982055 0.694026 0.000000
1.000000 0.677546 0.000000
1.000000 0.658442 0.000000
1.000000 0.636744 0.000000
1.000000 0.612451 0.000000
0.000000 0.623987 0.431006
0.000000 0.624018 0.430915
0.000000 0.623804 0.430518
0.000000 0.623499 0.429908
0.000000 0.622950 0.428931
0.000000 0.622278 0.427680
0.000000 0.621637 0.426184
0.000000 0.620813 0.424353
0.000000 0.620081 0.422553
0.000000 0.618982 0.420356
0.000000 0.617884 0.417975
0.000000 0.616419 0.415381
0.000000 0.614984 0.412665
0.000000 0.628443 0.372045
0.000000 0.643915 0.312749
0.000000 0.660609 0.217197
0.000000 0.678218 0.000000
0.084871 0.689296 0.000000
0.308812 0.698634 0.000000
0.430091 0.707210 0.000000
0.529900 0.714961 0.000000
0.614557 0.716793 0.000000
0.703578 0.732326 0.000000
0.789792 0.756649 0.000000
0.853910 0.774594 0.000000
0.886961 0.765621 0.000000
0.916777 0.754147 0.000000
0.950042 0.745724 0.000000
0.981109 0.733883 0.000000
1.000000 0.718105 0.000000
1.000000 0.699641 0.000000
1.000000 0.678614 0.000000
1.000000 0.655207 0.000000
0.000000 0.677516 0.467506
0.000000 0.677424 0.467323
0.000000 0.677394 0.467109
0.000000 0.677089 0.466499
0.000000 0.676783 0.465644
0.000000 0.676295 0.464515
0.000000 0.675837 0.463203
0.000000 0.675257 0.461524
0.000000 0.674403 0.459602
0.000000 0.673640 0.457527
0.000000 0.672663 0.455238
0.000000 0.671473 0.452705
0.000000 0.670466 0.450294
0.000000 0.676020 0.430335
0.000000 0.690608 0.378088
0.000000 0.705776 0.303471
0.000000 0.721523 0.169589
0.000000 0.736049 0.000000
0.193271 0.743801 0.000000
0.364904 0.751034 0.000000
0.481819 0.757717 0.000000
0.580652 0.763638 0.000000
0.664454 0.763485 0.000000
0.753811 0.778378 0.000000
0.835477 0.798398 0.000000
0.895201 0.812039 0.000000
0.924346 0.799344 0.000000
0.950591 0.784817 0.000000
0.980591 0.773495 0.000000
1.000000 0.758145 0.000000
1.000000 0.740139 0.000000
1.000000 0.719661 0.000000
1.000000 0.696742 0.000000
0.000000 0.730770 0.503899
0.000000 0.730587 0.503655
0.000000 0.730556 0.503471
0.000000 0.730465 0.503014
0.000000 0.730251 0.502251
0.000000 0.729854 0.501091
0.000000 0.729458 0.499855
0.000000 0.728969 0.498299
0.000000 0.728481 0.496559
0.000000 0.727871 0.494545
0.000000 0.727260 0.492500
0.000000 0.726497 0.490211
0.000000 0.725826 0.487984
0.000000 0.724941 0.485573
0.000000 0.737118 0.440497
0.000000 0.750698 0.376867
0.000000 0.764675 0.282597
0.000000 0.779019 0.000000
0.000000 0.789456 0.000000
0.267124 0.795377 0.000000
