SLOG3/[TTG] Sky Blue_SLOG3.cube
# Created by Adobe Lightroom plugin Export LUT (1.22.0)
# www.johnrellis.com/lightroom/exportlut.htm
# Photo: SLOG3.jpg
# Color profile: /Library/Application Support/Adobe/Color/Profiles/Recommended/AdobeRGB1998.icc
LUT_3D_SIZE 9
DOMAIN_MIN 0.0 0.0 0.0
DOMAIN_MAX 1.0 1.0 1.0
0.000000 0.000000 0.000000
0.062684 0.002136 0.000000
0.154574 0.015503 0.000000
0.276982 0.060334 0.000000
0.433509 0.101015 0.000000
0.625055 0.148318 0.000000
0.824765 0.192081 0.000000
0.976013 0.215702 0.000000
1.000000 0.219852 0.000000
0.000000 0.039948 0.019593
0.063233 0.056397 0.000000
0.155398 0.060090 0.000000
0.276799 0.085878 0.000000
0.432471 0.122469 0.000000
0.622309 0.167178 0.000000
0.822019 0.208896 0.000000
0.974243 0.230930 0.000000
1.000000 0.233677 0.000000
0.000000 0.106447 0.075654
0.000000 0.103883 0.072694
0.154147 0.139956 0.000000
0.280919 0.150423 0.000000
0.436957 0.177188 0.000000
0.626917 0.221500 0.000000
0.825101 0.261051 0.000000
0.976349 0.278752 0.000000
1.000000 0.277226 0.000000
0.000000 0.192813 0.135317
0.000000 0.190890 0.132601
0.000000 0.206729 0.000000
0.280613 0.254765 0.000000
0.446021 0.281804 0.000000
0.636683 0.292546 0.000000
0.831754 0.332921 0.000000
0.979431 0.346777 0.000000
1.000000 0.340368 0.000000
0.000000 0.299138 0.208499
0.000000 0.297673 0.206180
0.000000 0.292882 0.199283
0.151400 0.333837 0.000000
0.444160 0.403021 0.000000
0.641444 0.440803 0.000000
0.835660 0.443366 0.000000
0.982513 0.424109 0.000000
1.000000 0.413519 0.000000
0.000000 0.435248 0.302037
0.000000 0.433692 0.299657
0.000000 0.429511 0.292790
0.000000 0.452125 0.199344
0.320623 0.501244 0.000000
0.650355 0.589960 0.000000
0.838285 0.606775 0.000000
0.983124 0.567102 0.000000
1.000000 0.491646 0.000000
0.000000 0.623987 0.431006
0.000000 0.622950 0.428931
0.000000 0.620081 0.422553
0.000000 0.614984 0.412665
0.000000 0.678218 0.000000
0.529900 0.714961 0.000000
0.853910 0.774594 0.000000
0.981109 0.733883 0.000000
1.000000 0.655207 0.000000
0.000000 0.830381 0.572412
0.000000 0.830076 0.571008
0.000000 0.829862 0.566522
0.000000 0.829007 0.559411
0.000000 0.849271 0.439765
0.176120 0.884581 0.000000
0.717586 0.887785 0.000000
0.998169 0.905058 0.000000
1.000000 0.815640 0.000000
0.000000 0.987152 0.681971
0.000000 0.987182 0.681056
0.000000 0.987732 0.678401
0.000000 0.988556 0.674678
0.000000 0.989349 0.672023
0.000000 1.000000 0.338781
0.443427 1.000000 0.000000
0.857633 1.000000 0.000000
1.000000 0.980011 0.000000
0.000000 0.027588 0.059663
0.053071 0.014679 0.054383
0.151125 0.019501 0.024231
0.272892 0.065705 0.000000
0.428077 0.109682 0.000000
0.616297 0.163912 0.000000
0.817350 0.207614 0.000000
0.972045 0.226322 0.000000
1.000000 0.224582 0.000000
0.000000 0.061219 0.063111
0.058625 0.058625 0.058625
0.151553 0.063630 0.031525
0.274022 0.086763 0.000000
0.429145 0.126406 0.000000
0.616480 0.178195 0.000000
0.816800 0.222599 0.000000
0.971374 0.240421 0.000000
1.000000 0.237949 0.000000
0.000000 0.115969 0.087251
0.030152 0.118929 0.092866
0.153780 0.141146 0.012757
0.279393 0.139406 0.000000
0.434943 0.174166 0.000000
0.622034 0.222812 0.000000
0.820859 0.269902 0.000000
0.973846 0.285374 0.000000
1.000000 0.280186 0.000000
0.000000 0.203586 0.147463
0.000000 0.202731 0.147372
0.000000 0.210391 0.095583
0.281041 0.255680 0.000000
0.443214 0.273686 0.000000
0.632166 0.287022 0.000000
0.827207 0.335821 0.000000
0.977142 0.350530 0.000000
1.000000 0.342107 0.000000
0.000000 0.309545 0.220829
0.000000 0.307897 0.218235
0.000000 0.302831 0.211032
0.137270 0.337957 0.000000
0.443275 0.402625 0.000000
0.639002 0.434730 0.000000
0.833310 0.437507 0.000000
0.980652 0.426215 0.000000
1.000000 0.414435 0.000000
0.000000 0.443305 0.311803
0.000000 0.441993 0.309606
0.000000 0.437812 0.302556
0.000000 0.453590 0.230533
0.312535 0.504051 0.000000
0.649317 0.589227 0.000000
0.837613 0.603113 0.000000
0.982086 0.570703 0.000000
1.000000 0.492348 0.000000
0.000000 0.631159 0.439551
0.000000 0.630091 0.437446
0.000000 0.627253 0.431006
0.000000 0.622766 0.421607
0.000000 0.679713 0.000000
0.524590 0.717189 0.000000
0.853788 0.774594 0.000000
0.981415 0.733761 0.000000
1.000000 0.656519 0.000000
0.000000 0.833494 0.577844
0.000000 0.833158 0.576318
0.000000 0.832670 0.571710
0.000000 0.831907 0.564599
0.000000 0.848661 0.463691
0.128786 0.885435 0.000000
0.712856 0.888273 0.000000
0.998230 0.905425 0.000000
1.000000 0.816770 0.000000
0.000000 0.988800 0.686061
0.000000 0.988861 0.685206
0.000000 0.989227 0.682460
0.000000 0.989746 0.678614
0.000000 0.990295 0.676020
0.000000 1.000000 0.372076
0.430365 1.000000 0.000000
0.854856 1.000000 0.000000
1.000000 0.980896 0.000000
0.000000 0.096071 0.146883
0.000000 0.078798 0.146822
0.135470 0.054047 0.137942
0.268650 0.000000 0.116732
0.429389 0.045380 0.073823
0.620294 0.113771 0.000000
0.821530 0.176089 0.000000
0.973144 0.227878 0.000000
1.000000 0.233829 0.000000
0.000000 0.111360 0.148928
0.000000 0.104250 0.146334
0.137453 0.082460 0.139406
0.270268 0.074250 0.116884
0.429328 0.092256 0.077455
0.619867 0.137484 0.000000
0.821103 0.193210 0.000000
0.973907 0.241245 0.000000
1.000000 0.246555 0.000000
0.000000 0.152377 0.156466
0.000000 0.150271 0.153811
0.142733 0.142733 0.142733
0.273564 0.144411 0.121309
0.433051 0.161349 0.077699
0.622950 0.197787 0.000000
0.822721 0.244724 0.000000
0.974884 0.282750 0.000000
1.000000 0.286534 0.000000
0.000000 0.218967 0.166842
0.000000 0.223178 0.171481
0.121614 0.228946 0.188296
0.280186 0.259312 0.103273
0.442084 0.250675 0.061860
0.632380 0.275395 0.000000
0.829557 0.317357 0.000000
0.978363 0.345159 0.000000
1.000000 0.346410 0.000000
0.000000 0.326635 0.240024
0.000000 0.330541 0.244175
0.036103 0.334722 0.253208
0.095155 0.351232 0.145022
0.445594 0.406806 0.000000
0.641047 0.420661 0.000000
0.837461 0.408576 0.000000
0.983062 0.419928 0.000000
1.000000 0.417426 0.000000
0.000000 0.463966 0.334356
0.000000 0.467811 0.338048
0.000000 0.468055 0.339879
0.000000 0.460334 0.328191
0.283940 0.516472 0.000000
0.649866 0.591028 0.000000
0.838254 0.592309 0.000000
0.983825 0.553918 0.000000
1.000000 0.494087 0.000000
0.000000 0.655879 0.465919
0.000000 0.656764 0.467445
0.000000 0.653742 0.463294
0.000000 0.648249 0.452583
0.000000 0.684749 0.273442
0.503624 0.725551 0.000000
0.854032 0.775601 0.000000
0.983062 0.726680 0.000000
1.000000 0.659388 0.000000
0.000000 0.845701 0.596887
0.000000 0.845060 0.597223
0.000000 0.844572 0.592493
0.000000 0.843229 0.584924
0.000000 0.847807 0.544640
0.000000 0.890379 0.000000
0.697475 0.893217 0.000000
0.998474 0.905943 0.000000
1.000000 0.820066 0.000000
0.000000 0.991913 0.699153
0.000000 0.991821 0.698207
0.000000 0.991882 0.695308
0.000000 0.992218 0.691554
0.000000 0.992126 0.689174
0.000000 1.000000 0.475166
0.380560 1.000000 0.000000
0.842924 1.000000 0.000000
1.000000 0.983459 0.000000
0.000000 0.172549 0.266789
0.000000 0.160678 0.267308
0.028809 0.096162 0.264408
0.246281 0.090669 0.250858
0.411414 0.019989 0.245457
0.621607 0.000000 0.184451
0.826078 0.018891 0.113832
0.979217 0.136904 0.000000
1.000000 0.182895 0.000000
0.000000 0.185580 0.267521
0.000000 0.177584 0.266606
0.007355 0.119051 0.264561
0.247074 0.113649 0.251255
0.412299 0.083589 0.241917
0.618708 0.026001 0.185763
0.823819 0.102876 0.114076
0.978363 0.160922 0.000000
1.000000 0.199435 0.000000
0.000000 0.222171 0.277134
0.000000 0.217716 0.274968
0.088197 0.201968 0.266697
0.252689 0.174258 0.255619
0.422980 0.162020 0.230167
0.621302 0.174899 0.191379
0.826505 0.199344 0.114260
0.980072 0.226932 0.000000
1.000000 0.249241 0.000000
0.000000 0.279698 0.287327
0.000000 0.278080 0.285466
0.028717 0.272770 0.278599
0.261418 0.261418 0.261418
0.433082 0.262119 0.235966
0.632410 0.275029 0.193484
0.834745 0.296513 0.104128
0.983337 0.310887 0.000000
1.000000 0.318578 0.000000
0.000000 0.349676 0.289281
0.000000 0.353582 0.288548
0.000000 0.364904 0.287449
0.235325 0.371618 0.317174
0.440497 0.410895 0.212467
0.640040 0.393133 0.178439
0.839384 0.393774 0.079683
0.986633 0.400946 0.000000
1.000000 0.397223 0.000000
0.000000 0.487251 0.362921
0.000000 0.491096 0.366400
0.000000 0.503105 0.379675
0.174777 0.510460 0.398383
0.217105 0.537133 0.238529
0.652033 0.597803 0.103395
0.843473 0.575799 0.000000
0.989868 0.518181 0.000000
1.000000 0.480629 0.000000
0.000000 0.675502 0.491920
0.000000 0.678859 0.494728
0.000000 0.688991 0.504784
0.000000 0.689601 0.510765
0.078553 0.688930 0.476020
0.458686 0.740230 0.126436
0.854765 0.779171 0.000000
0.987152 0.715236 0.000000
1.000000 0.637720 0.000000
0.000000 0.858671 0.616541
0.000000 0.860105 0.617884
0.000000 0.864469 0.623468
0.000000 0.861906 0.624109
0.000000 0.858824 0.615656
0.000000 0.892760 0.319158
0.665126 0.900999 0.000000
0.998627 0.907622 0.000000
1.000000 0.811887 0.000000
0.000000 1.000000 0.712856
0.000000 1.000000 0.713649
0.000000 1.000000 0.717678
0.000000 0.998047 0.718288
0.000000 0.996948 0.716335
0.000000 1.000000 0.632776
0.277195 1.000000 0.000000
0.817929 1.000000 0.000000
1.000000 0.988342 0.000000
0.000000 0.270542 0.419501
0.000000 0.260838 0.419776
0.000000 0.217350 0.419593
0.195407 0.140322 0.409583
0.386053 0.129274 0.393439
0.582574 0.090455 0.399329
0.816281 0.000000 0.339544
0.976013 0.122286 0.290562
1.000000 0.140780 0.195224
0.000000 0.283360 0.420478
0.000000 0.274937 0.420630
0.000000 0.236973 0.420417
0.191501 0.159609 0.411536
0.388281 0.150851 0.395361
0.585595 0.123812 0.399023
0.817960 0.000000 0.333776
0.975982 0.150454 0.288609
1.000000 0.154177 0.185367
0.000000 0.316503 0.429664
0.000000 0.311894 0.427985
0.000000 0.292210 0.422187
0.172152 0.215488 0.417823
0.394110 0.212345 0.400214
0.595911 0.200656 0.395300
0.822477 0.187839 0.337133
0.978882 0.220890 0.282567
1.000000 0.195804 0.146090
0.000000 0.371832 0.444587
0.000000 0.368353 0.442603
0.000000 0.355993 0.435492
0.202792 0.333440 0.420722
0.401740 0.300450 0.405707
0.612573 0.295995 0.381353
0.826841 0.306828 0.337133
0.983062 0.295537 0.256321
1.000000 0.258854 0.000000
0.000000 0.442939 0.455238
0.000000 0.441596 0.453712
0.000000 0.436805 0.447913
0.169528 0.427405 0.435248
0.411261 0.411261 0.411261
0.627527 0.409125 0.377966
0.835996 0.407691 0.324132
0.987671 0.393957 0.236637
1.000000 0.362463 0.000000
0.000000 0.518730 0.453346
0.000000 0.522087 0.453620
0.000000 0.534051 0.453223
0.000000 0.551720 0.443030
0.380072 0.557244 0.484657
0.643946 0.603906 0.347906
0.843778 0.548852 0.308415
0.992004 0.499580 0.224125
1.000000 0.462226 0.000000
0.000000 0.699123 0.525933
0.000000 0.702022 0.528313
0.000000 0.711452 0.537163
0.000000 0.724208 0.555047
0.316686 0.726131 0.580255
0.378180 0.754604 0.378729
0.851255 0.784024 0.244419
0.989899 0.698116 0.162783
1.000000 0.595666 0.000000
0.000000 0.872953 0.642725
0.000000 0.874357 0.643977
0.000000 0.878691 0.648737
0.000000 0.883665 0.659968
0.229618 0.879393 0.675654
0.326024 0.881621 0.625788
0.611963 0.909697 0.271427
0.995453 0.909667 0.000000
1.000000 0.797147 0.000000
0.000000 1.000000 0.731350
0.000000 1.000000 0.731960
0.000000 1.000000 0.734676
0.000000 1.000000 0.743221
0.134615 1.000000 0.757961
0.348302 0.997681 0.762631
0.255039 1.000000 0.411719
0.775631 1.000000 0.000000
1.000000 0.989166 0.000000
0.000000 0.392096 0.608850
0.000000 0.383673 0.609247
0.000000 0.348302 0.609522
0.000000 0.238590 0.607355
0.354986 0.191257 0.593652
0.565209 0.175235 0.576074
0.776120 0.204990 0.584161
0.955108 0.254734 0.545312
1.000000 0.439979 0.552422
0.000000 0.403601 0.609277
0.000000 0.395453 0.609461
0.000000 0.362707 0.609827
0.000000 0.265965 0.607935
0.352483 0.209415 0.594873
0.566400 0.196414 0.577050
0.777523 0.225895 0.583825
0.955505 0.274052 0.544518
1.000000 0.458778 0.558251
0.000000 0.434272 0.615839
0.000000 0.429603 0.614710
0.000000 0.408942 0.611872
0.000000 0.348089 0.611139
0.343328 0.265690 0.599939
0.571984 0.259434 0.581598
0.784024 0.290501 0.583795
0.958282 0.335729 0.543023
1.000000 0.468544 0.548119
0.000000 0.484535 0.628992
0.000000 0.481056 0.627893
0.000000 0.467781 0.622950
0.000000 0.440009 0.614008
0.321386 0.351263 0.607813
0.580468 0.351659 0.588495
0.794308 0.381659 0.581231
0.962799 0.418799 0.536797
1.000000 0.454627 0.504082
0.000000 0.557122 0.647730
0.000000 0.554589 0.646540
0.000000 0.545159 0.641596
0.000000 0.527459 0.631647
0.345251 0.501183 0.613916
0.591302 0.465553 0.596368
0.809567 0.485451 0.571099
0.968353 0.502068 0.530297
1.000000 0.428107 0.411383
0.000000 0.637232 0.655116
0.000000 0.636439 0.654139
0.000000 0.633967 0.650874
0.000000 0.628962 0.643977
0.301122 0.620783 0.631464
0.604059 0.604059 0.604059
0.822507 0.593378 0.563348
0.978515 0.562280 0.494850
1.000000 0.486854 0.355108
0.000000 0.736049 0.665583
0.000000 0.735164 0.662806
0.000000 0.739406 0.658564
0.000000 0.751766 0.651728
0.170535 0.764645 0.625971
0.575402 0.757351 0.680171
0.830076 0.787137 0.532799
0.980499 0.691646 0.481514
1.000000 0.586542 0.339361
0.000000 0.889433 0.699001
0.000000 0.890745 0.696284
0.000000 0.895171 0.685115
0.000000 0.901091 0.689021
0.000000 0.903319 0.710292
0.547021 0.890318 0.754482
0.588098 0.911986 0.577325
0.982086 0.912810 0.427527
1.000000 0.783963 0.288121
0.000000 1.000000 0.754726
0.000000 1.000000 0.755184
0.000000 1.000000 0.757076
0.000000 1.000000 0.762692
0.000000 1.000000 0.781857
0.529808 0.999084 0.821866
0.596918 1.000000 0.780453
0.735775 1.000000 0.423438
1.000000 0.990417 0.000000
0.000000 0.513695 0.796506
0.000000 0.506432 0.796933
0.000000 0.478798 0.797665
0.000000 0.420935 0.798520
0.140627 0.295476 0.795712
0.539391 0.286168 0.784329
0.757351 0.290776 0.771115
0.921172 0.420966 0.754971
1.000000 0.579339 0.758541
0.000000 0.523095 0.796170
0.000000 0.516106 0.796506
0.000000 0.489906 0.797421
0.000000 0.435065 0.798215
0.126314 0.309880 0.795987
0.538109 0.301823 0.784451
0.757717 0.308049 0.771206
0.920928 0.434333 0.755337
1.000000 0.586267 0.758968
0.000000 0.550134 0.799100
0.000000 0.546258 0.798581
0.000000 0.527306 0.798276
0.000000 0.480903 0.798154
0.085176 0.360479 0.797513
0.534752 0.354040 0.786099
0.759731 0.364080 0.772457
0.920897 0.480232 0.757473
1.000000 0.610163 0.760555
0.000000 0.591302 0.805936
0.000000 0.588128 0.805417
0.000000 0.576867 0.803433
0.000000 0.552972 0.800351
0.252659 0.493202 0.799344
0.531456 0.438575 0.790982
0.765805 0.450935 0.776699
0.922850 0.552544 0.762966
1.000000 0.649958 0.763424
0.000000 0.649226 0.814725
0.000000 0.646754 0.814267
0.000000 0.638056 0.812497
0.000000 0.622431 0.808560
0.238651 0.602197 0.801236
0.522148 0.539178 0.796078
0.772183 0.554498 0.780514
0.928344 0.627375 0.765438
1.000000 0.698299 0.764096
0.000000 0.722499 0.824094
0.000000 0.721248 0.823819
0.000000 0.716518 0.822873
0.000000 0.706630 0.819272
0.105043 0.692805 0.812406
0.550652 0.687282 0.797696
0.779019 0.671595 0.783505
0.935760 0.708949 0.765347
1.000000 0.726925 0.745083
0.000000 0.805783 0.828489
0.000000 0.805600 0.828183
0.000000 0.804959 0.826963
0.000000 0.803891 0.824613
0.000000 0.802243 0.819974
0.517693 0.799283 0.809903
0.789670 0.789670 0.789670
0.946532 0.777462 0.757473
1.000000 0.723323 0.677638
0.000000 0.923186 0.852903
0.000000 0.924468 0.852689
0.000000 0.924346 0.847349
0.000000 0.919188 0.831449
0.000000 0.922393 0.814450
0.436652 0.920195 0.787686
0.772213 0.900481 0.843870
0.950805 0.917205 0.736599
1.000000 0.817624 0.663172
0.000000 1.000000 0.840879
0.000000 1.000000 0.838468
0.000000 1.000000 0.829496
0.000000 1.000000 0.810971
0.000000 1.000000 0.799557
0.424262 1.000000 0.837308
0.756649 0.993835 0.893156
0.775845 1.000000 0.763821
1.000000 0.993164 0.569329
0.000000 0.603174 0.930175
0.000000 0.598108 0.930449
0.000000 0.580072 0.931029
0.000000 0.550866 0.931273
0.105501 0.490669 0.931304
0.467628 0.456001 0.927459
0.720821 0.483894 0.918730
0.896513 0.524102 0.909392
1.000000 0.692226 0.898894
0.000000 0.610620 0.929625
0.000000 0.605646 0.929870
0.000000 0.588128 0.930480
0.000000 0.559716 0.930785
0.151156 0.506920 0.930632
0.468605 0.467140 0.927153
0.720974 0.494545 0.918456
0.896452 0.534203 0.909148
1.000000 0.697719 0.899199
0.000000 0.633906 0.930968
0.000000 0.631495 0.930755
0.000000 0.616815 0.930999
0.000000 0.591058 0.931212
0.253300 0.562951 0.930083
0.475593 0.507164 0.927642
0.723781 0.533318 0.918639
0.897398 0.569787 0.909209
1.000000 0.717433 0.900755
0.000000 0.664942 0.934142
0.000000 0.662623 0.933959
0.000000 0.655360 0.933135
0.000000 0.641016 0.931823
0.272587 0.624201 0.930327
0.487861 0.571008 0.928801
0.730343 0.596796 0.920012
0.900237 0.625940 0.910552
1.000000 0.750546 0.904021
0.000000 0.710353 0.937591
0.000000 0.708217 0.937469
0.000000 0.700801 0.936889
0.000000 0.688228 0.935607
0.160037 0.685298 0.931518
0.554528 0.680964 0.927428
0.734798 0.667720 0.921233
0.903166 0.691188 0.911589
1.000000 0.791562 0.907744
0.000000 0.769955 0.942596
0.000000 0.768338 0.942382
0.000000 0.762417 0.941466
0.000000 0.752651 0.940337
0.000000 0.742916 0.937438
0.525444 0.759396 0.929046
0.740658 0.747280 0.923339
0.907225 0.764950 0.913176
1.000000 0.832822 0.909514
0.000000 0.841215 0.946471
0.000000 0.840360 0.946441
0.000000 0.837522 0.946349
0.000000 0.832334 0.945953
0.000000 0.826352 0.943877
0.445594 0.828977 0.937530
0.760739 0.847684 0.925475
0.913359 0.843626 0.916411
1.000000 0.878904 0.910552
0.000000 0.920928 0.947051
0.000000 0.920928 0.947021
0.000000 0.921050 0.946746
0.000000 0.921233 0.946014
0.000000 0.921843 0.944121
0.408637 0.923186 0.939727
0.735225 0.924193 0.932097
0.920073 0.920043 0.920073
1.000000 0.906371 0.893828
0.000000 1.000000 0.966705
0.000000 1.000000 0.966705
0.000000 1.000000 0.966674
0.000000 1.000000 0.966186
0.000000 1.000000 0.952453
0.243778 1.000000 0.929747
0.675410 1.000000 0.911894
0.909545 0.993103 0.955413
1.000000 0.996918 0.870603
0.000000 0.671351 1.000000
0.000000 0.669642 1.000000
0.000000 0.666529 1.000000
0.000000 0.676905 1.000000
0.530907 0.725551 1.000000
0.613062 0.696895 1.000000
0.764157 0.727047 1.000000
0.892149 0.758663 0.998047
0.985534 0.787533 0.993561
0.000000 0.676478 1.000000
0.000000 0.674739 1.000000
0.000000 0.671626 1.000000
0.000000 0.681300 1.000000
0.527794 0.728481 1.000000
0.620386 0.705806 1.000000
0.765591 0.732052 1.000000
0.892424 0.762509 0.997925
0.985595 0.790738 0.993500
0.000000 0.693446 1.000000
0.000000 0.692561 1.000000
0.000000 0.688258 1.000000
0.000000 0.694697 1.000000
0.511345 0.737301 1.000000
0.645350 0.735836 1.000000
0.771450 0.750393 1.000000
0.894499 0.777981 0.998016
0.986236 0.803769 0.993683
0.000000 0.711299 1.000000
0.000000 0.710506 1.000000
0.000000 0.710506 1.000000
0.000000 0.716182 1.000000
0.462287 0.749691 1.000000
0.682246 0.782223 1.000000
0.779110 0.778470 1.000000
0.897246 0.802090 0.998291
0.987304 0.824765 0.994049
0.000000 0.743038 1.000000
0.000000 0.741299 1.000000
0.000000 0.734493 1.000000
0.000000 0.732845 1.000000
0.307744 0.762203 1.000000
0.685664 0.818357 1.000000
0.786862 0.813199 1.000000
0.900389 0.833097 0.998810
0.988861 0.852964 0.994598
0.000000 0.789853 1.000000
0.000000 0.788113 1.000000
0.000000 0.782162 1.000000
0.000000 0.772519 1.000000
0.000000 0.765530 1.000000
0.577752 0.827085 1.000000
0.808957 0.864164 1.000000
0.901976 0.867033 0.999054
0.990417 0.884855 0.994965
0.000000 0.847166 1.000000
0.000000 0.845823 1.000000
0.000000 0.841154 1.000000
0.000000 0.833280 1.000000
0.000000 0.825406 1.000000
0.283818 0.834836 1.000000
0.769192 0.896147 1.000000
0.908843 0.910735 1.000000
0.993378 0.924376 0.996399
0.000000 0.913756 1.000000
0.000000 0.913085 1.000000
0.000000 0.910552 1.000000
0.000000 0.905974 1.000000
0.000000 0.900206 1.000000
0.000000 0.900603 1.000000
0.659022 0.924163 1.000000
0.909606 0.956847 1.000000
0.996368 0.963836 0.997864
0.000000 0.987732 1.000000
0.000000 0.987762 1.000000
0.000000 0.987457 1.000000
0.000000 0.987793 1.000000
0.000000 0.988434 1.000000
0.000000 0.991913 1.000000
0.595972 0.997406 1.000000
0.872221 1.000000 1.000000
0.999756 0.999756 0.999756
