SLOG3/[TTG] Sky Blue_SLOG3.cube
# Created by Adobe Lightroom plugin Export LUT (1.22.0)
# www.johnrellis.com/lightroom/exportlut.htm
# Photo: SLOG3.jpg
# Color profile: /Library/Application Support/Adobe/Color/Profiles/Recommended/AdobeRGB1998.icc
LUT_3D_SIZE 5
DOMAIN_MIN 0.0 0.0 0.0
DOMAIN_MAX 1.0 1.0 1.0
0.000000 0.000000 0.000000
0.154574 0.015503 0.000000
0.433509 0.101015 0.000000
0.824765 0.192081 0.000000
1.000000 0.219852 0.000000
0.000000 0.106447 0.075654
0.154147 0.139956 0.000000
0.436957 0.177188 0.000000
0.825101 0.261051 0.000000
1.000000 0.277226 0.000000
0.000000 0.299138 0.208499
0.000000 0.292882 0.199283
0.444160 0.403021 0.000000
0.835660 0.443366 0.000000
1.000000 0.413519 0.000000
0.000000 0.623987 0.431006
0.000000 0.620081 0.422553
0.000000 0.678218 0.000000
0.853910 0.774594 0.000000
1.000000 0.655207 0.000000
0.000000 0.987152 0.681971
0.000000 0.987732 0.678401
0.000000 0.989349 0.672023
0.443427 1.000000 0.000000
1.000000 0.980011 0.000000
0.000000 0.096071 0.146883
0.135470 0.054047 0.137942
0.429389 0.045380 0.073823
0.821530 0.176089 0.000000
1.000000 0.233829 0.000000
0.000000 0.152377 0.156466
0.142733 0.142733 0.142733
0.433051 0.161349 0.077699
0.822721 0.244724 0.000000
1.000000 0.286534 0.000000
0.000000 0.326635 0.240024
0.036103 0.334722 0.253208
0.445594 0.406806 0.000000
0.837461 0.408576 0.000000
1.000000 0.417426 0.000000
0.000000 0.655879 0.465919
0.000000 0.653742 0.463294
0.000000 0.684749 0.273442
0.854032 0.775601 0.000000
1.000000 0.659388 0.000000
0.000000 0.991913 0.699153
0.000000 0.991882 0.695308
0.000000 0.992126 0.689174
0.380560 1.000000 0.000000
1.000000 0.983459 0.000000
0.000000 0.270542 0.419501
0.000000 0.217350 0.419593
0.386053 0.129274 0.393439
0.816281 0.000000 0.339544
1.000000 0.140780 0.195224
0.000000 0.316503 0.429664
0.000000 0.292210 0.422187
0.394110 0.212345 0.400214
0.822477 0.187839 0.337133
1.000000 0.195804 0.146090
0.000000 0.442939 0.455238
0.000000 0.436805 0.447913
0.411261 0.411261 0.411261
0.835996 0.407691 0.324132
1.000000 0.362463 0.000000
0.000000 0.699123 0.525933
0.000000 0.711452 0.537163
0.316686 0.726131 0.580255
0.851255 0.784024 0.244419
1.000000 0.595666 0.000000
0.000000 1.000000 0.731350
0.000000 1.000000 0.734676
0.134615 1.000000 0.757961
0.255039 1.000000 0.411719
1.000000 0.989166 0.000000
0.000000 0.513695 0.796506
0.000000 0.478798 0.797665
0.140627 0.295476 0.795712
0.757351 0.290776 0.771115
1.000000 0.579339 0.758541
0.000000 0.550134 0.799100
0.000000 0.527306 0.798276
0.085176 0.360479 0.797513
0.759731 0.364080 0.772457
1.000000 0.610163 0.760555
0.000000 0.649226 0.814725
0.000000 0.638056 0.812497
0.238651 0.602197 0.801236
0.772183 0.554498 0.780514
1.000000 0.698299 0.764096
0.000000 0.805783 0.828489
0.000000 0.804959 0.826963
0.000000 0.802243 0.819974
0.789670 0.789670 0.789670
1.000000 0.723323 0.677638
0.000000 1.000000 0.840879
0.000000 1.000000 0.829496
0.000000 1.000000 0.799557
0.756649 0.993835 0.893156
1.000000 0.993164 0.569329
0.000000 0.671351 1.000000
0.000000 0.666529 1.000000
0.530907 0.725551 1.000000
0.764157 0.727047 1.000000
0.985534 0.787533 0.993561
0.000000 0.693446 1.000000
0.000000 0.688258 1.000000
0.511345 0.737301 1.000000
0.771450 0.750393 1.000000
0.986236 0.803769 0.993683
0.000000 0.743038 1.000000
0.000000 0.734493 1.000000
0.307744 0.762203 1.000000
0.786862 0.813199 1.000000
0.988861 0.852964 0.994598
0.000000 0.847166 1.000000
0.000000 0.841154 1.000000
0.000000 0.825406 1.000000
0.769192 0.896147 1.000000
0.993378 0.924376 0.996399
0.000000 0.987732 1.000000
0.000000 0.987457 1.000000
0.000000 0.988434 1.000000
0.595972 0.997406 1.000000
0.999756 0.999756 0.999756
